; generated by SuperSlicer 2.3.57 on 2022-03-15 at 09:37:30 UTC

; 

; external perimeters extrusion width = 0.45mm
; perimeters extrusion width = 0.45mm
; infill extrusion width = 0.45mm
; solid infill extrusion width = 0.45mm
; top infill extrusion width = 0.40mm
; support material extrusion width = 0.35mm
; first layer extrusion width = 0.42mm

; object:{"name":"Black - Cable Chain End_2","id":"Black - Cable Chain End_2.stl id:0 copy 0","object_center":[143.750000,92.000000,0.000000],"boundingbox_center":[143.750000,92.000000,7.500000],"boundingbox_size":[31.500000,20.000000,15.000000]}
; object:{"name":"Black - Cable Chain End_2","id":"Black - Cable Chain End_2.stl id:0 copy 1","object_center":[143.750000,118.000000,0.000000],"boundingbox_center":[143.750000,118.000000,7.500000],"boundingbox_size":[31.500000,20.000000,15.000000]}
; object:{"name":"Black - Cable Chain Start_2","id":"Black - Cable Chain Start_2.stl id:1 copy 0","object_center":[106.250000,92.000000,0.000000],"boundingbox_center":[106.250000,92.000000,7.500000],"boundingbox_size":[31.500000,20.000000,15.000000]}
; object:{"name":"Black - Cable Chain Start_2","id":"Black - Cable Chain Start_2.stl id:1 copy 1","object_center":[106.250000,118.000000,0.000000],"boundingbox_center":[106.250000,118.000000,7.500000],"boundingbox_size":[31.500000,20.000000,15.000000]}
; Total objects to print: 4
M486 T4
; plater:{"center":[125.000000,105.000000,0.000000],"boundingbox_center":[125.000000,105.000000,7.500000],"boundingbox_size":[69.000000,46.000000,15.000000]}

M73 P0 R96
M73 Q0 S98
;TYPE:Custom
M862.3 P "MK3S" ; printer model check
M862.1 P0.4 ; nozzle diameter check
M115 U3.10.0 ; tell printer latest fw version
G90 ; use absolute coordinates
M83 ; extruder relative mode
M104 S255 ; set extruder temp
M140 S100 ; set bed temp
M190 S100 ; wait for bed temp
M109 S255 ; wait for extruder temp
G28 W ; home all without mesh bed level
G80 ; mesh bed leveling
G1 Y-3.0 F1000.0 ; go outside print area
G92 E0.0
G1 X60.0 E9.0 F1000.0 ; intro line
G1 X100.0 E12.5 F1000.0 ; intro line
G92 E0.0
M221 S95

; Don't change E values below. Excessive value can damage the printer.
M907 E430 ; set extruder motor current
M107
G21 ; set units to millimeters
G90 ; use absolute coordinates
M83 ; use relative distances for extrusion
M900 K0.04 ; Filament gcode LA 1.5
M900 K20 ; Filament gcode LA 1.0
;LAYER_CHANGE
;Z:0.2
;HEIGHT:0.2
;BEFORE_LAYER_CHANGE
G92 E0.0
;0.2


G1 E-0.8 F2100
G1 Z0.4 F10800
;AFTER_LAYER_CHANGE
;0.2
G1 Z0.6
M204 P1500
G1 X90.874 Y80.513
G1 Z0.2
G1 E0.8 F2100
;TYPE:Skirt
;WIDTH:0.45
G1 F1200
G1 X88.666 Y83.479 E0.12515
G1 X88.391 Y84.06 E0.02177
G1 X88.296 Y84.7 E0.02189
G1 X88.297 Y125.319 E1.37489
G1 X88.391 Y125.94 E0.02128
G1 X88.658 Y126.509 E0.02128
G1 X90.842 Y129.451 E0.12402
G1 X91.276 Y129.832 E0.01956
G1 X91.794 Y130.088 E0.01956
G1 X112.933 Y134.709 E0.73241
G1 X117.551 Y134.874 E0.15643
G1 X141.72 Y134.861 E0.81808
G1 X158.125 Y130.113 E0.57808
G1 X158.708 Y129.843 E0.02177
G1 X159.228 Y129.367 E0.02386
G1 X161.324 Y126.537 E0.1192
G1 X161.587 Y126.006 E0.02005
G1 X161.7 Y125.425 E0.02005
G1 X161.703 Y84.681 E1.37911
G1 X161.609 Y84.06 E0.02128
G1 X161.342 Y83.491 E0.02128
G1 X159.18 Y80.574 E0.1229
G1 X158.802 Y80.222 E0.01746
G1 X158.353 Y79.968 E0.01746
G1 X141.954 Y75.339 E0.57678
G1 X122.845 Y75.126 E0.64686
G1 X112.704 Y75.152 E0.34328
G1 X91.978 Y79.859 E0.71941
G1 X91.376 Y80.105 E0.02202
G1 X90.92 Y80.475 E0.01986
; INIT printing object Black - Cable Chain End_2.stl id:0 copy 0
;WIPE_START
G1 F8640
M204 P1000
G1 X88.945 Y83.107 E-0.76
;WIPE_END
G1 E-0.04 F2100
G1 Z0.6 F10800
; printing object Black - Cable Chain End_2.stl id:0 copy 0
M486 S0
M204 P1500
G1 X112.651 Y90.921
M204 P1000
G1 X134.382 Y101.367
G1 Z0.2
G1 E0.8 F2100
;TYPE:Support material interface
;WIDTH:0.35
G1 F1200
G1 X134.382 Y100.572 E0.02028
G1 X133.875 Y100.572 E0.01295
G1 X133.875 Y101.234 E0.01691
G1 X133.368 Y101.234 E0.01295
G1 X133.368 Y100.572 E0.01691
G1 X133.357 Y100.572 E0.00029
G1 X133.139 Y100.354 E0.00788
G1 X133.139 Y98.146 E0.05639
G1 X133.357 Y97.928 E0.00788
G1 X133.368 Y97.928 E0.00029
G1 X133.368 Y96.608 E0.0337
G1 X133.875 Y96.608 E0.01295
G1 X133.875 Y97.928 E0.0337
G1 X134.382 Y97.928 E0.01295
G1 X134.382 Y96.476 E0.03707
;WIPE_START
G1 F8640
G1 X134.382 Y97.928 E-0.3352
G1 X133.875 Y97.928 E-0.11709
G1 X133.875 Y96.608 E-0.30471
G1 X133.862 Y96.608 E-0.00301
;WIPE_END
G1 E-0.04 F2100
G1 Z0.6 F10800
M204 P1500
G1 X133.622 Y98.921
M204 P1000
G1 X132.861 Y101.367
G1 Z0.2
G1 E0.8 F2100
G1 F1200
G1 X132.861 Y96.608 E0.1215
G1 X132.354 Y96.608 E0.01295
G1 X132.354 Y101.367 E0.1215
;WIPE_START
G1 F8640
G1 X132.354 Y98.075 E-0.76
;WIPE_END
G1 E-0.04 F2100
G1 Z0.6 F10800
M204 P1500
G1 X133.368 Y94.445
M204 P1000
G1 X134.382 Y87.524
G1 Z0.2
G1 E0.8 F2100
G1 F1200
G1 X134.382 Y86.072 E0.03707
G1 X133.875 Y86.072 E0.01295
G1 X133.875 Y87.392 E0.03369
G1 X133.368 Y87.392 E0.01295
G1 X133.368 Y86.072 E0.03369
G1 X133.357 Y86.072 E0.00029
G1 X133.139 Y85.854 E0.00788
G1 X133.139 Y83.646 E0.05639
G1 X133.357 Y83.428 E0.00788
G1 X133.368 Y83.428 E0.00029
G1 X133.368 Y82.766 E0.01691
G1 X133.875 Y82.766 E0.01295
G1 X133.875 Y83.428 E0.01691
G1 X134.382 Y83.428 E0.01295
G1 X134.382 Y82.633 E0.02028
;WIPE_START
G1 F8640
G1 X134.382 Y83.428 E-0.18337
G1 X133.875 Y83.428 E-0.11709
G1 X133.875 Y82.766 E-0.15288
G1 X133.368 Y82.766 E-0.11709
G1 X133.368 Y83.428 E-0.15288
G1 X133.357 Y83.428 E-0.00259
G1 X133.252 Y83.532 E-0.03409
;WIPE_END
G1 E-0.04 F2100
G1 Z0.6 F10800
M204 P1500
G1 X133.622 Y85.079
M204 P1000
G1 X132.861 Y87.524
G1 Z0.2
G1 E0.8 F2100
G1 F1200
G1 X132.861 Y82.766 E0.1215
G1 X132.354 Y82.766 E0.01295
G1 X132.354 Y87.524 E0.1215
;WIPE_START
G1 F8640
G1 X132.354 Y84.233 E-0.76
;WIPE_END
G1 E-0.04 F2100
G1 Z0.6 F10800
M204 P1500
G1 X136.921 Y97.097
M204 P1000
G1 X141.488 Y106.67
G1 Z0.2
G1 E0.8 F2100
;TYPE:Support material
;WIDTH:0.42
G1 F1200
G1 X141.488 Y101.806 E0.15251
G1 X141.092 Y101.806 E0.01241
G1 X140.854 Y101.568 E0.01055
G1 X140.854 Y100.406 E0.03644
G1 X140.733 Y100.406 E0.00378
G1 X140.733 Y106.508 E0.19132
G1 X139.979 Y106.508 E0.02365
G1 X139.979 Y100.406 E0.19132
G1 X139.225 Y100.406 E0.02365
G1 X139.225 Y106.508 E0.19132
G1 X138.471 Y106.508 E0.02365
G1 X138.471 Y100.406 E0.19132
G1 X137.717 Y100.406 E0.02365
G1 X137.717 Y106.508 E0.19132
M73 Q0 S97
G1 X136.963 Y106.508 E0.02365
G1 X136.963 Y100.406 E0.19132
G1 X136.208 Y100.406 E0.02365
G1 X136.208 Y106.508 E0.19132
G1 X135.454 Y106.508 E0.02365
G1 X135.454 Y100.406 E0.19132
G1 X134.856 Y100.406 E0.01875
G1 X134.856 Y101.563 E0.03627
G1 X134.7 Y101.563 E0.0049
G1 X134.7 Y106.508 E0.15505
G1 X133.946 Y106.508 E0.02365
G1 X133.946 Y101.563 E0.15505
G1 X133.192 Y101.563 E0.02365
G1 X133.192 Y106.508 E0.15505
G1 X132.438 Y106.508 E0.02365
G1 X132.438 Y101.563 E0.15505
G1 X131.88 Y101.563 E0.01748
G1 X131.88 Y96.28 E0.16565
G1 X132.438 Y96.28 E0.01748
G1 X132.438 Y93.642 E0.08271
G1 X133.192 Y93.642 E0.02365
G1 X133.192 Y96.28 E0.08271
G1 X133.946 Y96.28 E0.02365
G1 X133.946 Y93.642 E0.08271
G1 X134.7 Y93.642 E0.02365
G1 X134.7 Y96.28 E0.08271
G1 X134.856 Y96.28 E0.0049
G1 X134.856 Y98.094 E0.05689
G1 X135.454 Y98.094 E0.01875
G1 X135.454 Y93.642 E0.1396
M73 P0 R95
G1 X136.208 Y93.642 E0.02365
G1 X136.208 Y98.094 E0.1396
G1 X136.963 Y98.094 E0.02365
G1 X136.963 Y93.642 E0.1396
G1 X137.494 Y93.642 E0.01667
G1 X137.494 Y97.606 E0.1243
G1 X137.717 Y97.606 E0.00698
G1 X137.717 Y98.094 E0.0153
G1 X138.471 Y98.094 E0.02365
G1 X138.471 Y97.606 E0.0153
G1 X139.225 Y97.606 E0.02365
G1 X139.225 Y98.094 E0.0153
G1 X139.979 Y98.094 E0.02365
G1 X139.979 Y97.606 E0.0153
G1 X140.733 Y97.606 E0.02365
G1 X140.733 Y98.256 E0.02038
;WIPE_START
G1 F8640
G1 X140.733 Y97.606 E-0.1501
G1 X139.979 Y97.606 E-0.17414
G1 X139.979 Y98.094 E-0.11266
G1 X139.225 Y98.094 E-0.17414
G1 X139.225 Y97.606 E-0.11266
G1 X139.068 Y97.606 E-0.0363
;WIPE_END
G1 E-0.04 F2100
G1 Z0.6 F10800
M204 P1500
G1 X137.34 Y99.331
M204 P1000
G1 X133.946 Y100.406
G1 Z0.2
G1 E0.8 F2100
G1 F1200
G1 X133.946 Y98.094 E0.0725
M204 P1500
G1 X132.815 Y102.382 F10800
M204 P1000
G1 X131.683 Y106.67
G1 F1200
G1 X131.683 Y93.642 E0.40849
G1 X130.929 Y93.642 E0.02365
G1 X130.929 Y106.508 E0.40341
G1 X130.175 Y106.508 E0.02365
G1 X130.175 Y93.642 E0.40341
G1 X129.421 Y93.642 E0.02365
G1 X129.421 Y106.508 E0.40341
G1 X129.242 Y106.508 E0.00561
G1 X129.242 Y104.201 E0.07234
G1 X128.667 Y104.201 E0.01804
G1 X128.667 Y93.642 E0.33107
G1 X127.913 Y93.642 E0.02365
G1 X127.913 Y104.201 E0.33107
G1 X127.159 Y104.201 E0.02365
G1 X127.159 Y93.48 E0.33616
;WIPE_START
G1 F8640
G1 X127.159 Y96.771 E-0.76
;WIPE_END
G1 E-0.04 F2100
G1 Z0.6 F10800
M204 P1500
G1 X134.323 Y87.918
M204 P1000
G1 X141.488 Y82.356
G1 Z0.2
G1 E0.8 F2100
G1 F1200
G1 X141.488 Y77.492 E0.15251
G1 X140.733 Y77.492 E0.02365
G1 X140.733 Y83.594 E0.19132
G1 X139.979 Y83.594 E0.02365
G1 X139.979 Y77.492 E0.19132
G1 X139.225 Y77.492 E0.02365
G1 X139.225 Y83.594 E0.19132
G1 X138.471 Y83.594 E0.02365
G1 X138.471 Y77.492 E0.19132
G1 X137.717 Y77.492 E0.02365
G1 X137.717 Y83.594 E0.19132
G1 X136.963 Y83.594 E0.02365
G1 X136.963 Y77.492 E0.19132
G1 X136.208 Y77.492 E0.02365
G1 X136.208 Y83.594 E0.19132
G1 X135.454 Y83.594 E0.02365
G1 X135.454 Y77.492 E0.19132
G1 X134.7 Y77.492 E0.02365
G1 X134.7 Y82.437 E0.15505
G1 X133.946 Y82.437 E0.02365
G1 X133.946 Y77.492 E0.15505
G1 X133.192 Y77.492 E0.02365
G1 X133.192 Y82.437 E0.15505
G1 X132.438 Y82.437 E0.02365
G1 X132.438 Y77.492 E0.15505
G1 X131.683 Y77.492 E0.02365
G1 X131.683 Y90.358 E0.40341
G1 X132.438 Y90.358 E0.02365
G1 X132.438 Y87.72 E0.08271
G1 X133.192 Y87.72 E0.02365
G1 X133.192 Y90.358 E0.08271
G1 X133.946 Y90.358 E0.02365
G1 X133.946 Y87.72 E0.08271
G1 X134.7 Y87.72 E0.02365
G1 X134.7 Y90.358 E0.08271
G1 X135.454 Y90.358 E0.02365
G1 X135.454 Y85.906 E0.1396
G1 X136.208 Y85.906 E0.02365
G1 X136.208 Y90.358 E0.1396
G1 X136.963 Y90.358 E0.02365
G1 X136.963 Y85.906 E0.1396
G1 X137.717 Y85.906 E0.02365
G1 X137.717 Y86.394 E0.0153
G1 X138.471 Y86.394 E0.02365
G1 X138.471 Y85.906 E0.0153
G1 X139.225 Y85.906 E0.02365
G1 X139.225 Y86.394 E0.0153
G1 X139.979 Y86.394 E0.02365
G1 X139.979 Y85.906 E0.0153
G1 X140.733 Y85.906 E0.02365
G1 X140.733 Y86.556 E0.02038
M204 P1500
G1 X137.34 Y86.231 F10800
M204 P1000
G1 X133.946 Y85.906
G1 F1200
G1 X133.946 Y83.594 E0.0725
M204 P1500
G1 X132.438 Y87.057 F10800
M204 P1000
G1 X130.929 Y90.52
G1 F1200
G1 X130.929 Y77.492 E0.40849
G1 X130.175 Y77.492 E0.02365
G1 X130.175 Y90.358 E0.40341
G1 X129.421 Y90.358 E0.02365
G1 X129.421 Y77.492 E0.40341
G1 X129.242 Y77.492 E0.00561
G1 X129.242 Y79.799 E0.07234
G1 X128.667 Y79.799 E0.01804
G1 X128.667 Y90.358 E0.33107
G1 X127.913 Y90.358 E0.02365
G1 X127.913 Y79.799 E0.33107
G1 X127.159 Y79.799 E0.02365
G1 X127.159 Y90.52 E0.33616
;WIPE_START
G1 F8640
G1 X127.159 Y87.229 E-0.76
;WIPE_END
G1 E-0.04 F2100
G1 Z0.6 F10800
M204 P1500
G1 X135.132 Y91.26
M204 P1000
G1 X143.106 Y92
G1 Z0.2
G1 E0.8 F2100
;TYPE:Internal perimeter
G1 F1200
G1 X143.188 Y92.62 E0.01959
G1 X143.427 Y93.197 E0.0196
G1 X143.807 Y93.693 E0.01959
G1 X144.303 Y94.073 E0.01959
G1 X144.88 Y94.312 E0.01959
G1 X145.5 Y94.394 E0.01959
G1 X146.12 Y94.312 E0.01959
G1 X146.697 Y94.073 E0.01959
G1 X147.193 Y93.693 E0.01959
G1 X147.573 Y93.197 E0.01959
G1 X147.812 Y92.62 E0.0196
G1 X147.894 Y92 E0.01959
G1 X147.812 Y91.38 E0.01959
G1 X147.573 Y90.803 E0.01959
G1 X147.193 Y90.307 E0.01959
G1 X146.697 Y89.927 E0.01959
G1 X146.12 Y89.688 E0.01959
G1 X145.5 Y89.606 E0.01959
G1 X144.88 Y89.688 E0.01959
G1 X144.303 Y89.927 E0.01959
G1 X143.807 Y90.307 E0.01959
G1 X143.427 Y90.803 E0.01959
G1 X143.188 Y91.38 E0.01959
G1 X143.114 Y91.941 E0.01771
M204 P1500
G1 X143.301 Y91.965 F10800
M204 P1000
G1 X143.488 Y91.99
;TYPE:External perimeter
G1 F1200
G1 X143.555 Y92.521 E0.01679
G1 X143.756 Y93.007 E0.01648
G1 X144.076 Y93.424 E0.01648
G1 X144.493 Y93.744 E0.01648
G1 X144.979 Y93.945 E0.01648
G1 X145.5 Y94.014 E0.01648
G1 X146.021 Y93.945 E0.01648
G1 X146.507 Y93.744 E0.01648
G1 X146.924 Y93.424 E0.01648
G1 X147.244 Y93.007 E0.01648
G1 X147.445 Y92.521 E0.01648
G1 X147.514 Y92 E0.01648
G1 X147.445 Y91.479 E0.01648
G1 X147.244 Y90.993 E0.01648
G1 X146.924 Y90.576 E0.01648
G1 X146.507 Y90.256 E0.01648
G1 X146.021 Y90.055 E0.01648
G1 X145.5 Y89.986 E0.01648
G1 X144.979 Y90.055 E0.01648
G1 X144.493 Y90.256 E0.01648
G1 X144.076 Y90.576 E0.01648
G1 X143.756 Y90.993 E0.01648
G1 X143.555 Y91.479 E0.01648
G1 X143.496 Y91.93 E0.01427
G1 X143.478 Y91.994 F10800
;WIPE_START
G1 F8640
G1 X143.486 Y92 E-0.01625
G1 X143.555 Y92.521 E-0.12137
G1 X143.756 Y93.007 E-0.12138
G1 X144.076 Y93.424 E-0.12137
G1 X144.493 Y93.744 E-0.12137
G1 X144.979 Y93.945 E-0.12137
G1 X145.5 Y94.014 E-0.12137
G1 X145.567 Y94.005 E-0.01553
;WIPE_END
G1 E-0.04 F2100
G1 Z0.6 F10800
M204 P1500
G1 X147.111 Y91.965
M204 P1000
G1 X150.726 Y92
G1 Z0.2
G1 E0.8 F2100
;TYPE:Internal perimeter
G1 F1200
G1 X150.82 Y92.718 E0.02271
G1 X151.098 Y93.387 E0.02271
G1 X151.538 Y93.962 E0.02271
G1 X152.113 Y94.403 E0.02271
G1 X152.782 Y94.68 E0.02271
G1 X153.5 Y94.774 E0.02271
G1 X154.218 Y94.68 E0.02271
G1 X154.887 Y94.403 E0.02271
G1 X155.462 Y93.962 E0.02271
G1 X155.903 Y93.387 E0.02271
G1 X156.18 Y92.718 E0.02271
G1 X156.274 Y92 E0.02271
G1 X156.18 Y91.282 E0.02271
G1 X155.903 Y90.613 E0.02271
G1 X155.462 Y90.038 E0.02271
G1 X154.887 Y89.597 E0.02271
G1 X154.218 Y89.32 E0.02271
G1 X153.5 Y89.226 E0.02271
G1 X152.782 Y89.32 E0.02271
G1 X152.113 Y89.597 E0.02271
G1 X151.538 Y90.038 E0.02271
G1 X151.097 Y90.613 E0.02271
G1 X150.82 Y91.282 E0.02271
G1 X150.734 Y91.941 E0.02083
M204 P1500
G1 X150.921 Y91.965 F10800
M204 P1000
G1 X151.108 Y91.99
G1 F1200
G1 X151.188 Y92.62 E0.01991
G1 X151.427 Y93.197 E0.0196
G1 X151.807 Y93.693 E0.01959
G1 X152.303 Y94.073 E0.01959
G1 X152.88 Y94.312 E0.01959
G1 X153.5 Y94.394 E0.01959
G1 X154.12 Y94.312 E0.01959
G1 X154.697 Y94.073 E0.01959
G1 X155.193 Y93.693 E0.01959
G1 X155.573 Y93.197 E0.01959
G1 X155.812 Y92.62 E0.0196
G1 X155.894 Y92 E0.01959
G1 X155.812 Y91.38 E0.01959
G1 X155.573 Y90.803 E0.01959
G1 X155.193 Y90.307 E0.01959
G1 X154.697 Y89.927 E0.01959
G1 X154.12 Y89.688 E0.01959
G1 X153.5 Y89.606 E0.01959
G1 X152.88 Y89.688 E0.01959
G1 X152.303 Y89.927 E0.01959
G1 X151.807 Y90.307 E0.01959
G1 X151.427 Y90.803 E0.01959
G1 X151.188 Y91.38 E0.01959
G1 X151.115 Y91.93 E0.01739
M204 P1500
G1 X151.302 Y91.955 F10800
M204 P1000
G1 X151.489 Y91.979
;TYPE:External perimeter
G1 F1200
G1 X151.486 Y92 E0.00065
G1 X151.555 Y92.521 E0.01648
G1 X151.756 Y93.007 E0.01648
G1 X152.076 Y93.424 E0.01648
G1 X152.493 Y93.744 E0.01648
G1 X152.979 Y93.945 E0.01648
G1 X153.5 Y94.014 E0.01648
G1 X154.021 Y93.945 E0.01648
G1 X154.507 Y93.744 E0.01648
G1 X154.924 Y93.424 E0.01648
G1 X155.244 Y93.007 E0.01648
G1 X155.445 Y92.521 E0.01648
G1 X155.514 Y92 E0.01648
G1 X155.445 Y91.479 E0.01648
G1 X155.244 Y90.993 E0.01648
G1 X154.924 Y90.576 E0.01648
G1 X154.507 Y90.256 E0.01648
G1 X154.021 Y90.055 E0.01648
G1 X153.5 Y89.986 E0.01648
G1 X152.979 Y90.055 E0.01648
G1 X152.493 Y90.256 E0.01648
G1 X152.076 Y90.576 E0.01648
G1 X151.756 Y90.993 E0.01648
G1 X151.555 Y91.479 E0.01648
G1 X151.497 Y91.92 E0.01395
G1 X151.47 Y91.987 F10800
;WIPE_START
G1 F8640
G1 X151.486 Y92 E-0.01864
G1 X151.555 Y92.521 E-0.12137
G1 X151.756 Y93.007 E-0.12138
G1 X152.076 Y93.424 E-0.12137
G1 X152.493 Y93.744 E-0.12137
G1 X152.979 Y93.945 E-0.12137
G1 X153.5 Y94.014 E-0.12137
G1 X153.556 Y94.006 E-0.01314
;WIPE_END
G1 E-0.04 F2100
G1 Z0.6 F10800
M204 P1500
G1 X149.886 Y91.96
M204 P1000
G1 X148.274 Y92
G1 Z0.2
G1 E0.8 F2100
;TYPE:Internal perimeter
G1 F1200
G1 X148.18 Y91.282 E0.02271
G1 X147.903 Y90.613 E0.02271
G1 X147.462 Y90.038 E0.02271
G1 X146.887 Y89.597 E0.02271
G1 X146.218 Y89.32 E0.02271
G1 X145.5 Y89.226 E0.02271
G1 X144.782 Y89.32 E0.02271
G1 X144.113 Y89.597 E0.02271
G1 X143.538 Y90.038 E0.02271
G1 X143.097 Y90.613 E0.02271
G1 X142.952 Y90.963 E0.01188
G1 X142.664 Y90.906 E0.00922
G1 X142.664 Y84.536 E0.19972
G1 X142.224 Y84.536 E0.0138
G1 X142.224 Y83.564 E0.03047
