; generated by SuperSlicer 2.3.57 on 2022-03-15 at 15:14:52 UTC

; 

; external perimeters extrusion width = 0.45mm
; perimeters extrusion width = 0.45mm
; infill extrusion width = 0.45mm
; solid infill extrusion width = 0.45mm
; top infill extrusion width = 0.40mm
; support material extrusion width = 0.35mm
; first layer extrusion width = 0.42mm

; object:{"name":"Black - Chain Link Clip_Wide_29","id":"Black - Chain Link Clip_Wide_29.stl id:0 copy 0","object_center":[125.000000,88.502117,0.000000],"boundingbox_center":[125.000000,88.502117,2.900000],"boundingbox_size":[3.500000,26.995728,5.800000]}
; object:{"name":"Black - Chain Link Clip_Wide_29","id":"Black - Chain Link Clip_Wide_29.stl id:0 copy 1","object_center":[115.500000,88.502117,0.000000],"boundingbox_center":[115.500000,88.502117,2.900000],"boundingbox_size":[3.500000,26.995728,5.800000]}
; object:{"name":"Black - Chain Link Clip_Wide_29","id":"Black - Chain Link Clip_Wide_29.stl id:0 copy 2","object_center":[125.000000,121.497863,0.000000],"boundingbox_center":[125.000000,121.497863,2.900000],"boundingbox_size":[3.500000,26.995728,5.800000]}
; object:{"name":"Black - Chain Link Clip_Wide_29","id":"Black - Chain Link Clip_Wide_29.stl id:0 copy 3","object_center":[115.500000,121.497863,0.000000],"boundingbox_center":[115.500000,121.497863,2.900000],"boundingbox_size":[3.500000,26.995728,5.800000]}
; object:{"name":"Black - Chain Link Clip_Wide_29","id":"Black - Chain Link Clip_Wide_29.stl id:0 copy 4","object_center":[134.500000,88.502117,0.000000],"boundingbox_center":[134.500000,88.502117,2.900000],"boundingbox_size":[3.500000,26.995728,5.800000]}
; object:{"name":"Black - Chain Link Clip_Wide_29","id":"Black - Chain Link Clip_Wide_29.stl id:0 copy 5","object_center":[134.500000,121.497863,0.000000],"boundingbox_center":[134.500000,121.497863,2.900000],"boundingbox_size":[3.500000,26.995728,5.800000]}
; object:{"name":"Black - Chain Link Clip_Wide_29","id":"Black - Chain Link Clip_Wide_29.stl id:0 copy 6","object_center":[144.000000,88.502117,0.000000],"boundingbox_center":[144.000000,88.502117,2.900000],"boundingbox_size":[3.500000,26.995728,5.800000]}
; object:{"name":"Black - Chain Link Clip_Wide_29","id":"Black - Chain Link Clip_Wide_29.stl id:0 copy 7","object_center":[144.000000,121.497863,0.000000],"boundingbox_center":[144.000000,121.497863,2.900000],"boundingbox_size":[3.500000,26.995728,5.800000]}
; object:{"name":"Black - Chain Link Clip_Wide_29","id":"Black - Chain Link Clip_Wide_29.stl id:0 copy 8","object_center":[106.000000,88.502117,0.000000],"boundingbox_center":[106.000000,88.502117,2.900000],"boundingbox_size":[3.500000,26.995728,5.800000]}
; object:{"name":"Black - Chain Link Clip_Wide_29","id":"Black - Chain Link Clip_Wide_29.stl id:0 copy 9","object_center":[106.000000,121.497863,0.000000],"boundingbox_center":[106.000000,121.497863,2.900000],"boundingbox_size":[3.500000,26.995728,5.800000]}
; Total objects to print: 10
M486 T10
; plater:{"center":[125.000000,104.999990,0.000000],"boundingbox_center":[125.000000,104.999990,2.900000],"boundingbox_size":[41.500000,59.991474,5.800000]}

M73 P0 R43
M73 Q0 S43
;TYPE:Custom
M862.3 P "MK3S" ; printer model check
M862.1 P0.4 ; nozzle diameter check
M115 U3.10.0 ; tell printer latest fw version
G90 ; use absolute coordinates
M83 ; extruder relative mode
M104 S255 ; set extruder temp
M140 S100 ; set bed temp
M190 S100 ; wait for bed temp
M109 S255 ; wait for extruder temp
G28 W ; home all without mesh bed level
G80 ; mesh bed leveling
G1 Y-3.0 F1000.0 ; go outside print area
G92 E0.0
G1 X60.0 E9.0 F1000.0 ; intro line
M73 P0 R42
G1 X100.0 E12.5 F1000.0 ; intro line
G92 E0.0
M221 S95

; Don't change E values below. Excessive value can damage the printer.
M907 E430 ; set extruder motor current
M107
G21 ; set units to millimeters
G90 ; use absolute coordinates
M83 ; use relative distances for extrusion
M900 K0.04 ; Filament gcode LA 1.5
M900 K20 ; Filament gcode LA 1.0
;LAYER_CHANGE
;Z:0.2
;HEIGHT:0.2
;BEFORE_LAYER_CHANGE
G92 E0.0
;0.2


G1 E-0.8 F2100
G1 Z0.4 F10800
;AFTER_LAYER_CHANGE
;0.2
G1 Z0.6
M204 P1500
G1 X93.316 Y69.253
G1 Z0.2
G1 E0.8 F2100
;TYPE:Skirt
;WIDTH:0.45
G1 F1200
G1 X92.955 Y69.741 E0.02054
G1 X92.706 Y70.496 E0.02691
G1 X92.11 Y75.919 E0.18469
G1 X92.115 Y134.216 E1.97326
G1 X92.707 Y139.513 E0.18042
G1 X92.963 Y140.277 E0.02728
G1 X93.305 Y140.738 E0.01943
G1 X98.203 Y145.706 E0.23613
G1 X98.714 Y146.091 E0.02165
G1 X99.371 Y146.324 E0.02361
G1 X104.244 Y147.103 E0.16702
G1 X106.216 Y147.222 E0.06686
G1 X144.382 Y147.22 E1.29189
G1 X148.062 Y146.832 E0.12525
G1 X156.355 Y144.129 E0.29525
G1 X157.006 Y143.732 E0.02581
G1 X157.485 Y143.133 E0.02594
G1 X157.741 Y142.309 E0.02923
G1 X159.355 Y125.25 E0.57999
G1 X159.354 Y84.695 E1.37274
G1 X157.724 Y67.561 E0.58258
G1 X157.552 Y67.002 E0.0198
G1 X157.237 Y66.505 E0.01993
G1 X156.805 Y66.111 E0.0198
G1 X156.284 Y65.844 E0.0198
G1 X148.141 Y63.228 E0.28949
G1 X145.827 Y62.902 E0.0791
G1 X144.194 Y62.782 E0.05544
G1 X106.185 Y62.782 E1.28656
G1 X104.277 Y62.892 E0.0647
G1 X99.359 Y63.677 E0.16856
G1 X98.627 Y63.957 E0.02655
G1 X98.212 Y64.282 E0.01783
G1 X93.358 Y69.21 E0.23414
;WIPE_START
G1 F8640
M204 P1000
G1 X92.955 Y69.741 E-0.15385
G1 X92.706 Y70.496 E-0.18359
G1 X92.506 Y72.315 E-0.42256
;WIPE_END
G1 E-0.04 F2100
G1 Z0.6 F10800
M204 P1500
G1 X94.755 Y69.913
M204 P1000
G1 X96.153 Y70.616
G1 Z0.2
G1 E0.8 F2100
;WIDTH:0.42
G1 F1200
G1 X96.217 Y70.488 E0.00451
G1 X97.223 Y69.147 E0.05255
G1 X97.768 Y68.638 E0.02338
G1 X98.248 Y68.105 E0.02249
G1 X99.509 Y67.111 E0.05033
G1 X100.976 Y66.314 E0.05236
G1 X102.496 Y65.796 E0.05034
G1 X104.372 Y65.497 E0.05957
G1 X104.856 Y65.445 E0.01526
G1 X105.886 Y65.388 E0.03236
G1 X106.504 Y65.395 E0.01938
G1 X107.398 Y65.463 E0.02811
G1 X107.666 Y65.491 E0.00844
G1 X108.679 Y65.627 E0.03203
G1 X110.008 Y66.009 E0.04335
G1 X110.592 Y66.274 E0.02013
G1 X111.996 Y65.796 E0.04649
G1 X113.872 Y65.497 E0.05957
G1 X114.356 Y65.445 E0.01526
G1 X115.386 Y65.388 E0.03236
G1 X116.004 Y65.395 E0.01938
G1 X116.898 Y65.463 E0.02811
G1 X117.166 Y65.491 E0.00844
G1 X118.179 Y65.627 E0.03203
G1 X119.508 Y66.009 E0.04335
G1 X120.092 Y66.274 E0.02013
G1 X121.496 Y65.796 E0.04649
G1 X123.372 Y65.497 E0.05957
G1 X123.856 Y65.445 E0.01526
G1 X124.886 Y65.388 E0.03236
G1 X125.504 Y65.395 E0.01938
G1 X126.398 Y65.463 E0.02811
G1 X126.666 Y65.491 E0.00844
G1 X127.679 Y65.627 E0.03203
G1 X129.008 Y66.009 E0.04335
G1 X129.592 Y66.274 E0.02013
G1 X130.996 Y65.796 E0.04649
G1 X132.872 Y65.497 E0.05957
G1 X133.356 Y65.445 E0.01526
G1 X134.386 Y65.388 E0.03236
G1 X135.004 Y65.395 E0.01938
G1 X135.898 Y65.463 E0.02811
G1 X136.166 Y65.491 E0.00844
G1 X137.179 Y65.627 E0.03203
G1 X138.508 Y66.009 E0.04335
G1 X139.092 Y66.274 E0.02013
G1 X140.496 Y65.796 E0.04649
G1 X142.372 Y65.497 E0.05957
G1 X142.856 Y65.445 E0.01526
G1 X143.886 Y65.388 E0.03236
G1 X144.504 Y65.395 E0.01938
G1 X145.398 Y65.463 E0.02811
G1 X145.666 Y65.491 E0.00844
G1 X146.679 Y65.627 E0.03203
G1 X148.008 Y66.009 E0.04335
G1 X149.594 Y66.729 E0.05461
G1 X150.955 Y67.661 E0.05175
G1 X152.159 Y68.841 E0.05283
G1 X152.94 Y69.847 E0.03995
G1 X153.81 Y71.347 E0.05436
G1 X154.346 Y72.736 E0.04666
G1 X154.89 Y75.285 E0.08175
G1 X155.166 Y75.951 E0.02258
G1 X155.166 Y78.928 E0.09336
G1 X155.063 Y79.909 E0.03093
G1 X154.707 Y81.587 E0.05377
G1 X154.166 Y82.783 E0.04115
G1 X154.166 Y94.215 E0.35846
M73 P1 R42
M73 Q1 S43
G1 X154.492 Y94.827 E0.02175
G1 X154.994 Y96.665 E0.05972
G1 X155.161 Y97.894 E0.0389
G1 X155.172 Y101.028 E0.09827
G1 X154.854 Y101.803 E0.02626
G1 X154.396 Y104.098 E0.07337
G1 X154.065 Y105.003 E0.03024
G1 X154.346 Y105.731 E0.02446
G1 X154.89 Y108.281 E0.08175
G1 X155.166 Y108.947 E0.02258
G1 X155.166 Y111.924 E0.09336
G1 X155.063 Y112.905 E0.03093
G1 X154.707 Y114.583 E0.05377
G1 X154.166 Y115.779 E0.04115
G1 X154.166 Y127.211 E0.35846
G1 X154.492 Y127.823 E0.02175
G1 X154.994 Y129.66 E0.05972
G1 X155.161 Y130.89 E0.0389
G1 X155.172 Y134.024 E0.09827
G1 X154.854 Y134.798 E0.02626
G1 X154.396 Y137.093 E0.07337
G1 X153.899 Y138.454 E0.04543
G1 X153.09 Y139.922 E0.05255
G1 X152.392 Y140.881 E0.03717
G1 X151.284 Y142.059 E0.05073
G1 X149.984 Y143.035 E0.05094
G1 X148.274 Y143.908 E0.06022
G1 X146.591 Y144.404 E0.05501
G1 X144.686 Y144.597 E0.06004
G1 X143.957 Y144.615 E0.02285
G1 X142.876 Y144.557 E0.03395
G1 X142.386 Y144.505 E0.01544
G1 X140.497 Y144.204 E0.05998
G1 X139.116 Y143.734 E0.04575
G1 X138.774 Y143.908 E0.01203
G1 X137.091 Y144.404 E0.05501
G1 X135.186 Y144.597 E0.06004
G1 X134.457 Y144.615 E0.02285
G1 X133.376 Y144.557 E0.03395
G1 X132.886 Y144.505 E0.01544
G1 X130.997 Y144.204 E0.05998
G1 X129.616 Y143.734 E0.04575
G1 X129.274 Y143.908 E0.01203
G1 X127.591 Y144.404 E0.05501
G1 X125.686 Y144.597 E0.06004
G1 X124.957 Y144.615 E0.02285
G1 X123.876 Y144.557 E0.03395
G1 X123.386 Y144.505 E0.01544
G1 X121.497 Y144.204 E0.05998
G1 X120.116 Y143.734 E0.04575
G1 X119.774 Y143.908 E0.01203
G1 X118.091 Y144.404 E0.05501
G1 X116.186 Y144.597 E0.06004
G1 X115.457 Y144.615 E0.02285
G1 X114.376 Y144.557 E0.03395
G1 X113.886 Y144.505 E0.01544
G1 X111.997 Y144.204 E0.05998
G1 X110.616 Y143.734 E0.04575
G1 X110.274 Y143.908 E0.01203
G1 X108.591 Y144.404 E0.05501
G1 X106.686 Y144.597 E0.06004
G1 X105.957 Y144.615 E0.02285
G1 X104.876 Y144.557 E0.03395
G1 X104.386 Y144.505 E0.01544
G1 X102.497 Y144.204 E0.05998
G1 X100.976 Y143.686 E0.05036
G1 X99.51 Y142.889 E0.05235
G1 X98.251 Y141.896 E0.05028
G1 X97.771 Y141.364 E0.02245
G1 X97.225 Y140.856 E0.02338
G1 X96.219 Y139.515 E0.05258
G1 X95.434 Y137.956 E0.05471
G1 X94.957 Y136.349 E0.05259
G1 X94.728 Y134.3 E0.06463
G1 X94.698 Y133.779 E0.01637
G1 X94.698 Y132.733 E0.03279
G1 X94.727 Y132.206 E0.01655
G1 X94.819 Y131.383 E0.02597
G1 X94.834 Y130.418 E0.03024
G1 X94.834 Y112.115 E0.57388
G1 X94.823 Y111.653 E0.01449
G1 X94.728 Y110.81 E0.02662
G1 X94.699 Y110.291 E0.0163
G1 X94.697 Y109.245 E0.03279
G1 X94.726 Y108.716 E0.01661
G1 X94.956 Y106.652 E0.06511
G1 X95.433 Y105.042 E0.05264
G1 X95.454 Y105. E0.00148
G1 X95.434 Y104.96 E0.00139
G1 X94.957 Y103.353 E0.05259
G1 X94.728 Y101.304 E0.06463
G1 X94.698 Y100.783 E0.01637
G1 X94.698 Y99.737 E0.03279
G1 X94.727 Y99.21 E0.01655
G1 X94.819 Y98.387 E0.02597
G1 X94.834 Y97.423 E0.03024
G1 X94.834 Y79.12 E0.57388
G1 X94.823 Y78.658 E0.01449
G1 X94.728 Y77.814 E0.02662
G1 X94.699 Y77.295 E0.0163
G1 X94.697 Y76.249 E0.03279
G1 X94.726 Y75.72 E0.01661
G1 X94.956 Y73.656 E0.06511
G1 X95.433 Y72.047 E0.05264
G1 X96.126 Y70.67 E0.04833
M204 P1500
G1 X96.294 Y70.754 F10800
M204 P1000
G1 X96.463 Y70.839
G1 F1200
G1 X96.539 Y70.687 E0.00534
G1 X97.504 Y69.4 E0.05045
G1 X98.037 Y68.903 E0.02284
G1 X98.507 Y68.382 E0.022
G1 X99.717 Y67.427 E0.04832
G1 X101.128 Y66.66 E0.05035
G1 X102.587 Y66.164 E0.04832
G1 X104.422 Y65.871 E0.05826
G1 X104.886 Y65.821 E0.01465
G1 X105.895 Y65.766 E0.03167
G1 X106.488 Y65.772 E0.0186
G1 X107.364 Y65.839 E0.02755
G1 X107.621 Y65.866 E0.0081
G1 X108.601 Y65.997 E0.031
G1 X109.877 Y66.363 E0.04162
G1 X110.584 Y66.684 E0.02433
G1 X110.628 Y66.66 E0.00158
G1 X112.087 Y66.164 E0.04832
G1 X113.922 Y65.871 E0.05826
G1 X114.386 Y65.821 E0.01465
G1 X115.395 Y65.766 E0.03167
G1 X115.988 Y65.772 E0.0186
G1 X116.864 Y65.839 E0.02755
G1 X117.121 Y65.866 E0.0081
G1 X118.101 Y65.997 E0.031
G1 X119.377 Y66.363 E0.04162
G1 X120.084 Y66.684 E0.02433
G1 X120.128 Y66.66 E0.00158
G1 X121.587 Y66.164 E0.04832
G1 X123.422 Y65.871 E0.05826
G1 X123.886 Y65.821 E0.01465
G1 X124.895 Y65.766 E0.03167
G1 X125.488 Y65.772 E0.0186
G1 X126.364 Y65.839 E0.02755
G1 X126.621 Y65.866 E0.0081
G1 X127.601 Y65.997 E0.031
G1 X128.877 Y66.363 E0.04162
G1 X129.584 Y66.684 E0.02433
G1 X129.628 Y66.66 E0.00158
G1 X131.087 Y66.164 E0.04832
G1 X132.922 Y65.871 E0.05826
G1 X133.386 Y65.821 E0.01465
G1 X134.395 Y65.766 E0.03167
G1 X134.988 Y65.772 E0.0186
G1 X135.864 Y65.839 E0.02755
G1 X136.121 Y65.866 E0.0081
G1 X137.101 Y65.997 E0.031
G1 X138.377 Y66.363 E0.04162
G1 X139.084 Y66.684 E0.02433
G1 X139.128 Y66.66 E0.00158
G1 X140.587 Y66.164 E0.04832
G1 X142.422 Y65.871 E0.05826
G1 X142.886 Y65.821 E0.01465
G1 X143.895 Y65.766 E0.03167
G1 X144.488 Y65.772 E0.0186
G1 X145.364 Y65.839 E0.02755
G1 X145.621 Y65.866 E0.0081
G1 X146.601 Y65.997 E0.031
G1 X147.877 Y66.363 E0.04162
G1 X149.408 Y67.058 E0.05271
G1 X150.715 Y67.954 E0.04968
G1 X151.876 Y69.092 E0.051
G1 X152.627 Y70.058 E0.03835
G1 X153.469 Y71.51 E0.05263
G1 X153.983 Y72.843 E0.0448
G1 X154.529 Y75.398 E0.0819
G1 X154.788 Y76.026 E0.02131
G1 X154.788 Y78.909 E0.09039
G1 X154.69 Y79.85 E0.02969
G1 X154.346 Y81.469 E0.05187
G1 X153.788 Y82.701 E0.04242
G1 X153.788 Y94.31 E0.36397
G1 X154.14 Y94.968 E0.02338
G1 X154.624 Y96.74 E0.05761
G1 X154.784 Y97.92 E0.03734
G1 X154.795 Y100.954 E0.09513
G1 X154.491 Y101.693 E0.02505
G1 X154.032 Y103.995 E0.07361
G1 X153.662 Y105.007 E0.03377
G1 X153.983 Y105.839 E0.02797
G1 X154.529 Y108.394 E0.0819
G1 X154.788 Y109.021 E0.02131
G1 X154.788 Y111.904 E0.09039
G1 X154.69 Y112.846 E0.02969
G1 X154.346 Y114.464 E0.05187
G1 X153.788 Y115.697 E0.04242
G1 X153.788 Y127.306 E0.36397
G1 X154.14 Y127.963 E0.02338
G1 X154.624 Y129.736 E0.05761
G1 X154.784 Y130.916 E0.03734
G1 X154.795 Y133.95 E0.09513
G1 X154.491 Y134.689 E0.02505
G1 X154.032 Y136.991 E0.07361
G1 X153.554 Y138.298 E0.04361
G1 X152.771 Y139.719 E0.0509
G1 X152.101 Y140.639 E0.03568
G1 X151.031 Y141.777 E0.04897
G1 X149.784 Y142.714 E0.0489
G1 X148.134 Y143.556 E0.0581
G1 X146.518 Y144.033 E0.05281
G1 X144.662 Y144.221 E0.05848
G1 X143.963 Y144.237 E0.02194
G1 X142.906 Y144.181 E0.03319
G1 X142.436 Y144.131 E0.01482
G1 X140.588 Y143.836 E0.05867
G1 X139.128 Y143.34 E0.04835
G1 X139.094 Y143.321 E0.00121
G1 X138.634 Y143.556 E0.01622
G1 X137.018 Y144.033 E0.05281
G1 X135.162 Y144.221 E0.05848
G1 X134.463 Y144.237 E0.02194
G1 X133.406 Y144.181 E0.03319
G1 X132.936 Y144.131 E0.01482
G1 X131.088 Y143.836 E0.05867
G1 X129.628 Y143.34 E0.04835
G1 X129.594 Y143.321 E0.00121
G1 X129.134 Y143.556 E0.01622
G1 X127.518 Y144.033 E0.05281
G1 X125.662 Y144.221 E0.05848
G1 X124.963 Y144.237 E0.02194
G1 X123.906 Y144.181 E0.03319
G1 X123.436 Y144.131 E0.01482
G1 X121.588 Y143.836 E0.05867
G1 X120.128 Y143.34 E0.04835
G1 X120.094 Y143.321 E0.00121
G1 X119.634 Y143.556 E0.01622
G1 X118.018 Y144.033 E0.05281
G1 X116.162 Y144.221 E0.05848
G1 X115.463 Y144.237 E0.02194
G1 X114.406 Y144.181 E0.03319
G1 X113.936 Y144.131 E0.01482
G1 X112.088 Y143.836 E0.05867
G1 X110.628 Y143.34 E0.04835
G1 X110.594 Y143.321 E0.00121
G1 X110.134 Y143.556 E0.01622
G1 X108.518 Y144.033 E0.05281
G1 X106.662 Y144.221 E0.05848
G1 X105.963 Y144.237 E0.02194
G1 X104.906 Y144.181 E0.03319
G1 X104.436 Y144.131 E0.01482
G1 X102.588 Y143.836 E0.05867
G1 X101.128 Y143.34 E0.04835
G1 X99.718 Y142.573 E0.05033
G1 X98.509 Y141.62 E0.04827
G1 X98.04 Y141.099 E0.02196
G1 X97.507 Y140.603 E0.02284
G1 X96.541 Y139.315 E0.05048
G1 X95.786 Y137.817 E0.0526
G1 X95.328 Y136.273 E0.05048
G1 X95.103 Y134.269 E0.06325
G1 X95.075 Y133.768 E0.01571
G1 X95.075 Y132.743 E0.03214
G1 X95.103 Y132.237 E0.01589
G1 X95.196 Y131.407 E0.0262
G1 X95.212 Y130.422 E0.0309
G1 X95.211 Y112.111 E0.57412
G1 X95.2 Y111.628 E0.01515
G1 X95.104 Y110.778 E0.02681
G1 X95.076 Y110.28 E0.01565
G1 X95.074 Y109.255 E0.03213
G1 X95.102 Y108.747 E0.01595
G1 X95.327 Y106.727 E0.06372
G1 X95.785 Y105.182 E0.05053
G1 X95.877 Y105. E0.00637
G1 X95.786 Y104.821 E0.00629
G1 X95.328 Y103.278 E0.05048
G1 X95.103 Y101.273 E0.06325
G1 X95.075 Y100.772 E0.01571
G1 X95.075 Y99.748 E0.03214
G1 X95.103 Y99.242 E0.01589
G1 X95.196 Y98.411 E0.0262
G1 X95.212 Y97.426 E0.0309
G1 X95.211 Y79.115 E0.57412
G1 X95.2 Y78.632 E0.01515
G1 X95.104 Y77.782 E0.02681
G1 X95.076 Y77.284 E0.01565
G1 X95.074 Y76.259 E0.03213
G1 X95.102 Y75.751 E0.01595
G1 X95.327 Y73.731 E0.06372
G1 X95.785 Y72.186 E0.05053
G1 X96.436 Y70.893 E0.04539
M204 P1500
G1 X96.604 Y70.977 F10800
M204 P1000
G1 X96.773 Y71.062
G1 F1200
G1 X96.861 Y70.886 E0.00617
G1 X97.786 Y69.653 E0.04835
G1 X98.307 Y69.168 E0.02231
G1 X98.766 Y68.658 E0.02152
