; generated by SuperSlicer 2.3.57 on 2022-03-15 at 15:13:29 UTC

; 

; external perimeters extrusion width = 0.45mm
; perimeters extrusion width = 0.45mm
; infill extrusion width = 0.45mm
; solid infill extrusion width = 0.45mm
; top infill extrusion width = 0.40mm
; support material extrusion width = 0.35mm
; first layer extrusion width = 0.42mm

; object:{"name":"Black - Chain Link Clip_47","id":"Black - Chain Link Clip_47.stl id:0 copy 0","object_center":[125.000000,92.002116,0.000000],"boundingbox_center":[125.000000,92.002116,2.900000],"boundingbox_size":[3.500000,19.995728,5.800000]}
; object:{"name":"Black - Chain Link Clip_47","id":"Black - Chain Link Clip_47.stl id:0 copy 1","object_center":[115.500000,92.002116,0.000000],"boundingbox_center":[115.500000,92.002116,2.900000],"boundingbox_size":[3.500000,19.995728,5.800000]}
; object:{"name":"Black - Chain Link Clip_47","id":"Black - Chain Link Clip_47.stl id:0 copy 2","object_center":[125.000000,117.997863,0.000000],"boundingbox_center":[125.000000,117.997863,2.900000],"boundingbox_size":[3.500000,19.995728,5.800000]}
; object:{"name":"Black - Chain Link Clip_47","id":"Black - Chain Link Clip_47.stl id:0 copy 3","object_center":[115.500000,117.997863,0.000000],"boundingbox_center":[115.500000,117.997863,2.900000],"boundingbox_size":[3.500000,19.995728,5.800000]}
; object:{"name":"Black - Chain Link Clip_47","id":"Black - Chain Link Clip_47.stl id:0 copy 4","object_center":[134.500000,92.002116,0.000000],"boundingbox_center":[134.500000,92.002116,2.900000],"boundingbox_size":[3.500000,19.995728,5.800000]}
; object:{"name":"Black - Chain Link Clip_47","id":"Black - Chain Link Clip_47.stl id:0 copy 5","object_center":[134.500000,117.997863,0.000000],"boundingbox_center":[134.500000,117.997863,2.900000],"boundingbox_size":[3.500000,19.995728,5.800000]}
; object:{"name":"Black - Chain Link Clip_47","id":"Black - Chain Link Clip_47.stl id:0 copy 6","object_center":[144.000000,92.002116,0.000000],"boundingbox_center":[144.000000,92.002116,2.900000],"boundingbox_size":[3.500000,19.995728,5.800000]}
; object:{"name":"Black - Chain Link Clip_47","id":"Black - Chain Link Clip_47.stl id:0 copy 7","object_center":[144.000000,117.997863,0.000000],"boundingbox_center":[144.000000,117.997863,2.900000],"boundingbox_size":[3.500000,19.995728,5.800000]}
; object:{"name":"Black - Chain Link Clip_47","id":"Black - Chain Link Clip_47.stl id:0 copy 8","object_center":[106.000000,92.002116,0.000000],"boundingbox_center":[106.000000,92.002116,2.900000],"boundingbox_size":[3.500000,19.995728,5.800000]}
; object:{"name":"Black - Chain Link Clip_47","id":"Black - Chain Link Clip_47.stl id:0 copy 9","object_center":[106.000000,117.997863,0.000000],"boundingbox_center":[106.000000,117.997863,2.900000],"boundingbox_size":[3.500000,19.995728,5.800000]}
; Total objects to print: 10
M486 T10
; plater:{"center":[125.000000,104.999989,0.000000],"boundingbox_center":[125.000000,104.999989,2.900000],"boundingbox_size":[41.500000,45.991475,5.800000]}

M73 P0 R35
M73 Q0 S36
;TYPE:Custom
M862.3 P "MK3S" ; printer model check
M862.1 P0.4 ; nozzle diameter check
M115 U3.10.0 ; tell printer latest fw version
G90 ; use absolute coordinates
M83 ; extruder relative mode
M104 S255 ; set extruder temp
M140 S100 ; set bed temp
M190 S100 ; wait for bed temp
M109 S255 ; wait for extruder temp
G28 W ; home all without mesh bed level
G80 ; mesh bed leveling
G1 Y-3.0 F1000.0 ; go outside print area
G92 E0.0
G1 X60.0 E9.0 F1000.0 ; intro line
M73 Q0 S35
G1 X100.0 E12.5 F1000.0 ; intro line
G92 E0.0
M221 S95

; Don't change E values below. Excessive value can damage the printer.
M907 E430 ; set extruder motor current
M107
G21 ; set units to millimeters
G90 ; use absolute coordinates
M83 ; use relative distances for extrusion
M900 K0.04 ; Filament gcode LA 1.5
M900 K20 ; Filament gcode LA 1.0
;LAYER_CHANGE
;Z:0.2
;HEIGHT:0.2
;BEFORE_LAYER_CHANGE
G92 E0.0
;0.2


G1 E-0.8 F2100
G1 Z0.4 F10800
;AFTER_LAYER_CHANGE
;0.2
G1 Z0.6
M204 P1500
G1 X92.69 Y73.596
G1 Z0.2
G1 E0.8 F2100
;TYPE:Skirt
;WIDTH:0.45
G1 F1200
G1 X92.403 Y74.106 E0.0198
G1 X92.261 Y74.673 E0.0198
G1 X90.647 Y91.655 E0.5774
G1 X90.645 Y118.257 E0.90046
G1 X92.266 Y135.37 E0.58183
G1 X92.546 Y136.187 E0.02923
G1 X93.121 Y136.836 E0.02935
G1 X93.74 Y137.164 E0.02373
G1 X102.017 Y139.855 E0.29461
G1 X105.583 Y140.218 E0.12131
G1 X143.845 Y140.22 E1.29512
G1 X145.755 Y140.103 E0.06479
G1 X150.621 Y139.325 E0.16678
G1 X151.237 Y139.117 E0.02202
G1 X151.781 Y138.722 E0.02275
G1 X156.868 Y133.536 E0.2459
G1 X157.139 Y133.067 E0.01833
G1 X157.287 Y132.55 E0.0182
G1 X157.891 Y127.066 E0.18676
G1 X157.891 Y82.923 E1.49418
G1 X157.269 Y77.35 E0.18983
G1 X157.07 Y76.788 E0.02017
G1 X156.726 Y76.297 E0.02029
G1 X151.782 Y71.276 E0.23851
G1 X151.305 Y70.918 E0.02017
G1 X150.629 Y70.675 E0.02435
G1 X145.757 Y69.897 E0.16699
G1 X143.732 Y69.777 E0.06867
G1 X105.565 Y69.783 E1.2919
M73 P0 R34
G1 X101.969 Y70.158 E0.12239
G1 X93.686 Y72.855 E0.29486
G1 X93.136 Y73.153 E0.02116
G1 X92.733 Y73.554 E0.01925
;WIPE_START
G1 F8640
M204 P1000
G1 X92.403 Y74.106 E-0.14846
G1 X92.261 Y74.673 E-0.13509
G1 X92.065 Y76.727 E-0.47645
;WIPE_END
G1 E-0.04 F2100
G1 Z0.6 F10800
M204 P1500
G1 X94.936 Y75.158
M204 P1000
G1 X97.14 Y76.762
G1 Z0.2
G1 E0.8 F2100
;WIDTH:0.42
G1 F1200
G1 X97.608 Y76.119 E0.02493
G1 X98.717 Y74.941 E0.05073
G1 X100.016 Y73.965 E0.05093
G1 X101.726 Y73.092 E0.06021
G1 X103.408 Y72.596 E0.055
G1 X105.313 Y72.403 E0.06003
G1 X106.042 Y72.385 E0.02285
G1 X107.122 Y72.443 E0.03393
M73 P1 R34
G1 X107.611 Y72.495 E0.0154
G1 X109.5 Y72.795 E0.05999
G1 X110.885 Y73.266 E0.04585
M73 Q1 S35
G1 X111.226 Y73.092 E0.012
G1 X112.908 Y72.596 E0.055
G1 X114.813 Y72.403 E0.06003
G1 X115.542 Y72.385 E0.02285
G1 X116.622 Y72.443 E0.03393
G1 X117.111 Y72.495 E0.0154
G1 X119. Y72.795 E0.05999
G1 X120.385 Y73.266 E0.04585
G1 X120.726 Y73.092 E0.012
G1 X122.408 Y72.596 E0.055
G1 X124.313 Y72.403 E0.06003
G1 X125.042 Y72.385 E0.02285
G1 X126.122 Y72.443 E0.03393
G1 X126.611 Y72.495 E0.0154
G1 X128.5 Y72.795 E0.05999
G1 X129.885 Y73.266 E0.04585
G1 X130.226 Y73.092 E0.012
G1 X131.908 Y72.596 E0.055
G1 X133.813 Y72.403 E0.06003
G1 X134.542 Y72.385 E0.02285
G1 X135.622 Y72.443 E0.03393
G1 X136.111 Y72.495 E0.0154
G1 X138. Y72.795 E0.05999
G1 X139.385 Y73.266 E0.04585
G1 X139.726 Y73.092 E0.012
G1 X141.408 Y72.596 E0.055
G1 X143.313 Y72.403 E0.06003
G1 X144.042 Y72.385 E0.02285
G1 X145.122 Y72.443 E0.03393
G1 X145.611 Y72.495 E0.0154
G1 X147.5 Y72.795 E0.05999
G1 X149.023 Y73.313 E0.05042
G1 X150.491 Y74.111 E0.05241
G1 X151.752 Y75.105 E0.05034
G1 X152.232 Y75.638 E0.02249
G1 X152.777 Y76.147 E0.02337
G1 X153.783 Y77.488 E0.05255
G1 X154.566 Y79.045 E0.05467
G1 X155.043 Y80.652 E0.05255
G1 X155.272 Y82.7 E0.06461
G1 X155.302 Y83.221 E0.01637
G1 X155.302 Y84.267 E0.03279
G1 X155.273 Y84.794 E0.01655
G1 X155.181 Y85.617 E0.02597
G1 X155.166 Y86.58 E0.03019
G1 X155.169 Y98.28 E0.36685
G1 X155.272 Y99.191 E0.02873
G1 X155.301 Y99.71 E0.0163
G1 X155.303 Y100.755 E0.03279
G1 X155.274 Y101.284 E0.01661
G1 X155.044 Y103.349 E0.06512
G1 X154.566 Y104.959 E0.05268
G1 X154.546 Y105. E0.00144
G1 X154.566 Y105.041 E0.00143
G1 X155.043 Y106.648 E0.05255
G1 X155.272 Y108.695 E0.06461
G1 X155.302 Y109.217 E0.01637
G1 X155.302 Y110.263 E0.03279
G1 X155.273 Y110.79 E0.01655
G1 X155.181 Y111.613 E0.02597
G1 X155.166 Y112.576 E0.03019
G1 X155.169 Y124.276 E0.36685
G1 X155.272 Y125.186 E0.02873
G1 X155.301 Y125.705 E0.0163
G1 X155.303 Y126.751 E0.03279
G1 X155.274 Y127.28 E0.01661
G1 X155.044 Y129.344 E0.06512
G1 X154.566 Y130.955 E0.05268
G1 X153.781 Y132.515 E0.05475
G1 X152.774 Y133.856 E0.05259
G1 X152.229 Y134.364 E0.02338
G1 X151.749 Y134.896 E0.02245
G1 X150.49 Y135.889 E0.05028
G1 X149.025 Y136.686 E0.0523
G1 X147.507 Y137.203 E0.05028
G1 X145.635 Y137.502 E0.05944
G1 X145.158 Y137.553 E0.01504
G1 X144.104 Y137.613 E0.0331
G1 X143.409 Y137.602 E0.02181
G1 X141.634 Y137.44 E0.05587
G1 X140.125 Y137.045 E0.04892
G1 X139.409 Y136.725 E0.02458
G1 X138.007 Y137.203 E0.04644
G1 X136.135 Y137.502 E0.05944
G1 X135.658 Y137.553 E0.01504
G1 X134.604 Y137.613 E0.0331
G1 X133.909 Y137.602 E0.02181
G1 X132.134 Y137.44 E0.05587
G1 X130.625 Y137.045 E0.04892
G1 X129.909 Y136.725 E0.02458
G1 X128.507 Y137.203 E0.04644
G1 X126.635 Y137.502 E0.05944
G1 X126.158 Y137.553 E0.01504
G1 X125.104 Y137.613 E0.0331
G1 X124.409 Y137.602 E0.02181
G1 X122.634 Y137.44 E0.05587
G1 X121.125 Y137.045 E0.04892
G1 X120.409 Y136.725 E0.02458
G1 X119.007 Y137.203 E0.04644
G1 X117.135 Y137.502 E0.05944
G1 X116.658 Y137.553 E0.01504
G1 X115.604 Y137.613 E0.0331
G1 X114.909 Y137.602 E0.02181
G1 X113.134 Y137.44 E0.05587
G1 X111.625 Y137.045 E0.04892
G1 X110.909 Y136.725 E0.02458
G1 X109.507 Y137.203 E0.04644
G1 X107.635 Y137.502 E0.05944
G1 X107.158 Y137.553 E0.01504
G1 X106.104 Y137.613 E0.0331
G1 X105.409 Y137.602 E0.02181
G1 X103.634 Y137.44 E0.05587
G1 X102.125 Y137.045 E0.04892
G1 X100.438 Y136.29 E0.05795
G1 X99.054 Y135.347 E0.0525
G1 X97.842 Y134.16 E0.05321
G1 X97.06 Y133.153 E0.03996
G1 X96.19 Y131.653 E0.05437
G1 X95.654 Y130.264 E0.04667
G1 X95.11 Y127.715 E0.08175
G1 X94.834 Y127.049 E0.02258
G1 X94.834 Y124.072 E0.09336
G1 X94.937 Y123.09 E0.03093
G1 X95.293 Y121.413 E0.05377
G1 X95.834 Y120.217 E0.04115
G1 X95.834 Y115.785 E0.13898
G1 X95.508 Y115.173 E0.02175
G1 X95.006 Y113.335 E0.05972
G1 X94.839 Y112.106 E0.0389
G1 X94.828 Y108.972 E0.09827
G1 X95.146 Y108.197 E0.02626
G1 X95.604 Y105.902 E0.07337
G1 X95.935 Y104.997 E0.03024
G1 X95.654 Y104.269 E0.02446
G1 X95.11 Y101.719 E0.08175
G1 X94.834 Y101.053 E0.02258
G1 X94.834 Y98.076 E0.09336
G1 X94.937 Y97.095 E0.03093
G1 X95.293 Y95.417 E0.05377
G1 X95.834 Y94.221 E0.04115
G1 X95.834 Y89.789 E0.13898
G1 X95.508 Y89.177 E0.02175
G1 X95.006 Y87.34 E0.05972
G1 X94.839 Y86.11 E0.0389
G1 X94.828 Y82.976 E0.09827
G1 X95.146 Y82.202 E0.02626
G1 X95.604 Y79.907 E0.07337
G1 X96.101 Y78.546 E0.04543
G1 X96.91 Y77.078 E0.05256
G1 X97.105 Y76.81 E0.01036
M204 P1500
G1 X97.257 Y76.921 F10800
M204 P1000
G1 X97.41 Y77.032
G1 F1200
G1 X97.899 Y76.36 E0.02607
G1 X98.969 Y75.223 E0.04897
G1 X100.216 Y74.286 E0.04889
G1 X101.866 Y73.444 E0.05809
G1 X103.481 Y72.968 E0.0528
G1 X105.337 Y72.779 E0.05847
G1 X106.036 Y72.763 E0.02194
G1 X107.092 Y72.819 E0.03317
G1 X107.561 Y72.869 E0.01479
G1 X109.409 Y73.163 E0.05867
G1 X110.871 Y73.66 E0.0484
G1 X110.906 Y73.679 E0.00125
G1 X111.366 Y73.444 E0.01619
G1 X112.981 Y72.968 E0.0528
G1 X114.837 Y72.779 E0.05847
G1 X115.536 Y72.763 E0.02194
G1 X116.592 Y72.819 E0.03317
G1 X117.061 Y72.869 E0.01479
G1 X118.909 Y73.163 E0.05867
G1 X120.371 Y73.66 E0.0484
G1 X120.406 Y73.679 E0.00125
G1 X120.866 Y73.444 E0.01619
G1 X122.481 Y72.968 E0.0528
G1 X124.337 Y72.779 E0.05847
G1 X125.036 Y72.763 E0.02194
G1 X126.092 Y72.819 E0.03317
G1 X126.561 Y72.869 E0.01479
G1 X128.409 Y73.163 E0.05867
G1 X129.871 Y73.66 E0.0484
G1 X129.906 Y73.679 E0.00125
G1 X130.366 Y73.444 E0.01619
G1 X131.981 Y72.968 E0.0528
G1 X133.837 Y72.779 E0.05847
G1 X134.536 Y72.763 E0.02194
G1 X135.592 Y72.819 E0.03317
G1 X136.061 Y72.869 E0.01479
G1 X137.909 Y73.163 E0.05867
G1 X139.371 Y73.66 E0.0484
G1 X139.406 Y73.679 E0.00125
G1 X139.866 Y73.444 E0.01619
G1 X141.481 Y72.968 E0.0528
G1 X143.337 Y72.779 E0.05847
G1 X144.036 Y72.763 E0.02194
G1 X145.092 Y72.819 E0.03317
G1 X145.561 Y72.869 E0.01479
G1 X147.409 Y73.163 E0.05867
G1 X148.871 Y73.66 E0.0484
G1 X150.283 Y74.427 E0.05039
G1 X151.493 Y75.382 E0.04832
G1 X151.963 Y75.903 E0.022
G1 X152.496 Y76.4 E0.02284
G1 X153.461 Y77.687 E0.05045
G1 X154.214 Y79.185 E0.05257
G1 X154.672 Y80.727 E0.05045
G1 X154.896 Y82.731 E0.06323
G1 X154.925 Y83.232 E0.01571
G1 X154.925 Y84.256 E0.03214
G1 X154.897 Y84.762 E0.01589
G1 X154.804 Y85.593 E0.0262
G1 X154.788 Y86.577 E0.03085
G1 X154.792 Y98.301 E0.36761
G1 X154.896 Y99.222 E0.02906
G1 X154.924 Y99.721 E0.01565
G1 X154.926 Y100.745 E0.03213
G1 X154.898 Y101.253 E0.01595
G1 X154.673 Y103.274 E0.06373
G1 X154.214 Y104.82 E0.05057
G1 X154.123 Y105. E0.00633
G1 X154.214 Y105.181 E0.00633
G1 X154.672 Y106.723 E0.05045
G1 X154.896 Y108.727 E0.06323
G1 X154.925 Y109.227 E0.01571
G1 X154.925 Y110.252 E0.03214
G1 X154.897 Y110.758 E0.01589
G1 X154.804 Y111.589 E0.0262
G1 X154.788 Y112.573 E0.03085
G1 X154.792 Y124.297 E0.36761
G1 X154.896 Y125.218 E0.02906
G1 X154.924 Y125.716 E0.01565
G1 X154.926 Y126.741 E0.03213
G1 X154.898 Y127.249 E0.01595
G1 X154.673 Y129.269 E0.06373
G1 X154.214 Y130.815 E0.05057
G1 X153.459 Y132.315 E0.05265
G1 X152.493 Y133.603 E0.05048
G1 X151.96 Y134.1 E0.02285
G1 X151.491 Y134.62 E0.02196
G1 X150.282 Y135.573 E0.04826
G1 X148.873 Y136.339 E0.05029
G1 X147.416 Y136.835 E0.04827
G1 X145.585 Y137.128 E0.05813
G1 X145.127 Y137.178 E0.01444
G1 X144.097 Y137.236 E0.03236
G1 X143.429 Y137.225 E0.02093
G1 X141.699 Y137.068 E0.05446
G1 X140.25 Y136.689 E0.04697
G1 X139.416 Y136.315 E0.02864
G1 X139.373 Y136.339 E0.00156
G1 X137.916 Y136.835 E0.04827
G1 X136.085 Y137.128 E0.05813
G1 X135.627 Y137.178 E0.01444
G1 X134.597 Y137.236 E0.03236
G1 X133.929 Y137.225 E0.02093
G1 X132.199 Y137.068 E0.05446
G1 X130.75 Y136.689 E0.04697
G1 X129.916 Y136.315 E0.02864
G1 X129.873 Y136.339 E0.00156
G1 X128.416 Y136.835 E0.04827
G1 X126.585 Y137.128 E0.05813
G1 X126.127 Y137.178 E0.01444
G1 X125.097 Y137.236 E0.03236
G1 X124.429 Y137.225 E0.02093
G1 X122.699 Y137.068 E0.05446
G1 X121.25 Y136.689 E0.04697
G1 X120.416 Y136.315 E0.02864
G1 X120.373 Y136.339 E0.00156
G1 X118.916 Y136.835 E0.04827
G1 X117.085 Y137.128 E0.05813
G1 X116.627 Y137.178 E0.01444
G1 X115.597 Y137.236 E0.03236
G1 X114.929 Y137.225 E0.02093
G1 X113.199 Y137.068 E0.05446
G1 X111.75 Y136.689 E0.04697
G1 X110.916 Y136.315 E0.02864
G1 X110.873 Y136.339 E0.00156
G1 X109.416 Y136.835 E0.04827
G1 X107.585 Y137.128 E0.05813
G1 X107.127 Y137.178 E0.01444
G1 X106.097 Y137.236 E0.03236
G1 X105.429 Y137.225 E0.02093
G1 X103.699 Y137.068 E0.05446
G1 X102.25 Y136.689 E0.04697
G1 X100.622 Y135.96 E0.05592
G1 X99.294 Y135.055 E0.0504
G1 X98.124 Y133.908 E0.05136
G1 X97.373 Y132.942 E0.03837
G1 X96.531 Y131.49 E0.05264
G1 X96.017 Y130.156 E0.0448
G1 X95.471 Y127.602 E0.08189
G1 X95.212 Y126.974 E0.02131
G1 X95.212 Y124.091 E0.09039
G1 X95.31 Y123.149 E0.0297
G1 X95.654 Y121.531 E0.05187
G1 X96.212 Y120.299 E0.04242
G1 X96.212 Y115.69 E0.14449
M73 P2 R34
G1 X95.86 Y115.033 E0.02338
G1 X95.376 Y113.26 E0.05761
G1 X95.216 Y112.08 E0.03735
G1 X95.205 Y109.046 E0.09513
G1 X95.509 Y108.307 E0.02505
G1 X95.968 Y106.005 E0.07361
G1 X96.338 Y104.993 E0.03377
M73 Q2 S35
G1 X96.017 Y104.161 E0.02797
G1 X95.471 Y101.607 E0.08189
G1 X95.212 Y100.979 E0.02131
G1 X95.212 Y98.096 E0.09039
G1 X95.31 Y97.154 E0.0297
G1 X95.654 Y95.535 E0.05187
G1 X96.212 Y94.303 E0.04242
G1 X96.212 Y89.694 E0.14449
G1 X95.86 Y89.037 E0.02338
G1 X95.376 Y87.264 E0.05761
G1 X95.216 Y86.084 E0.03735
G1 X95.205 Y83.05 E0.09513
G1 X95.509 Y82.311 E0.02505
G1 X95.968 Y80.009 E0.07361
G1 X96.446 Y78.702 E0.04361
G1 X97.229 Y77.28 E0.05091
G1 X97.374 Y77.081 E0.00774
M204 P1500
G1 X97.527 Y77.192 F10800
M204 P1000
G1 X97.679 Y77.303
G1 F1200
G1 X98.19 Y76.601 E0.02721
G1 X99.221 Y75.505 E0.04721
G1 X100.416 Y74.607 E0.04685
G1 X102.006 Y73.795 E0.05597
G1 X103.554 Y73.339 E0.0506
G1 X105.36 Y73.156 E0.05691
G1 X106.03 Y73.14 E0.02102
G1 X107.062 Y73.195 E0.0324
G1 X107.512 Y73.243 E0.01417
G1 X109.318 Y73.53 E0.05736
G1 X110.719 Y74.006 E0.04639
G1 X110.9 Y74.105 E0.00647
G1 X111.506 Y73.795 E0.02133
G1 X113.054 Y73.339 E0.0506
G1 X114.86 Y73.156 E0.05691
G1 X115.53 Y73.14 E0.02102
G1 X116.562 Y73.195 E0.0324
G1 X117.012 Y73.243 E0.01417
G1 X118.818 Y73.53 E0.05736
G1 X120.219 Y74.006 E0.04639
G1 X120.4 Y74.105 E0.00647
G1 X121.006 Y73.795 E0.02133
G1 X122.554 Y73.339 E0.0506
G1 X124.36 Y73.156 E0.05691
G1 X125.03 Y73.14 E0.02102
G1 X126.062 Y73.195 E0.0324
G1 X126.512 Y73.243 E0.01417
G1 X128.318 Y73.53 E0.05736
G1 X129.719 Y74.006 E0.04639
G1 X129.9 Y74.105 E0.00647
G1 X130.506 Y73.795 E0.02133
G1 X132.054 Y73.339 E0.0506
G1 X133.86 Y73.156 E0.05691
