; generated by SuperSlicer 2.3.57 on 2022-03-15 at 09:40:02 UTC

; 

; external perimeters extrusion width = 0.45mm
; perimeters extrusion width = 0.45mm
; infill extrusion width = 0.45mm
; solid infill extrusion width = 0.45mm
; top infill extrusion width = 0.40mm
; support material extrusion width = 0.35mm
; first layer extrusion width = 0.42mm

; object:{"name":"Black - Cable Chain End_Wide_1","id":"Black - Cable Chain End_Wide_1.stl id:0 copy 0","object_center":[125.000000,121.500000,0.000000],"boundingbox_center":[125.000000,121.500000,7.500000],"boundingbox_size":[31.500000,27.000000,15.000000]}
; object:{"name":"Black - Cable Chain Start_Wide_1","id":"Black - Cable Chain Start_Wide_1.stl id:1 copy 0","object_center":[125.000000,88.500000,0.000000],"boundingbox_center":[125.000000,88.500000,7.500000],"boundingbox_size":[31.500000,27.000000,15.000000]}
; Total objects to print: 2
M486 T2
; plater:{"center":[125.000000,105.000000,0.000000],"boundingbox_center":[125.000000,105.000000,7.500000],"boundingbox_size":[31.500000,60.000000,15.000000]}

M73 P0 R52
M73 Q0 S53
;TYPE:Custom
M862.3 P "MK3S" ; printer model check
M862.1 P0.4 ; nozzle diameter check
M115 U3.10.0 ; tell printer latest fw version
G90 ; use absolute coordinates
M83 ; extruder relative mode
M104 S255 ; set extruder temp
M140 S100 ; set bed temp
M190 S100 ; wait for bed temp
M109 S255 ; wait for extruder temp
G28 W ; home all without mesh bed level
G80 ; mesh bed leveling
G1 Y-3.0 F1000.0 ; go outside print area
G92 E0.0
G1 X60.0 E9.0 F1000.0 ; intro line
G1 X100.0 E12.5 F1000.0 ; intro line
G92 E0.0
M221 S95

; Don't change E values below. Excessive value can damage the printer.
M907 E430 ; set extruder motor current
M107
G21 ; set units to millimeters
G90 ; use absolute coordinates
M83 ; use relative distances for extrusion
M900 K0.04 ; Filament gcode LA 1.5
M900 K20 ; Filament gcode LA 1.0
M107
;LAYER_CHANGE
;Z:0.2
;HEIGHT:0.2
;BEFORE_LAYER_CHANGE
G92 E0.0
;0.2


G1 E-0.8 F2100
G1 Z0.4 F10800
;AFTER_LAYER_CHANGE
;0.2
G1 Z0.6
M204 P1500
G1 X107.265 Y76.744
G1 Z0.2
G1 E0.8 F2100
;TYPE:Skirt
;WIDTH:0.45
G1 F1200
G1 X107.111 Y77.171 E0.01537
G1 X107.048 Y77.617 E0.01524
G1 X106.205 Y104.648 E0.91544
G1 X106.205 Y138.32 E1.13973
G1 X106.292 Y138.928 E0.02079
G1 X106.543 Y139.488 E0.02079
G1 X106.942 Y139.96 E0.02091
G1 X107.453 Y140.3 E0.02079
G1 X108.256 Y140.513 E0.02813
G1 X112.886 Y140.68 E0.1568
G1 X123.169 Y140.638 E0.34808
G1 X139.528 Y137.062 E0.56679
G1 X140.022 Y136.799 E0.01894
G1 X140.434 Y136.421 E0.01894
M73 P0 R51
G1 X142.737 Y133.253 E0.13255
G1 X142.889 Y132.83 E0.01524
G1 X142.952 Y132.384 E0.01524
G1 X143.795 Y105.514 E0.90996
G1 X143.795 Y71.483 E1.15189
G1 X143.616 Y70.653 E0.02874
G1 X143.137 Y69.952 E0.02874
G1 X142.428 Y69.484 E0.02874
G1 X141.595 Y69.319 E0.02874
G1 X131.536 Y69.334 E0.3405
G1 X110.785 Y72.846 E0.71238
G1 X110.145 Y73.094 E0.02324
G1 X109.614 Y73.524 E0.02312
G1 X107.3 Y76.695 E0.13288
; INIT printing object Black - Cable Chain End_Wide_1.stl id:0 copy 0
;WIPE_START
G1 F8640
M204 P1000
G1 X107.111 Y77.171 E-0.11818
G1 X107.048 Y77.617 E-0.10397
G1 X106.975 Y79.945 E-0.53785
;WIPE_END
G1 E-0.04 F2100
G1 Z0.6 F10800
; printing object Black - Cable Chain End_Wide_1.stl id:0 copy 0
M486 S0
M204 P1500
G1 X111.466 Y106.088
M204 P1000
G1 X115.632 Y135.481
G1 Z0.2
G1 E0.8 F2100
;TYPE:Support material interface
;WIDTH:0.35
G1 F1200
G1 X115.632 Y133.572 E0.04873
G1 X115.125 Y133.572 E0.01295
G1 X115.125 Y135.349 E0.04535
G1 X114.618 Y135.349 E0.01295
G1 X114.618 Y133.572 E0.04535
G1 X114.607 Y133.572 E0.00029
G1 X114.389 Y133.354 E0.00788
G1 X114.389 Y131.146 E0.05639
G1 X114.607 Y130.928 E0.00788
G1 X114.618 Y130.928 E0.00029
G1 X114.618 Y130.722 E0.00525
G1 X115.125 Y130.722 E0.01295
G1 X115.125 Y130.928 E0.00525
G1 X115.632 Y130.928 E0.01295
G1 X115.632 Y130.59 E0.00862
;WIPE_START
G1 F8640
G1 X115.632 Y130.928 E-0.07793
G1 X115.125 Y130.928 E-0.11709
G1 X115.125 Y130.722 E-0.04744
G1 X114.618 Y130.722 E-0.11709
G1 X114.618 Y130.928 E-0.04744
G1 X114.607 Y130.928 E-0.00259
G1 X114.389 Y131.146 E-0.07123
G1 X114.389 Y132.355 E-0.27918
;WIPE_END
G1 E-0.04 F2100
G1 Z0.6 F10800
M204 P1500
G1 X114.872 Y133.035
M204 P1000
G1 X114.111 Y135.481
G1 Z0.2
G1 E0.8 F2100
G1 F1200
G1 X114.111 Y130.722 E0.1215
G1 X113.604 Y130.722 E0.01295
G1 X113.604 Y135.481 E0.1215
;WIPE_START
G1 F8640
G1 X113.604 Y132.189 E-0.76
;WIPE_END
G1 E-0.04 F2100
G1 Z0.6 F10800
M204 P1500
G1 X114.618 Y123.945
M204 P1000
G1 X115.632 Y112.41
G1 Z0.2
M73 Q0 S52
G1 E0.8 F2100
G1 F1200
G1 X115.632 Y112.072 E0.00862
G1 X115.125 Y112.072 E0.01295
G1 X115.125 Y112.278 E0.00525
G1 X114.618 Y112.278 E0.01295
G1 X114.618 Y112.072 E0.00525
G1 X114.607 Y112.072 E0.00029
G1 X114.389 Y111.854 E0.00788
G1 X114.389 Y109.646 E0.05639
G1 X114.607 Y109.428 E0.00788
G1 X114.618 Y109.428 E0.00029
G1 X114.618 Y107.651 E0.04535
G1 X115.125 Y107.651 E0.01295
G1 X115.125 Y109.428 E0.04535
G1 X115.632 Y109.428 E0.01295
G1 X115.632 Y107.519 E0.04873
;WIPE_START
G1 F8640
G1 X115.632 Y109.428 E-0.44063
G1 X115.125 Y109.428 E-0.11709
G1 X115.125 Y108.552 E-0.20228
;WIPE_END
G1 E-0.04 F2100
G1 Z0.6 F10800
M204 P1500
G1 X114.872 Y109.965
M204 P1000
G1 X114.111 Y112.41
G1 Z0.2
G1 E0.8 F2100
G1 F1200
G1 X114.111 Y107.651 E0.1215
G1 X113.604 Y107.651 E0.01295
G1 X113.604 Y112.41 E0.1215
;WIPE_START
G1 F8640
G1 X113.604 Y109.118 E-0.76
;WIPE_END
G1 E-0.04 F2100
G1 Z0.6 F10800
M204 P1500
G1 X118.171 Y125.443
M204 P1000
G1 X122.738 Y138.477
G1 Z0.2
G1 E0.8 F2100
;TYPE:Support material
;WIDTH:0.42
G1 F1200
G1 X122.738 Y134.806 E0.1151
G1 X122.342 Y134.806 E0.01241
G1 X122.104 Y134.568 E0.01055
G1 X122.104 Y133.406 E0.03644
G1 X121.983 Y133.406 E0.00378
G1 X121.983 Y138.315 E0.15392
G1 X121.229 Y138.315 E0.02365
G1 X121.229 Y133.406 E0.15392
G1 X120.475 Y133.406 E0.02365
G1 X120.475 Y138.315 E0.15392
G1 X119.721 Y138.315 E0.02365
G1 X119.721 Y133.406 E0.15392
G1 X118.967 Y133.406 E0.02365
G1 X118.967 Y138.315 E0.15392
G1 X118.213 Y138.315 E0.02365
G1 X118.213 Y133.406 E0.15392
G1 X117.458 Y133.406 E0.02365
G1 X117.458 Y138.315 E0.15392
G1 X116.704 Y138.315 E0.02365
G1 X116.704 Y133.406 E0.15392
G1 X116.106 Y133.406 E0.01875
G1 X116.106 Y135.677 E0.07121
G1 X115.95 Y135.677 E0.0049
G1 X115.95 Y138.315 E0.08271
G1 X115.196 Y138.315 E0.02365
G1 X115.196 Y135.677 E0.08271
G1 X114.442 Y135.677 E0.02365
G1 X114.442 Y138.315 E0.08271
G1 X113.688 Y138.315 E0.02365
G1 X113.688 Y135.677 E0.08271
G1 X113.13 Y135.677 E0.01748
G1 X113.13 Y130.394 E0.16565
G1 X113.688 Y130.394 E0.01748
G1 X113.688 Y127.756 E0.08271
G1 X114.442 Y127.756 E0.02365
G1 X114.442 Y130.394 E0.08271
G1 X115.196 Y130.394 E0.02365
G1 X115.196 Y127.756 E0.08271
G1 X115.95 Y127.756 E0.02365
G1 X115.95 Y130.394 E0.08271
G1 X116.106 Y130.394 E0.0049
G1 X116.106 Y131.094 E0.02196
G1 X116.704 Y131.094 E0.01875
G1 X116.704 Y127.756 E0.10467
G1 X117.458 Y127.756 E0.02365
G1 X117.458 Y131.094 E0.10467
G1 X118.213 Y131.094 E0.02365
G1 X118.213 Y127.756 E0.10467
G1 X118.744 Y127.756 E0.01667
G1 X118.744 Y130.606 E0.08937
G1 X118.967 Y130.606 E0.00698
G1 X118.967 Y131.094 E0.0153
G1 X119.721 Y131.094 E0.02365
G1 X119.721 Y130.606 E0.0153
G1 X120.475 Y130.606 E0.02365
G1 X120.475 Y131.094 E0.0153
G1 X121.229 Y131.094 E0.02365
G1 X121.229 Y130.606 E0.0153
G1 X121.983 Y130.606 E0.02365
G1 X121.983 Y131.256 E0.02038
;WIPE_START
G1 F8640
G1 X121.983 Y130.606 E-0.15009
G1 X121.229 Y130.606 E-0.17414
G1 X121.229 Y131.094 E-0.11265
G1 X120.475 Y131.094 E-0.17414
G1 X120.475 Y130.606 E-0.11265
G1 X120.318 Y130.606 E-0.03633
;WIPE_END
G1 E-0.04 F2100
G1 Z0.6 F10800
M204 P1500
G1 X118.59 Y132.331
M204 P1000
G1 X115.196 Y133.406
G1 Z0.2
G1 E0.8 F2100
G1 F1200
G1 X115.196 Y131.094 E0.0725
M204 P1500
G1 X114.065 Y134.785 F10800
M204 P1000
G1 X112.933 Y138.477
G1 F1200
G1 X112.933 Y127.756 E0.33616
G1 X112.179 Y127.756 E0.02365
G1 X112.179 Y138.315 E0.33107
G1 X111.425 Y138.315 E0.02365
G1 X111.425 Y127.756 E0.33107
M73 Q1 S52
G1 X110.671 Y127.756 E0.02365
G1 X110.671 Y138.315 E0.33107
M73 P1 R51
G1 X109.917 Y138.315 E0.02365
G1 X109.917 Y127.756 E0.33107
G1 X109.163 Y127.756 E0.02365
G1 X109.163 Y138.315 E0.33107
G1 X108.409 Y138.315 E0.02365
G1 X108.409 Y127.594 E0.33616
;WIPE_START
G1 F8640
G1 X108.409 Y130.885 E-0.76
;WIPE_END
G1 E-0.04 F2100
G1 Z0.6 F10800
M204 P1500
G1 X115.573 Y117.975
M204 P1000
G1 X122.738 Y108.356
G1 Z0.2
G1 E0.8 F2100
G1 F1200
G1 X122.738 Y104.685 E0.1151
G1 X121.983 Y104.685 E0.02365
G1 X121.983 Y109.594 E0.15392
G1 X121.229 Y109.594 E0.02365
G1 X121.229 Y104.685 E0.15392
G1 X120.475 Y104.685 E0.02365
G1 X120.475 Y109.594 E0.15392
G1 X119.721 Y109.594 E0.02365
G1 X119.721 Y104.685 E0.15392
G1 X118.967 Y104.685 E0.02365
G1 X118.967 Y109.594 E0.15392
G1 X118.213 Y109.594 E0.02365
G1 X118.213 Y104.685 E0.15392
G1 X117.458 Y104.685 E0.02365
G1 X117.458 Y109.594 E0.15392
G1 X116.704 Y109.594 E0.02365
G1 X116.704 Y104.685 E0.15392
G1 X115.95 Y104.685 E0.02365
G1 X115.95 Y107.323 E0.08271
G1 X115.196 Y107.323 E0.02365
G1 X115.196 Y104.685 E0.08271
G1 X114.442 Y104.685 E0.02365
G1 X114.442 Y107.323 E0.08271
G1 X113.688 Y107.323 E0.02365
G1 X113.688 Y104.685 E0.08271
G1 X112.933 Y104.685 E0.02365
G1 X112.933 Y115.244 E0.33107
G1 X113.688 Y115.244 E0.02365
G1 X113.688 Y112.606 E0.08271
G1 X114.442 Y112.606 E0.02365
G1 X114.442 Y115.244 E0.08271
G1 X115.196 Y115.244 E0.02365
G1 X115.196 Y112.606 E0.08271
G1 X115.95 Y112.606 E0.02365
G1 X115.95 Y115.244 E0.08271
G1 X116.704 Y115.244 E0.02365
G1 X116.704 Y111.906 E0.10466
G1 X117.458 Y111.906 E0.02365
G1 X117.458 Y115.244 E0.10466
G1 X118.213 Y115.244 E0.02365
G1 X118.213 Y111.906 E0.10466
G1 X118.967 Y111.906 E0.02365
G1 X118.967 Y112.394 E0.0153
G1 X119.721 Y112.394 E0.02365
G1 X119.721 Y111.906 E0.0153
G1 X120.475 Y111.906 E0.02365
G1 X120.475 Y112.394 E0.0153
G1 X121.229 Y112.394 E0.02365
G1 X121.229 Y111.906 E0.0153
G1 X121.983 Y111.906 E0.02365
G1 X121.983 Y112.556 E0.02038
M204 P1500
G1 X118.59 Y112.231 F10800
M204 P1000
G1 X115.196 Y111.906
G1 F1200
G1 X115.196 Y109.594 E0.0725
M204 P1500
G1 X113.688 Y112.5 F10800
M204 P1000
G1 X112.179 Y115.406
G1 F1200
G1 X112.179 Y104.685 E0.33616
G1 X111.425 Y104.685 E0.02365
G1 X111.425 Y115.244 E0.33107
G1 X110.671 Y115.244 E0.02365
G1 X110.671 Y104.685 E0.33107
G1 X109.917 Y104.685 E0.02365
G1 X109.917 Y115.244 E0.33107
G1 X109.163 Y115.244 E0.02365
G1 X109.163 Y104.685 E0.33107
G1 X108.409 Y104.685 E0.02365
G1 X108.409 Y115.406 E0.33616
;WIPE_START
G1 F8640
G1 X108.409 Y112.115 E-0.76
;WIPE_END
G1 E-0.04 F2100
G1 Z0.6 F10800
M204 P1500
G1 X116.423 Y118.143
M204 P1000
G1 X124.438 Y120.88
G1 Z0.2
G1 E0.8 F2100
;TYPE:Internal perimeter
G1 F1200
G1 X124.356 Y121.5 E0.01959
G1 X124.438 Y122.12 E0.01959
G1 X124.677 Y122.697 E0.01959
G1 X125.057 Y123.193 E0.01959
G1 X125.553 Y123.573 E0.01959
G1 X126.13 Y123.812 E0.01959
G1 X126.75 Y123.894 E0.01959
G1 X127.37 Y123.812 E0.01959
G1 X127.947 Y123.573 E0.01959
G1 X128.443 Y123.193 E0.01959
G1 X128.823 Y122.697 E0.01959
G1 X129.062 Y122.12 E0.01959
G1 X129.144 Y121.5 E0.01959
G1 X129.062 Y120.88 E0.01959
G1 X128.823 Y120.303 E0.01959
G1 X128.443 Y119.807 E0.01959
G1 X127.947 Y119.427 E0.01959
G1 X127.37 Y119.188 E0.01959
G1 X126.75 Y119.106 E0.01959
G1 X126.13 Y119.188 E0.01959
G1 X125.553 Y119.427 E0.01959
G1 X125.057 Y119.807 E0.01959
G1 X124.677 Y120.303 E0.01959
G1 X124.461 Y120.825 E0.01771
M204 P1500
G1 X124.635 Y120.897 F10800
M204 P1000
G1 X124.809 Y120.969
;TYPE:External perimeter
G1 F1200
G1 X124.736 Y121.5 E0.01679
G1 X124.805 Y122.021 E0.01648
G1 X125.006 Y122.507 E0.01648
G1 X125.326 Y122.924 E0.01648
G1 X125.743 Y123.244 E0.01648
G1 X126.229 Y123.445 E0.01648
G1 X126.75 Y123.514 E0.01648
G1 X127.271 Y123.445 E0.01648
G1 X127.757 Y123.244 E0.01648
G1 X128.174 Y122.924 E0.01648
G1 X128.494 Y122.507 E0.01648
G1 X128.695 Y122.021 E0.01648
G1 X128.764 Y121.5 E0.01648
G1 X128.695 Y120.979 E0.01648
G1 X128.494 Y120.493 E0.01648
G1 X128.174 Y120.076 E0.01648
G1 X127.757 Y119.756 E0.01648
G1 X127.271 Y119.555 E0.01648
G1 X126.75 Y119.486 E0.01648
G1 X126.229 Y119.555 E0.01648
G1 X125.743 Y119.756 E0.01648
G1 X125.326 Y120.076 E0.01648
G1 X125.006 Y120.493 E0.01648
G1 X124.832 Y120.914 E0.01428
G1 X124.799 Y120.971 F10800
;WIPE_START
G1 F8640
G1 X124.805 Y120.979 E-0.01624
G1 X124.736 Y121.5 E-0.12137
G1 X124.805 Y122.021 E-0.12137
G1 X125.006 Y122.507 E-0.12137
G1 X125.326 Y122.924 E-0.12137
G1 X125.743 Y123.244 E-0.12137
G1 X126.229 Y123.445 E-0.12136
G1 X126.296 Y123.454 E-0.01553
;WIPE_END
G1 E-0.04 F2100
G1 Z0.6 F10800
M204 P1500
G1 X128.404 Y121.207
M204 P1000
G1 X131.976 Y121.5
G1 Z0.2
G1 E0.8 F2100
;TYPE:Internal perimeter
G1 F1200
G1 X132.07 Y122.218 E0.02271
G1 X132.347 Y122.887 E0.02271
G1 X132.788 Y123.462 E0.02271
G1 X133.363 Y123.903 E0.02271
G1 X134.032 Y124.18 E0.02271
G1 X134.75 Y124.274 E0.02271
G1 X135.468 Y124.18 E0.02271
G1 X136.137 Y123.903 E0.02271
G1 X136.712 Y123.462 E0.02271
G1 X137.152 Y122.887 E0.02271
G1 X137.43 Y122.218 E0.02271
G1 X137.524 Y121.5 E0.02271
G1 X137.43 Y120.782 E0.02271
G1 X137.152 Y120.113 E0.02271
G1 X136.712 Y119.538 E0.02271
G1 X136.137 Y119.097 E0.02271
G1 X135.468 Y118.82 E0.02271
G1 X134.75 Y118.726 E0.02271
G1 X134.032 Y118.82 E0.02271
G1 X133.363 Y119.097 E0.02271
G1 X132.788 Y119.538 E0.02271
G1 X132.347 Y120.113 E0.02271
G1 X132.07 Y120.782 E0.02271
G1 X131.984 Y121.441 E0.02083
M204 P1500
G1 X132.171 Y121.465 F10800
M204 P1000
G1 X132.358 Y121.49
G1 F1200
G1 X132.438 Y122.12 E0.01991
G1 X132.677 Y122.697 E0.01959
G1 X133.057 Y123.193 E0.01959
G1 X133.553 Y123.573 E0.01959
G1 X134.13 Y123.812 E0.01959
G1 X134.75 Y123.894 E0.01959
G1 X135.37 Y123.812 E0.01959
G1 X135.947 Y123.573 E0.01959
G1 X136.443 Y123.193 E0.01959
G1 X136.823 Y122.697 E0.01959
G1 X137.062 Y122.12 E0.01959
G1 X137.144 Y121.5 E0.01959
G1 X137.062 Y120.88 E0.01959
G1 X136.823 Y120.303 E0.01959
G1 X136.443 Y119.807 E0.01959
G1 X135.947 Y119.427 E0.01959
G1 X135.37 Y119.188 E0.01959
G1 X134.75 Y119.106 E0.01959
G1 X134.13 Y119.188 E0.01959
G1 X133.553 Y119.427 E0.01959
G1 X133.057 Y119.807 E0.01959
G1 X132.677 Y120.303 E0.01959
G1 X132.438 Y120.88 E0.01959
G1 X132.365 Y121.43 E0.01739
M204 P1500
G1 X132.552 Y121.455 F10800
M204 P1000
G1 X132.739 Y121.479
;TYPE:External perimeter
G1 F1200
G1 X132.736 Y121.5 E0.00065
G1 X132.805 Y122.021 E0.01648
G1 X133.006 Y122.507 E0.01648
G1 X133.326 Y122.924 E0.01648
G1 X133.743 Y123.244 E0.01648
G1 X134.229 Y123.445 E0.01648
G1 X134.75 Y123.514 E0.01648
G1 X135.271 Y123.445 E0.01648
G1 X135.757 Y123.244 E0.01648
G1 X136.174 Y122.924 E0.01648
G1 X136.494 Y122.507 E0.01648
G1 X136.695 Y122.021 E0.01648
G1 X136.764 Y121.5 E0.01648
G1 X136.695 Y120.979 E0.01648
G1 X136.494 Y120.493 E0.01648
G1 X136.174 Y120.076 E0.01648
G1 X135.757 Y119.756 E0.01648
G1 X135.271 Y119.555 E0.01648
G1 X134.75 Y119.486 E0.01648
G1 X134.229 Y119.555 E0.01648
G1 X133.743 Y119.756 E0.01648
G1 X133.326 Y120.076 E0.01648
G1 X133.006 Y120.493 E0.01648
G1 X132.805 Y120.979 E0.01648
G1 X132.747 Y121.42 E0.01395
G1 X132.72 Y121.487 F10800
;WIPE_START
G1 F8640
G1 X132.736 Y121.5 E-0.01864
G1 X132.805 Y122.021 E-0.12137
G1 X133.006 Y122.507 E-0.12137
G1 X133.326 Y122.924 E-0.12137
G1 X133.743 Y123.244 E-0.12137
G1 X134.229 Y123.445 E-0.12136
G1 X134.75 Y123.514 E-0.12138
G1 X134.806 Y123.506 E-0.01313
;WIPE_END
G1 E-0.04 F2100
G1 Z0.6 F10800
M204 P1500
G1 X131.136 Y121.46
M204 P1000
G1 X129.524 Y121.5
G1 Z0.2
G1 E0.8 F2100
;TYPE:Internal perimeter
G1 F1200
G1 X129.43 Y120.782 E0.02271
G1 X129.152 Y120.113 E0.02271
G1 X128.712 Y119.538 E0.02271
G1 X128.137 Y119.097 E0.02271
G1 X127.468 Y118.82 E0.02271
G1 X126.75 Y118.726 E0.02271
G1 X126.032 Y118.82 E0.02271
G1 X125.363 Y119.097 E0.02271
G1 X124.788 Y119.538 E0.02271
G1 X124.348 Y120.113 E0.02271
G1 X124.202 Y120.463 E0.01188
G1 X123.914 Y120.406 E0.00922
G1 X123.914 Y110.536 E0.30946
G1 X123.474 Y110.536 E0.0138
G1 X123.474 Y109.564 E0.03047
G1 X137.586 Y109.564 E0.44246
G1 X137.586 Y111.864 E0.07212
G1 X139.586 Y111.864 E0.06271
G1 X139.586 Y131.136 E0.60425
G1 X137.586 Y131.136 E0.06271
