; generated by SuperSlicer 2.3.57 on 2022-03-09 at 10:18:42 UTC

; 

; external perimeters extrusion width = 0.45mm
; perimeters extrusion width = 0.45mm
; infill extrusion width = 0.45mm
; solid infill extrusion width = 0.45mm
; top infill extrusion width = 0.40mm
; first layer extrusion width = 0.42mm

; object:{"name":"Blue - Z Cable Guide_1","id":"Blue - Z Cable Guide_1.stl id:0 copy 0","object_center":[125.000000,105.000000,0.000000],"boundingbox_center":[125.000000,105.000000,7.503257],"boundingbox_size":[95.818176,87.674759,15.006514]}
; Total objects to print: 1
M486 T1
; plater:{"center":[125.000000,105.000000,0.000000],"boundingbox_center":[125.000000,105.000000,7.503257],"boundingbox_size":[95.818176,87.674759,15.006514]}

M73 P0 R106
M73 Q0 S108
;TYPE:Custom
M862.3 P "MK3S" ; printer model check
M862.1 P0.4 ; nozzle diameter check
M115 U3.10.0 ; tell printer latest fw version
G90 ; use absolute coordinates
M83 ; extruder relative mode
M104 S255 ; set extruder temp
M140 S100 ; set bed temp
M190 S100 ; wait for bed temp
M109 S255 ; wait for extruder temp
G28 W ; home all without mesh bed level
G80 ; mesh bed leveling
G1 Y-3.0 F1000.0 ; go outside print area
G92 E0.0
G1 X60.0 E9.0 F1000.0 ; intro line
G1 X100.0 E12.5 F1000.0 ; intro line
G92 E0.0
M221 S95

; Don't change E values below. Excessive value can damage the printer.
M907 E430 ; set extruder motor current
M107
G21 ; set units to millimeters
G90 ; use absolute coordinates
M83 ; use relative distances for extrusion
M900 K0.04 ; Filament gcode LA 1.5
M900 K20 ; Filament gcode LA 1.0
;LAYER_CHANGE
;Z:0.2
;HEIGHT:0.2
;BEFORE_LAYER_CHANGE
G92 E0.0
;0.2


G1 E-0.8 F2100
G1 Z0.4 F10800
;AFTER_LAYER_CHANGE
;0.2
G1 Z0.6
M204 P1500
G1 X85.457 Y81.654
G1 Z0.2
G1 E0.8 F2100
;TYPE:Skirt
;WIDTH:0.42
G1 F1200
G1 X86.503 Y80.603 E0.0465
G1 X88.872 Y78.777 E0.09379
G1 X90.155 Y78.032 E0.04649
G1 X92.916 Y76.882 E0.09379
G1 X94.348 Y76.495 E0.0465
G1 X97.313 Y76.098 E0.0938
G1 X98.796 Y76.095 E0.04649
G1 X101.762 Y76.479 E0.09379
G1 X103.196 Y76.86 E0.0465
G1 X105.962 Y77.999 E0.09379
G1 X107.248 Y78.737 E0.0465
G1 X108.089 Y79.38 E0.03318
G1 X160.954 Y50.578 E1.88761
G1 X165.429 Y50.101 E0.14111
G1 X169.896 Y51.417 E0.146
M73 Q0 S107
G1 X173.397 Y54.244 E0.1411
G1 X174.651 Y56.544 E0.08213
G1 X183.656 Y73.074 E0.59022
G1 X184.133 Y77.549 E0.1411
G1 X182.817 Y82.016 E0.146
G1 X179.99 Y85.517 E0.1411
G1 X173.119 Y89.261 E0.24533
G1 X172.887 Y90.771 E0.04791
G1 X172.473 Y92.195 E0.04651
G1 X171.479 Y94.456 E0.07742
G1 X170.71 Y95.724 E0.04649
G1 X169.165 Y97.65 E0.07742
G1 X168.094 Y98.676 E0.0465
G1 X166.103 Y100.137 E0.07743
G1 X164.804 Y100.85 E0.04649
G1 X162.503 Y101.746 E0.07742
G1 X161.062 Y102.099 E0.0465
G1 X158.608 Y102.369 E0.07742
G1 X157.125 Y102.337 E0.0465
G1 X154.685 Y101.962 E0.07742
G1 X153.261 Y101.548 E0.0465
G1 X151.77 Y100.892 E0.05106
G1 X113.061 Y121.981 E1.38213
G1 X111.047 Y123.535 E0.07977
G1 X109.452 Y125.618 E0.08225
G1 X108.386 Y128.015 E0.08224
G1 X107.985 Y130.527 E0.07977
G1 X107.985 Y133.502 E0.09329
G1 X107.878 Y134.599 E0.03455
G1 X107.359 Y137.234 E0.08421
G1 X106.527 Y139.267 E0.06888
G1 X104.76 Y141.954 E0.10082
G1 X103.196 Y143.541 E0.06987
G1 X100.522 Y145.356 E0.10134
G1 X98.467 Y146.224 E0.06993
G1 X95.779 Y146.778 E0.08605
G1 X94.635 Y146.894 E0.03605
G1 X92.392 Y146.895 E0.07034
G1 X92.392 Y150.966 E0.12764
G1 X90.67 Y155.123 E0.14111
G1 X87.377 Y158.416 E0.146
G1 X83.219 Y160.138 E0.14111
G1 X75.367 Y160.138 E0.24621
G1 X71.209 Y158.416 E0.14112
G1 X67.916 Y155.123 E0.14601
G1 X66.194 Y150.964 E0.14112
G1 X66.197 Y131.171 E0.62062
G1 X66.23 Y130.56 E0.01918
G1 X66.993 Y123.531 E0.2217
G1 X67.204 Y122.498 E0.03306
G1 X69.467 Y115.038 E0.24441
G1 X69.806 Y114.179 E0.02897
G1 X73.353 Y106.979 E0.25166
G1 X73.804 Y106.219 E0.0277
G1 X78.427 Y99.659 E0.25163
G1 X79.019 Y98.95 E0.02896
G1 X81.351 Y96.578 E0.1043
G1 X81.002 Y93.965 E0.08265
G1 X80.998 Y92.483 E0.04649
G1 X81.383 Y89.516 E0.09379
G1 X81.763 Y88.082 E0.0465
G1 X82.902 Y85.316 E0.09379
G1 X83.641 Y84.031 E0.04649
G1 X85.42 Y81.701 E0.09191
G1 X85.57 Y81.816 F10800
M204 P1000
G1 X85.72 Y81.93
G1 F1200
G1 X85.741 Y81.902 E0.00111
G1 X86.753 Y80.886 E0.04495
G1 X89.083 Y79.09 E0.09224
G1 X90.323 Y78.371 E0.04495
G1 X93.039 Y77.239 E0.09224
G1 X94.422 Y76.865 E0.04495
G1 X97.338 Y76.475 E0.09225
G1 X98.772 Y76.472 E0.04494
G1 X101.69 Y76.85 E0.09224
G1 X103.075 Y77.218 E0.04495
G1 X105.795 Y78.338 E0.09224
G1 X107.038 Y79.052 E0.04495
G1 X108.054 Y79.828 E0.04008
G1 X161.069 Y50.945 E1.89293
G1 X165.395 Y50.484 E0.1364
G1 X169.717 Y51.757 E0.1413
G1 X173.102 Y54.49 E0.1364
G1 X174.319 Y56.725 E0.07978
G1 X183.289 Y73.189 E0.58787
G1 X183.75 Y77.515 E0.1364
G1 X182.477 Y81.837 E0.1413
G1 X179.744 Y85.222 E0.1364
G1 X172.775 Y89.019 E0.24883
G1 X172.518 Y90.69 E0.05299
G1 X172.118 Y92.066 E0.04496
G1 X171.144 Y94.282 E0.07588
G1 X170.401 Y95.507 E0.04494
G1 X168.887 Y97.395 E0.07587
G1 X167.851 Y98.387 E0.04495
G1 X165.9 Y99.818 E0.07588
G1 X164.644 Y100.508 E0.04494
G1 X162.389 Y101.386 E0.07587
G1 X160.997 Y101.727 E0.04495
G1 X158.591 Y101.991 E0.07587
G1 X157.158 Y101.96 E0.04495
G1 X154.766 Y101.593 E0.07587
G1 X153.39 Y101.193 E0.04495
G1 X151.752 Y100.473 E0.05609
G1 X112.854 Y121.665 E1.38887
G1 X110.777 Y123.267 E0.08225
G1 X109.125 Y125.424 E0.08519
G1 X108.021 Y127.907 E0.08519
G1 X107.608 Y130.497 E0.08225
G1 X107.608 Y133.484 E0.09365
G1 X107.505 Y134.544 E0.0334
G1 X106.996 Y137.125 E0.08249
G1 X106.192 Y139.091 E0.06658
G1 X104.466 Y141.715 E0.0985
G1 X102.953 Y143.25 E0.06754
G1 X100.341 Y145.023 E0.09901
G1 X98.354 Y145.862 E0.0676
G1 X95.722 Y146.405 E0.08428
G1 X94.616 Y146.517 E0.03484
G1 X92.015 Y146.518 E0.08156
G1 X92.015 Y150.891 E0.13711
G1 X90.35 Y154.91 E0.1364
G1 X87.163 Y158.096 E0.1413
G1 X83.144 Y159.761 E0.1364
G1 X75.442 Y159.761 E0.2415
G1 X71.422 Y158.096 E0.13641
G1 X68.236 Y154.909 E0.14131
G1 X66.571 Y150.889 E0.13641
G1 X66.574 Y131.181 E0.61795
G1 X66.606 Y130.59 E0.01854
G1 X67.366 Y123.589 E0.22083
G1 X67.57 Y122.59 E0.03195
G1 X69.823 Y115.162 E0.24337
G1 X70.151 Y114.332 E0.028
G1 X73.685 Y107.159 E0.25072
G1 X74.121 Y106.424 E0.02677
G1 X78.727 Y99.889 E0.25069
G1 X79.298 Y99.203 E0.02799
G1 X81.749 Y96.711 E0.1096
G1 X81.379 Y93.94 E0.08766
G1 X81.376 Y92.506 E0.04494
G1 X81.753 Y89.589 E0.09224
G1 X82.121 Y88.203 E0.04495
G1 X83.242 Y85.483 E0.09224
G1 X83.956 Y84.24 E0.04494
G1 X85.684 Y81.978 E0.08925
M204 P1500
G1 X85.833 Y82.092 F10800
M204 P1000
G1 X85.983 Y82.207
G1 F1200
G1 X86.026 Y82.151 E0.00221
G1 X87.003 Y81.17 E0.0434
G1 X89.294 Y79.404 E0.09069
G1 X90.491 Y78.71 E0.0434
G1 X93.161 Y77.597 E0.09069
G1 X94.497 Y77.236 E0.0434
G1 X97.364 Y76.852 E0.0907
G1 X98.748 Y76.849 E0.0434
G1 X101.617 Y77.221 E0.09069
G1 X102.954 Y77.576 E0.0434
G1 X105.629 Y78.677 E0.09069
M73 P0 R105
G1 X106.829 Y79.367 E0.0434
G1 X108.02 Y80.276 E0.04698
G1 X161.183 Y51.312 E1.89825
G1 X165.36 Y50.867 E0.1317
G1 X169.539 Y52.098 E0.1366
G1 X172.807 Y54.737 E0.1317
G1 X173.988 Y56.905 E0.07742
G1 X182.922 Y73.303 E0.58552
G1 X183.367 Y77.48 E0.1317
G1 X182.136 Y81.659 E0.13659
G1 X179.498 Y84.927 E0.1317
G1 X172.43 Y88.777 E0.25234
G1 X172.149 Y90.608 E0.05807
G1 X171.762 Y91.937 E0.04341
G1 X170.808 Y94.107 E0.07433
G1 X170.091 Y95.29 E0.04339
G1 X168.608 Y97.14 E0.07432
G1 X167.608 Y98.097 E0.0434
G1 X165.697 Y99.499 E0.07433
G1 X164.484 Y100.166 E0.04339
G1 X162.275 Y101.025 E0.07432
G1 X160.931 Y101.355 E0.0434
G1 X158.575 Y101.614 E0.07432
G1 X157.191 Y101.584 E0.0434
G1 X154.848 Y101.224 E0.07432
G1 X153.519 Y100.837 E0.0434
G1 X151.734 Y100.053 E0.06112
G1 X112.648 Y121.348 E1.39561
G1 X110.508 Y122.998 E0.08474
G1 X108.799 Y125.23 E0.08813
G1 X107.657 Y127.798 E0.08813
G1 X107.231 Y130.467 E0.08474
G1 X107.231 Y133.466 E0.09401
G1 X107.131 Y134.489 E0.03224
G1 X106.633 Y137.016 E0.08076
G1 X105.857 Y138.914 E0.06429
G1 X104.171 Y141.477 E0.09619
G1 X102.711 Y142.958 E0.06521
G1 X100.16 Y144.69 E0.09668
G1 X98.242 Y145.5 E0.06527
G1 X95.664 Y146.031 E0.08252
G1 X94.597 Y146.14 E0.03364
G1 X91.638 Y146.141 E0.09278
G1 X91.638 Y150.816 E0.14658
G1 X90.03 Y154.696 E0.1317
G1 X86.95 Y157.777 E0.1366
G1 X83.069 Y159.384 E0.1317
G1 X75.517 Y159.384 E0.2368
G1 X71.636 Y157.776 E0.13171
G1 X68.555 Y154.696 E0.13661
G1 X66.948 Y150.814 E0.13171
G1 X66.951 Y131.191 E0.61528
G1 X66.982 Y130.621 E0.0179
G1 X67.739 Y123.647 E0.21996
G1 X67.936 Y122.683 E0.03085
G1 X70.18 Y115.287 E0.24234
G1 X70.496 Y114.484 E0.02704
G1 X74.017 Y107.338 E0.24977
G1 X74.438 Y106.63 E0.02585
G1 X79.026 Y100.119 E0.24974
G1 X79.578 Y99.457 E0.02703
G1 X82.155 Y96.837 E0.11522
G1 X82.139 Y96.777 E0.00195
G1 X81.756 Y93.914 E0.09055
G1 X81.753 Y92.53 E0.04339
G1 X82.124 Y89.662 E0.0907
G1 X82.479 Y88.324 E0.0434
G1 X83.581 Y85.649 E0.09069
G1 X84.27 Y84.449 E0.04339
G1 X85.947 Y82.254 E0.0866
M204 P1500
G1 X86.097 Y82.369 F10800
M204 P1000
G1 X86.246 Y82.483
G1 F1200
G1 X86.311 Y82.399 E0.00332
G1 X87.252 Y81.454 E0.04185
G1 X89.504 Y79.718 E0.08914
G1 X90.659 Y79.048 E0.04185
G1 X93.283 Y77.954 E0.08914
G1 X94.571 Y77.606 E0.04185
G1 X97.39 Y77.229 E0.08915
G1 X98.724 Y77.226 E0.04185
G1 X101.544 Y77.591 E0.08914
G1 X102.834 Y77.934 E0.04185
G1 X105.463 Y79.016 E0.08914
G1 X106.62 Y79.681 E0.04185
G1 X107.985 Y80.724 E0.05387
G1 X161.298 Y51.679 E1.90357
M73 P1 R105
M73 Q1 S107
G1 X165.325 Y51.25 E0.12699
G1 X169.36 Y52.438 E0.13189
G1 X172.512 Y54.983 E0.12699
G1 X173.657 Y57.085 E0.07507
G1 X182.555 Y73.418 E0.58316
G1 X182.985 Y77.445 E0.12699
G1 X181.796 Y81.48 E0.13189
G1 X179.251 Y84.632 E0.12699
G1 X172.086 Y88.535 E0.25584
G1 X171.78 Y90.526 E0.06315
G1 X171.407 Y91.808 E0.04186
G1 X170.473 Y93.933 E0.07278
G1 X169.781 Y95.074 E0.04184
G1 X168.329 Y96.884 E0.07277
G1 X167.365 Y97.808 E0.04185
G1 X165.494 Y99.181 E0.07278
G1 X164.324 Y99.823 E0.04184
G1 X162.161 Y100.665 E0.07277
G1 X160.865 Y100.983 E0.04185
G1 X158.558 Y101.236 E0.07277
G1 X157.224 Y101.208 E0.04185
G1 X154.93 Y100.855 E0.07277
G1 X153.648 Y100.482 E0.04185
G1 X151.717 Y99.633 E0.06615
G1 X112.441 Y121.031 E1.40236
M73 Q1 S106
G1 X110.238 Y122.73 E0.08722
G1 X108.472 Y125.036 E0.09108
G1 X107.292 Y127.69 E0.09107
G1 X106.854 Y130.437 E0.08722
G1 X106.854 Y133.447 E0.09437
G1 X106.758 Y134.434 E0.03109
G1 X106.27 Y136.907 E0.07904
G1 X105.522 Y138.737 E0.06199
G1 X103.876 Y141.239 E0.09388
G1 X102.469 Y142.667 E0.06288
G1 X99.979 Y144.357 E0.09435
G1 X98.129 Y145.138 E0.06294
G1 X95.607 Y145.658 E0.08075
G1 X94.578 Y145.763 E0.03244
G1 X91.261 Y145.764 E0.104
G1 X91.261 Y150.741 E0.15605
G1 X89.711 Y154.483 E0.12699
G1 X86.736 Y157.457 E0.13189
G1 X82.994 Y159.007 E0.12699
G1 X75.592 Y159.007 E0.2321
G1 X71.85 Y157.457 E0.12701
G1 X68.875 Y154.482 E0.1319
G1 X67.325 Y150.739 E0.12701
G1 X67.328 Y131.201 E0.61261
G1 X67.358 Y130.652 E0.01726
G1 X68.112 Y123.705 E0.21909
G1 X68.302 Y122.775 E0.02975
G1 X70.536 Y115.411 E0.2413
G1 X70.841 Y114.637 E0.02607
G1 X74.349 Y107.518 E0.24883
G1 X74.755 Y106.835 E0.02493
G1 X79.325 Y100.348 E0.2488
G1 X79.858 Y99.71 E0.02606
G1 X82.575 Y96.947 E0.12151
G1 X82.509 Y96.702 E0.00795
G1 X82.133 Y93.889 E0.089
G1 X82.13 Y92.554 E0.04184
G1 X82.495 Y89.735 E0.08915
G1 X82.838 Y88.445 E0.04185
G1 X83.92 Y85.816 E0.08914
G1 X84.585 Y84.659 E0.04184
G1 X86.21 Y82.531 E0.08394
M204 P1500
G1 X86.36 Y82.646 F10800
M204 P1000
G1 X86.51 Y82.76
G1 F1200
G1 X86.595 Y82.648 E0.00443
G1 X87.502 Y81.737 E0.0403
G1 X89.715 Y80.032 E0.08759
G1 X90.827 Y79.387 E0.0403
G1 X93.405 Y78.312 E0.08759
G1 X94.646 Y77.977 E0.0403
G1 X97.415 Y77.606 E0.0876
G1 X98.7 Y77.603 E0.0403
G1 X101.471 Y77.962 E0.08759
G1 X102.713 Y78.292 E0.0403
G1 X105.296 Y79.356 E0.08759
G1 X106.411 Y79.996 E0.0403
G1 X107.951 Y81.173 E0.06077
G1 X161.412 Y52.046 E1.90889
G1 X165.291 Y51.632 E0.12229
G1 X169.182 Y52.779 E0.12719
G1 X172.217 Y55.229 E0.12229
G1 X173.326 Y57.266 E0.07272
G1 X182.188 Y73.532 E0.58081
G1 X182.602 Y77.411 E0.12229
G1 X181.455 Y81.302 E0.12719
G1 X179.005 Y84.336 E0.12229
G1 X171.742 Y88.294 E0.25934
G1 X171.412 Y90.445 E0.06823
G1 X171.052 Y91.679 E0.04031
G1 X170.138 Y93.758 E0.07123
G1 X169.472 Y94.857 E0.04029
G1 X168.051 Y96.629 E0.07122
G1 X167.122 Y97.518 E0.0403
G1 X165.291 Y98.862 E0.07123
G1 X164.164 Y99.481 E0.04029
G1 X162.048 Y100.305 E0.07122
G1 X160.799 Y100.611 E0.0403
G1 X158.541 Y100.859 E0.07122
G1 X157.256 Y100.831 E0.0403
G1 X155.011 Y100.486 E0.07122
G1 X153.777 Y100.127 E0.0403
G1 X151.699 Y99.213 E0.07119
G1 X112.235 Y120.714 E1.4091
G1 X109.969 Y122.462 E0.08971
G1 X108.146 Y124.842 E0.09402
G1 X106.928 Y127.582 E0.09402
G1 X106.477 Y130.408 E0.08971
G1 X106.477 Y133.429 E0.09473
G1 X106.384 Y134.379 E0.02994
G1 X105.907 Y136.799 E0.07731
G1 X105.187 Y138.561 E0.0597
G1 X103.582 Y141.001 E0.09157
G1 X102.226 Y142.376 E0.06055
G1 X99.798 Y144.024 E0.09202
G1 X98.017 Y144.777 E0.06061
G1 X95.55 Y145.285 E0.07899
G1 X94.558 Y145.386 E0.03124
G1 X90.884 Y145.387 E0.11522
G1 X90.884 Y150.666 E0.16552
G1 X89.391 Y154.269 E0.12229
G1 X86.523 Y157.137 E0.12719
G1 X82.919 Y158.63 E0.12229
G1 X75.667 Y158.63 E0.22739
G1 X72.063 Y157.137 E0.1223
G1 X69.195 Y154.268 E0.1272
G1 X67.702 Y150.665 E0.1223
G1 X67.705 Y131.212 E0.60993
G1 X67.734 Y130.682 E0.01662
G1 X68.485 Y123.763 E0.21821
G1 X68.668 Y122.868 E0.02865
G1 X70.892 Y115.535 E0.24027
G1 X71.187 Y114.79 E0.02511
G1 X74.68 Y107.698 E0.24788
G1 X75.071 Y107.04 E0.024
G1 X79.625 Y100.578 E0.24786
G1 X80.137 Y99.964 E0.02509
G1 X82.995 Y97.057 E0.1278
G1 X82.88 Y96.628 E0.01395
G1 X82.51 Y93.863 E0.08746
G1 X82.507 Y92.578 E0.04029
G1 X82.866 Y89.808 E0.0876
G1 X83.196 Y88.565 E0.0403
G1 X84.259 Y85.982 E0.08759
G1 X84.899 Y84.868 E0.04029
G1 X86.473 Y82.808 E0.08128
M204 P1500
G1 X86.623 Y82.922 F10800
M204 P1000
G1 X86.773 Y83.037
G1 F1200
G1 X86.88 Y82.896 E0.00553
G1 X87.752 Y82.021 E0.03875
G1 X89.926 Y80.345 E0.08604
G1 X90.994 Y79.725 E0.03875
G1 X93.527 Y78.67 E0.08604
G1 X94.72 Y78.347 E0.03875
G1 X97.441 Y77.983 E0.08605
G1 X98.676 Y77.981 E0.03875
G1 X101.398 Y78.333 E0.08604
G1 X102.592 Y78.65 E0.03875
G1 X105.13 Y79.695 E0.08604
G1 X106.201 Y80.311 E0.03875
G1 X107.916 Y81.621 E0.06767
G1 X161.527 Y52.413 E1.91421
G1 X165.256 Y52.015 E0.11759
G1 X169.003 Y53.12 E0.12248
G1 X171.921 Y55.475 E0.11759
G1 X172.995 Y57.446 E0.07037
G1 X181.821 Y73.647 E0.57846
G1 X182.219 Y77.376 E0.11759
G1 X181.115 Y81.123 E0.12248
G1 X178.759 Y84.041 E0.11759
G1 X171.382 Y88.06 E0.26339
G1 X171.38 Y88.167 E0.00333
G1 X171.043 Y90.363 E0.06967
G1 X170.697 Y91.55 E0.03876
G1 X169.803 Y93.584 E0.06968
G1 X169.162 Y94.641 E0.03874
M73 P1 R104
G1 X167.772 Y96.374 E0.06967
G1 X166.879 Y97.229 E0.03875
G1 X165.088 Y98.544 E0.06968
G1 X164.005 Y99.138 E0.03874
G1 X161.934 Y99.944 E0.06967
G1 X160.734 Y100.238 E0.03875
G1 X158.525 Y100.481 E0.06967
G1 X157.289 Y100.455 E0.03875
G1 X155.093 Y100.117 E0.06967
G1 X153.906 Y99.772 E0.03875
G1 X151.872 Y98.878 E0.06967
G1 X151.709 Y98.779 E0.00599
G1 X112.028 Y120.397 E1.41683
G1 X109.7 Y122.193 E0.09219
G1 X107.819 Y124.648 E0.09697
G1 X106.563 Y127.474 E0.09696
G1 X106.1 Y130.378 E0.09219
G1 X106.1 Y133.411 E0.09509
G1 X106.011 Y134.324 E0.02879
G1 X105.544 Y136.69 E0.07559
G1 X104.851 Y138.384 E0.0574
G1 X103.287 Y140.762 E0.08925
G1 X101.984 Y142.085 E0.05822
G1 X99.617 Y143.691 E0.08969
G1 X97.904 Y144.415 E0.05828
G1 X95.492 Y144.912 E0.07722
G1 X94.539 Y145.009 E0.03004
G1 X90.506 Y145.01 E0.12644
G1 X90.506 Y150.591 E0.17499
G1 X89.071 Y154.055 E0.11759
G1 X86.309 Y156.818 E0.12248
G1 X82.844 Y158.253 E0.11759
G1 X75.742 Y158.253 E0.22269
G1 X72.277 Y156.818 E0.1176
G1 X69.514 Y154.055 E0.12249
G1 X68.079 Y150.59 E0.1176
G1 X68.082 Y131.222 E0.60726
G1 X68.11 Y130.713 E0.01598
G1 X68.858 Y123.822 E0.21734
G1 X69.034 Y122.961 E0.02755
G1 X71.249 Y115.659 E0.23924
G1 X71.532 Y114.943 E0.02414
G1 X75.012 Y107.878 E0.24694
G1 X75.388 Y107.245 E0.02308
G1 X79.924 Y100.808 E0.24691
G1 X80.417 Y100.217 E0.02413
G1 X83.416 Y97.168 E0.13409
G1 X83.25 Y96.554 E0.01995
G1 X82.887 Y93.838 E0.08591
G1 X82.884 Y92.602 E0.03874
G1 X83.236 Y89.88 E0.08605
