; generated by SuperSlicer 2.3.57 on 2022-03-09 at 10:17:47 UTC

; 

; external perimeters extrusion width = 0.45mm
; perimeters extrusion width = 0.45mm
; infill extrusion width = 0.45mm
; solid infill extrusion width = 0.45mm
; top infill extrusion width = 0.40mm
; first layer extrusion width = 0.42mm

; object:{"name":"Blue - X Cable Guide_1","id":"Blue - X Cable Guide_1.stl id:0 copy 0","object_center":[125.000000,105.000000,0.000000],"boundingbox_center":[125.000000,105.000000,10.000000],"boundingbox_size":[51.174133,57.766724,20.000000]}
; Total objects to print: 1
M486 T1
; plater:{"center":[125.000000,105.000000,0.000000],"boundingbox_center":[125.000000,105.000000,10.000000],"boundingbox_size":[51.174133,57.766724,20.000000]}

M73 P0 R76
M73 Q0 S77
;TYPE:Custom
M862.3 P "MK3S" ; printer model check
M862.1 P0.4 ; nozzle diameter check
M115 U3.10.0 ; tell printer latest fw version
G90 ; use absolute coordinates
M83 ; extruder relative mode
M104 S255 ; set extruder temp
M140 S100 ; set bed temp
M190 S100 ; wait for bed temp
M109 S255 ; wait for extruder temp
G28 W ; home all without mesh bed level
G80 ; mesh bed leveling
G1 Y-3.0 F1000.0 ; go outside print area
G92 E0.0
G1 X60.0 E9.0 F1000.0 ; intro line
G1 X100.0 E12.5 F1000.0 ; intro line
G92 E0.0
M221 S95

; Don't change E values below. Excessive value can damage the printer.
M907 E430 ; set extruder motor current
M107
G21 ; set units to millimeters
G90 ; use absolute coordinates
M83 ; use relative distances for extrusion
M900 K0.04 ; Filament gcode LA 1.5
M900 K20 ; Filament gcode LA 1.0
M107
;LAYER_CHANGE
;Z:0.2
;HEIGHT:0.2
;BEFORE_LAYER_CHANGE
G92 E0.0
;0.2


G1 E-0.8 F2100
G1 Z0.4 F10800
;AFTER_LAYER_CHANGE
;0.2
G1 Z0.6
M204 P1500
G1 X120.379 Y73.058
G1 Z0.2
G1 E0.8 F2100
;TYPE:Skirt
;WIDTH:0.42
G1 F1200
G1 X122.164 Y70.721 E0.0922
G1 X123.21 Y69.671 E0.0465
G1 X125.539 Y67.875 E0.0922
G1 X126.822 Y67.131 E0.0465
G1 X129.534 Y66. E0.09215
G1 X130.963 Y65.614 E0.0464
G1 X135.442 Y65.012 E0.14171
G1 X137.508 Y65.637 E0.06768
G1 X138.524 Y65.216 E0.03448
G1 X152.315 Y65.216 E0.43241
G1 X156.473 Y66.938 E0.14111
G1 X159.766 Y70.231 E0.146
G1 X161.488 Y74.388 E0.1411
G1 X161.488 Y90.115 E0.49308
G1 X161.382 Y91.205 E0.03435
G1 X160.943 Y93.447 E0.07163
G1 X160.124 Y95.464 E0.06825
G1 X158.587 Y97.825 E0.08836
G1 X157.029 Y99.42 E0.06988
G1 X154.682 Y101.029 E0.08924
G1 X154.562 Y101.08 E0.00409
G1 X154.562 Y118.22 E0.53741
G1 X154.513 Y118.958 E0.02319
G1 X153.836 Y124.112 E0.16301
G1 X153.454 Y125.542 E0.04639
G1 X151.334 Y130.67 E0.17399
G1 X150.594 Y131.955 E0.0465
G1 X147.218 Y136.362 E0.17405
G1 X146.17 Y137.411 E0.04649
G1 X141.769 Y140.794 E0.17405
G1 X140.485 Y141.536 E0.0465
G1 X135.358 Y143.665 E0.17405
G1 X133.926 Y144.05 E0.0465
G1 X128.756 Y144.734 E0.16352
G1 X128.013 Y144.783 E0.02334
G1 X117.286 Y144.785 E0.33636
G1 X113.127 Y143.062 E0.14112
G1 X109.834 Y139.769 E0.14601
G1 X108.112 Y135.612 E0.14111
G1 X108.112 Y130.184 E0.17017
G1 X99.182 Y130.184 E0.27999
G1 X95.021 Y128.459 E0.14125
G1 X91.727 Y125.16 E0.14615
G1 X90.008 Y120.996 E0.14125
G1 X90.021 Y113.14 E0.24634
G1 X91.746 Y108.988 E0.14096
G1 X95.038 Y105.701 E0.14585
G1 X99.192 Y103.982 E0.14096
G1 X117.76 Y103.982 E0.58218
G1 X117.76 Y81.781 E0.69611
G1 X117.808 Y81.045 E0.02313
G1 X118.144 Y78.483 E0.08103
G1 X118.523 Y77.059 E0.04619
G1 X119.641 Y74.344 E0.09205
G1 X120.349 Y73.11 E0.04462
G1 X120.513 Y73.204 F10800
M204 P1000
G1 X120.676 Y73.298
G1 F1200
G1 X120.694 Y73.267 E0.00111
G1 X122.449 Y70.97 E0.09065
G1 X123.46 Y69.954 E0.04495
G1 X125.75 Y68.189 E0.09065
G1 X126.99 Y67.47 E0.04495
G1 X129.657 Y66.358 E0.0906
G1 X131.038 Y65.984 E0.04485
G1 X135.411 Y65.396 E0.13837
G1 X137.528 Y66.037 E0.06934
G1 X138.599 Y65.593 E0.03636
G1 X152.24 Y65.593 E0.42771
G1 X156.26 Y67.258 E0.1364
G1 X159.446 Y70.444 E0.1413
G1 X161.111 Y74.463 E0.1364
G1 X161.111 Y90.096 E0.49016
G1 X161.009 Y91.15 E0.0332
G1 X160.58 Y93.339 E0.06992
G1 X159.789 Y95.289 E0.06598
G1 X158.291 Y97.589 E0.08606
G1 X156.786 Y99.13 E0.06755
G1 X154.499 Y100.697 E0.08691
G1 X154.185 Y100.831 E0.01073
G1 X154.185 Y118.208 E0.54482
G1 X154.138 Y118.921 E0.02241
G1 X153.465 Y124.039 E0.16185
G1 X153.096 Y125.421 E0.04485
G1 X150.995 Y130.504 E0.17245
G1 X150.279 Y131.746 E0.04495
G1 X146.933 Y136.113 E0.1725
G1 X145.921 Y137.127 E0.04494
G1 X141.559 Y140.48 E0.1725
G1 X140.318 Y141.198 E0.04495
G1 X135.237 Y143.307 E0.1725
G1 X133.852 Y143.679 E0.04495
G1 X128.719 Y144.359 E0.16236
G1 X128.001 Y144.406 E0.02257
G1 X117.36 Y144.407 E0.33362
G1 X113.341 Y142.743 E0.13642
G1 X110.154 Y139.556 E0.14131
G1 X108.489 Y135.537 E0.1364
G1 X108.489 Y129.807 E0.17964
G1 X99.257 Y129.807 E0.28945
G1 X95.235 Y128.139 E0.13654
G1 X92.047 Y124.947 E0.14144
G1 X90.386 Y120.922 E0.13654
G1 X90.398 Y113.215 E0.24163
G1 X92.065 Y109.202 E0.13626
G1 X95.251 Y106.021 E0.14115
G1 X99.267 Y104.36 E0.13626
G1 X118.137 Y104.36 E0.59165
G1 X118.137 Y81.793 E0.70755
G1 X118.183 Y81.082 E0.02236
G1 X118.514 Y78.556 E0.07987
G1 X118.881 Y77.18 E0.04465
G1 X119.98 Y74.511 E0.0905
G1 X120.646 Y73.35 E0.04196
M204 P1500
G1 X120.81 Y73.444 F10800
M204 P1000
G1 X120.973 Y73.538
G1 F1200
G1 X121.008 Y73.477 E0.00221
G1 X122.733 Y71.218 E0.0891
G1 X123.71 Y70.238 E0.0434
G1 X125.96 Y68.503 E0.0891
G1 X127.157 Y67.808 E0.0434
G1 X129.779 Y66.715 E0.08905
G1 X131.112 Y66.355 E0.04331
G1 X135.38 Y65.781 E0.13503
G1 X137.548 Y66.436 E0.071
G1 X138.674 Y65.97 E0.03823
G1 X152.165 Y65.97 E0.423
G1 X156.046 Y67.577 E0.1317
G1 X159.126 Y70.658 E0.1366
G1 X160.734 Y74.538 E0.1317
G1 X160.734 Y90.078 E0.48724
G1 X160.635 Y91.096 E0.03206
G1 X160.217 Y93.23 E0.06821
G1 X159.453 Y95.113 E0.0637
G1 X157.995 Y97.352 E0.08375
G1 X156.542 Y98.84 E0.06522
G1 X154.317 Y100.365 E0.08458
G1 X153.807 Y100.582 E0.01736
G1 X153.807 Y118.195 E0.55224
G1 X153.762 Y118.884 E0.02164
G1 X153.094 Y123.965 E0.16069
G1 X152.738 Y125.299 E0.0433
G1 X150.656 Y130.337 E0.1709
G1 X149.965 Y131.536 E0.0434
G1 X146.649 Y135.864 E0.17095
G1 X145.671 Y136.843 E0.04339
G1 X141.348 Y140.166 E0.17095
G1 X140.15 Y140.859 E0.0434
G1 X135.115 Y142.949 E0.17095
G1 X133.778 Y143.308 E0.0434
G1 X128.682 Y143.984 E0.16119
G1 X127.988 Y144.029 E0.02179
G1 X117.435 Y144.03 E0.33088
M73 Q0 S76
G1 X113.554 Y142.423 E0.13171
G1 X110.474 Y139.342 E0.1366
G1 X108.866 Y135.462 E0.1317
G1 X108.866 Y129.43 E0.18911
G1 X99.332 Y129.43 E0.29892
G1 X95.449 Y127.82 E0.13183
G1 X92.367 Y124.734 E0.13673
G1 X90.763 Y120.847 E0.13183
G1 X90.775 Y113.291 E0.23693
G1 X92.385 Y109.416 E0.13156
G1 X95.465 Y106.341 E0.13646
G1 X99.342 Y104.737 E0.13156
G1 X118.514 Y104.737 E0.60113
G1 X118.514 Y81.806 E0.71899
M73 P0 R75
G1 X118.559 Y81.119 E0.02159
G1 X118.885 Y78.629 E0.07872
G1 X119.239 Y77.301 E0.04311
M73 P1 R75
G1 X120.319 Y74.677 E0.08896
G1 X120.943 Y73.59 E0.0393
M204 P1500
G1 X121.107 Y73.684 F10800
M204 P1000
G1 X121.27 Y73.778
G1 F1200
G1 X121.323 Y73.686 E0.00332
G1 X123.018 Y71.467 E0.08755
M73 Q1 S76
G1 X123.96 Y70.521 E0.04185
G1 X126.171 Y68.817 E0.08755
G1 X127.325 Y68.147 E0.04185
G1 X129.901 Y67.073 E0.0875
G1 X131.187 Y66.725 E0.04176
G1 X135.35 Y66.165 E0.13169
G1 X137.568 Y66.836 E0.07266
G1 X138.749 Y66.347 E0.0401
G1 X152.09 Y66.347 E0.4183
G1 X155.832 Y67.897 E0.127
G1 X158.807 Y70.871 E0.13189
G1 X160.357 Y74.613 E0.12699
G1 X160.357 Y90.06 E0.48431
G1 X160.261 Y91.041 E0.03091
G1 X159.854 Y93.122 E0.0665
G1 X159.117 Y94.938 E0.06143
G1 X157.699 Y97.115 E0.08145
G1 X156.298 Y98.55 E0.06289
G1 X154.134 Y100.033 E0.08225
G1 X153.43 Y100.334 E0.024
G1 X153.43 Y118.183 E0.55966
G1 X153.387 Y118.847 E0.02087
G1 X152.724 Y123.892 E0.15953
G1 X152.38 Y125.178 E0.04175
G1 X150.317 Y130.17 E0.16935
G1 X149.65 Y131.326 E0.04185
G1 X146.365 Y135.615 E0.1694
G1 X145.422 Y136.559 E0.04184
G1 X141.138 Y139.852 E0.1694
G1 X139.983 Y140.52 E0.04185
G1 X134.993 Y142.591 E0.1694
G1 X133.704 Y142.938 E0.04185
G1 X128.645 Y143.608 E0.16003
G1 X127.976 Y143.652 E0.02101
G1 X117.51 Y143.653 E0.32814
G1 X113.768 Y142.103 E0.12701
G1 X110.793 Y139.129 E0.1319
G1 X109.243 Y135.387 E0.127
G1 X109.243 Y129.053 E0.19859
G1 X99.408 Y129.053 E0.30839
G1 X95.662 Y127.5 E0.12712
G1 X92.687 Y124.52 E0.13203
G1 X91.14 Y120.773 E0.12712
G1 X91.152 Y113.366 E0.23223
G1 X92.704 Y109.63 E0.12686
G1 X95.678 Y106.661 E0.13176
G1 X99.417 Y105.114 E0.12687
G1 X118.891 Y105.114 E0.6106
G1 X118.891 Y81.818 E0.73042
G1 X118.934 Y81.155 E0.02081
G1 X119.256 Y78.703 E0.07756
G1 X119.597 Y77.421 E0.04157
G1 X120.658 Y74.843 E0.08741
G1 X121.241 Y73.83 E0.03665
M204 P1500
G1 X121.404 Y73.924 F10800
M204 P1000
G1 X121.568 Y74.018
G1 F1200
G1 X121.638 Y73.895 E0.00443
G1 X123.303 Y71.716 E0.086
G1 X124.209 Y70.805 E0.0403
G1 X126.382 Y69.13 E0.086
G1 X127.493 Y68.485 E0.0403
G1 X130.024 Y67.431 E0.08596
G1 X131.262 Y67.096 E0.04021
G1 X135.319 Y66.55 E0.12835
G1 X137.587 Y67.236 E0.07432
G1 X138.824 Y66.724 E0.04198
G1 X152.015 Y66.724 E0.4136
G1 X155.619 Y68.217 E0.12229
G1 X158.487 Y71.085 E0.12719
G1 X159.98 Y74.688 E0.12229
G1 X159.98 Y90.042 E0.48139
G1 X159.888 Y90.987 E0.02977
G1 X159.491 Y93.014 E0.06479
G1 X158.781 Y94.763 E0.05915
G1 X157.404 Y96.878 E0.07915
G1 X156.054 Y98.26 E0.06056
G1 X153.952 Y99.701 E0.07992
G1 X153.053 Y100.085 E0.03064
G1 X153.053 Y118.171 E0.56707
G1 X153.011 Y118.81 E0.02009
G1 X152.353 Y123.818 E0.15837
G1 X152.022 Y125.057 E0.04021
G1 X149.978 Y130.003 E0.1678
G1 X149.336 Y131.116 E0.0403
G1 X146.081 Y135.366 E0.16785
G1 X145.173 Y136.275 E0.04029
G1 X140.928 Y139.538 E0.16785
G1 X139.816 Y140.181 E0.0403
G1 X134.871 Y142.234 E0.16785
G1 X133.63 Y142.567 E0.0403
G1 X128.607 Y143.233 E0.15887
G1 X127.963 Y143.275 E0.02023
G1 X117.585 Y143.276 E0.3254
G1 X113.981 Y141.784 E0.12231
G1 X111.113 Y138.915 E0.1272
G1 X109.62 Y135.312 E0.12229
G1 X109.62 Y128.676 E0.20806
G1 X99.483 Y128.676 E0.31786
G1 X95.876 Y127.18 E0.12242
G1 X93.007 Y124.307 E0.12732
G1 X91.517 Y120.698 E0.12242
G1 X91.528 Y113.442 E0.22752
G1 X93.024 Y109.844 E0.12217
G1 X95.891 Y106.98 E0.12706
G1 X99.492 Y105.491 E0.12217
G1 X119.268 Y105.491 E0.62007
G1 X119.268 Y81.83 E0.74186
G1 X119.31 Y81.192 E0.02004
G1 X119.626 Y78.776 E0.07641
G1 X119.955 Y77.542 E0.04004
G1 X120.998 Y75.01 E0.08587
G1 X121.538 Y74.07 E0.03399
M204 P1500
G1 X121.701 Y74.164 F10800
M204 P1000
G1 X121.865 Y74.257
G1 F1200
G1 X121.952 Y74.104 E0.00553
G1 X123.587 Y71.964 E0.08445
G1 X124.459 Y71.088 E0.03875
G1 X126.592 Y69.444 E0.08445
G1 X127.661 Y68.824 E0.03875
G1 X130.146 Y67.788 E0.08441
G1 X131.336 Y67.466 E0.03867
G1 X135.288 Y66.935 E0.12501
G1 X137.607 Y67.636 E0.07598
G1 X138.899 Y67.101 E0.04385
G1 X151.94 Y67.101 E0.40889
G1 X155.405 Y68.536 E0.11759
G1 X158.167 Y71.299 E0.12248
G1 X159.603 Y74.763 E0.11759
G1 X159.603 Y90.023 E0.47846
G1 X159.514 Y90.932 E0.02863
G1 X159.127 Y92.906 E0.06308
G1 X158.446 Y94.587 E0.05688
G1 X157.108 Y96.641 E0.07685
G1 X155.81 Y97.97 E0.05823
G1 X153.769 Y99.368 E0.07759
G1 X152.676 Y99.836 E0.03727
G1 X152.676 Y118.158 E0.57449
G1 X152.636 Y118.773 E0.01932
G1 X151.983 Y123.745 E0.15721
G1 X151.664 Y124.936 E0.03866
G1 X149.639 Y129.836 E0.16625
G1 X149.022 Y130.907 E0.03875
G1 X145.796 Y135.117 E0.1663
G1 X144.923 Y135.992 E0.03875
G1 X140.718 Y139.224 E0.1663
G1 X139.648 Y139.842 E0.03875
G1 X134.75 Y141.876 E0.1663
G1 X133.556 Y142.197 E0.03875
G1 X128.57 Y142.857 E0.1577
G1 X127.951 Y142.898 E0.01945
G1 X117.66 Y142.899 E0.32265
G1 X114.195 Y141.464 E0.1176
G1 X111.433 Y138.701 E0.12249
G1 X109.997 Y135.237 E0.11759
G1 X109.997 Y128.299 E0.21753
G1 X99.558 Y128.299 E0.32733
G1 X96.09 Y126.861 E0.11771
G1 X93.327 Y124.094 E0.12261
G1 X91.894 Y120.624 E0.11771
G1 X91.905 Y113.517 E0.22282
G1 X93.343 Y110.058 E0.11747
G1 X96.105 Y107.3 E0.12236
G1 X99.567 Y105.868 E0.11747
G1 X119.645 Y105.868 E0.62955
G1 X119.645 Y81.842 E0.7533
G1 X119.685 Y81.229 E0.01927
G1 X119.997 Y78.849 E0.07525
G1 X120.313 Y77.663 E0.0385
G1 X121.337 Y75.176 E0.08432
G1 X121.835 Y74.309 E0.03134
M204 P1500
G1 X121.998 Y74.403 F10800
M204 P1000
G1 X122.162 Y74.497
G1 F1200
G1 X122.267 Y74.314 E0.00664
G1 X123.872 Y72.213 E0.0829
G1 X124.709 Y71.372 E0.0372
G1 X126.803 Y69.758 E0.0829
G1 X127.829 Y69.162 E0.0372
G1 X130.268 Y68.146 E0.08286
G1 X131.411 Y67.836 E0.03712
G1 X135.257 Y67.319 E0.12167
G1 X137.627 Y68.036 E0.07763
G1 X138.974 Y67.478 E0.04573
G1 X151.865 Y67.478 E0.40419
G1 X155.192 Y68.856 E0.11288
G1 X157.848 Y71.512 E0.11778
G1 X159.226 Y74.838 E0.11288
G1 X159.226 Y90.005 E0.47554
G1 X159.141 Y90.877 E0.02748
G1 X158.764 Y92.798 E0.06137
G1 X158.11 Y94.412 E0.0546
G1 X156.812 Y96.404 E0.07454
G1 X155.567 Y97.68 E0.0559
G1 X153.587 Y99.036 E0.07525
G1 X152.299 Y99.587 E0.04391
G1 X152.299 Y118.146 E0.58191
G1 X152.26 Y118.736 E0.01855
G1 X151.612 Y123.671 E0.15605
G1 X151.306 Y124.814 E0.03711
G1 X149.3 Y129.669 E0.16471
G1 X148.707 Y130.697 E0.0372
G1 X145.512 Y134.868 E0.16475
G1 X144.674 Y135.708 E0.0372
G1 X140.508 Y138.91 E0.16475
G1 X139.481 Y139.504 E0.0372
G1 X134.628 Y141.518 E0.16475
G1 X133.482 Y141.826 E0.0372
G1 X128.533 Y142.482 E0.15654
G1 X127.939 Y142.521 E0.01868
G1 X117.735 Y142.522 E0.31991
G1 X114.409 Y141.144 E0.1129
G1 X111.752 Y138.488 E0.11779
G1 X110.374 Y135.162 E0.11288
G1 X110.374 Y127.922 E0.227
M73 P2 R75
G1 X99.633 Y127.922 E0.3368
G1 X96.304 Y126.541 E0.113
M73 Q2 S76
G1 X93.647 Y123.88 E0.1179
G1 X92.272 Y120.549 E0.113
G1 X92.282 Y113.593 E0.21812
G1 X93.663 Y110.271 E0.11277
G1 X96.318 Y107.62 E0.11766
G1 X99.642 Y106.245 E0.11277
G1 X120.022 Y106.245 E0.63902
G1 X120.022 Y81.855 E0.76474
G1 X120.061 Y81.266 E0.0185
G1 X120.368 Y78.923 E0.0741
G1 X120.671 Y77.784 E0.03696
G1 X121.676 Y75.342 E0.08278
G1 X122.132 Y74.549 E0.02868
M204 P1500
G1 X122.295 Y74.643 F10800
M204 P1000
G1 X122.459 Y74.737
G1 F1200
G1 X122.582 Y74.523 E0.00774
G1 X124.157 Y72.461 E0.08135
G1 X124.959 Y71.655 E0.03565
G1 X127.014 Y70.072 E0.08135
G1 X127.997 Y69.501 E0.03565
G1 X130.391 Y68.503 E0.08131
G1 X131.486 Y68.207 E0.03557
G1 X135.226 Y67.704 E0.11833
G1 X137.647 Y68.436 E0.07929
G1 X139.049 Y67.855 E0.0476
G1 X151.79 Y67.855 E0.39948
G1 X154.978 Y69.176 E0.10818
G1 X157.528 Y71.726 E0.11308
G1 X158.848 Y74.913 E0.10818
G1 X158.848 Y89.987 E0.47261
G1 X158.767 Y90.823 E0.02633
G1 X158.401 Y92.69 E0.05966
G1 X157.774 Y94.236 E0.05233
G1 X156.517 Y96.167 E0.07224
G1 X155.323 Y97.39 E0.05357
G1 X153.404 Y98.704 E0.07292
G1 X151.922 Y99.338 E0.05055
G1 X151.922 Y118.134 E0.58932
M73 Q2 S75
G1 X151.885 Y118.699 E0.01778
G1 X151.241 Y123.597 E0.15489
G1 X150.948 Y124.693 E0.03557
G1 X148.961 Y129.502 E0.16316
G1 X148.393 Y130.487 E0.03565
G1 X145.228 Y134.619 E0.1632
G1 X144.424 Y135.424 E0.03565
G1 X140.298 Y138.596 E0.1632
G1 X139.313 Y139.165 E0.03565
G1 X134.506 Y141.161 E0.1632
G1 X133.408 Y141.456 E0.03565
G1 X128.496 Y142.106 E0.15537
G1 X127.926 Y142.144 E0.0179
G1 X117.81 Y142.145 E0.31717
G1 X114.622 Y140.825 E0.10819
G1 X112.072 Y138.274 E0.11308
G1 X110.752 Y135.087 E0.10818
G1 X110.752 Y127.545 E0.23647
G1 X99.708 Y127.545 E0.34627
G1 X96.518 Y126.222 E0.10829
M73 P2 R74
G1 X93.967 Y123.667 E0.11319
G1 X92.649 Y120.475 E0.10829
G1 X92.659 Y113.668 E0.21341
G1 X93.982 Y110.485 E0.10807
G1 X96.532 Y107.94 E0.11296
G1 X99.717 Y106.622 E0.10807
G1 X120.119 Y106.622 E0.63971
G1 X120.367 Y106.589 E0.00783
G1 X120.399 Y106.342 E0.00783
G1 X120.399 Y81.867 E0.76739
G1 X120.436 Y81.303 E0.01773
G1 X120.739 Y78.996 E0.07294
G1 X121.029 Y77.905 E0.03542
G1 X122.016 Y75.509 E0.08123
G1 X122.429 Y74.789 E0.02602
M204 P1500
G1 X122.592 Y74.883 F10800
M204 P1000
G1 X122.756 Y74.977
G1 F1200
G1 X122.896 Y74.732 E0.00885
G1 X124.441 Y72.71 E0.0798
G1 X125.209 Y71.939 E0.0341
G1 X127.224 Y70.385 E0.0798
G1 X128.165 Y69.839 E0.0341
G1 X130.513 Y68.861 E0.07976
G1 X131.56 Y68.577 E0.03403
G1 X135.195 Y68.089 E0.11499
G1 X137.667 Y68.836 E0.08095
G1 X139.124 Y68.232 E0.04947
G1 X151.715 Y68.232 E0.39478
G1 X154.764 Y69.495 E0.10348
G1 X157.208 Y71.939 E0.10837
G1 X158.471 Y74.988 E0.10348
G1 X158.471 Y89.968 E0.46969
G1 X158.394 Y90.768 E0.02519
G1 X158.038 Y92.582 E0.05795
