; generated by SuperSlicer 2.3.57 on 2022-03-07 at 12:59:33 UTC

; 

; external perimeters extrusion width = 0.45mm
; perimeters extrusion width = 0.45mm
; infill extrusion width = 0.45mm
; solid infill extrusion width = 0.45mm
; top infill extrusion width = 0.40mm
; first layer extrusion width = 0.42mm

; object:{"name":"Blue - Extruder Cable Guide Bracket_1","id":"Blue - Extruder Cable Guide Bracket_1.stl id:0 copy 0","object_center":[115.361678,95.591668,0.000000],"boundingbox_center":[115.361678,95.591668,18.380436],"boundingbox_size":[42.299988,31.148895,36.760872]}
; Total objects to print: 1
M486 T1
; plater:{"center":[115.361678,95.591668,0.000000],"boundingbox_center":[115.361678,95.591668,18.380436],"boundingbox_size":[42.299988,31.148895,36.760872]}

M73 P0 R50
M73 Q0 S51
;TYPE:Custom
M862.3 P "MK3S" ; printer model check
M862.1 P0.4 ; nozzle diameter check
M115 U3.10.0 ; tell printer latest fw version
G90 ; use absolute coordinates
M83 ; extruder relative mode
M104 S255 ; set extruder temp
M140 S100 ; set bed temp
M190 S100 ; wait for bed temp
M109 S255 ; wait for extruder temp
G28 W ; home all without mesh bed level
G80 ; mesh bed leveling
G1 Y-3.0 F1000.0 ; go outside print area
G92 E0.0
G1 X60.0 E9.0 F1000.0 ; intro line
G1 X100.0 E12.5 F1000.0 ; intro line
G92 E0.0
M221 S95

; Don't change E values below. Excessive value can damage the printer.
M907 E430 ; set extruder motor current
M107
G21 ; set units to millimeters
G90 ; use absolute coordinates
M83 ; use relative distances for extrusion
M900 K0.04 ; Filament gcode LA 1.5
M900 K20 ; Filament gcode LA 1.0
;LAYER_CHANGE
;Z:0.2
;HEIGHT:0.2
;BEFORE_LAYER_CHANGE
G92 E0.0
;0.2


M73 Q0 S50
G1 E-0.8 F2100
G1 Z0.4 F10800
;AFTER_LAYER_CHANGE
;0.2
G1 Z0.6
M204 P1500
G1 X93.118 Y82.217
G1 Z0.2
G1 E0.8 F2100
;TYPE:Skirt
;WIDTH:0.45
G1 F1200
G1 X92.568 Y82.956 E0.03117
G1 X92.171 Y83.883 E0.03413
G1 X92.015 Y84.767 E0.03037
G1 X92.01 Y87.176 E0.08157
G1 X92.146 Y88.065 E0.03042
G1 X92.486 Y88.927 E0.03139
G1 X92.87 Y89.529 E0.02417
G1 X109.806 Y110.075 E0.90126
G1 X110.334 Y110.536 E0.02373
G1 X110.878 Y110.78 E0.02017
G1 X111.467 Y110.869 E0.02017
G1 X128.121 Y110.87 E0.56369
G1 X128.668 Y110.798 E0.0187
G1 X129.136 Y110.618 E0.01697
G1 X129.55 Y110.336 E0.01697
G1 X129.888 Y109.971 E0.01685
G1 X130.137 Y109.535 E0.01697
G1 X138.42 Y88.531 E0.76424
G1 X138.69 Y87.483 E0.03666
G1 X138.671 Y84.403 E0.10424
G1 X138.4 Y83.454 E0.0334
G1 X137.917 Y82.588 E0.03359
G1 X133.964 Y78.628 E0.18938
G1 X133.439 Y78.3 E0.02096
G1 X132.72 Y78. E0.02634
G1 X131.588 Y77.814 E0.03886
G1 X99.129 Y77.814 E1.09867
G1 X98.164 Y77.952 E0.03301
G1 X97.226 Y78.331 E0.03425
G1 X96.463 Y78.876 E0.03173
G1 X93.16 Y82.175 E0.15802
; INIT printing object Blue - Extruder Cable Guide Bracket_1.stl id:0 copy 0
;WIPE_START
G1 F8640
M204 P1000
G1 X92.568 Y82.956 E-0.22631
G1 X92.171 Y83.883 E-0.23283
G1 X92.015 Y84.767 E-0.20716
G1 X92.015 Y85.172 E-0.09369
;WIPE_END
G1 E-0.04 F2100
G1 Z0.6 F10800
; printing object Blue - Extruder Cable Guide Bracket_1.stl id:0 copy 0
M486 S0
M204 P1500
G1 X110.349 Y84.096
M204 P1000
G1 X127.537 Y86.017
G1 Z0.2
G1 E0.8 F2100
;TYPE:Internal perimeter
;WIDTH:0.42
G1 F1200
G1 X127.634 Y86.748 E0.02311
G1 X127.916 Y87.429 E0.02312
G1 X128.365 Y88.014 E0.02312
G1 X128.95 Y88.463 E0.02312
G1 X129.631 Y88.745 E0.02312
G1 X130.362 Y88.841 E0.02312
G1 X131.093 Y88.745 E0.02312
G1 X131.774 Y88.463 E0.02312
G1 X132.359 Y88.014 E0.02312
G1 X132.807 Y87.429 E0.02311
G1 X133.09 Y86.748 E0.02312
G1 X133.186 Y86.017 E0.02312
G1 X133.09 Y85.286 E0.02312
G1 X132.807 Y84.605 E0.02312
G1 X132.359 Y84.02 E0.02312
G1 X131.774 Y83.571 E0.02312
G1 X131.093 Y83.289 E0.02312
G1 X130.362 Y83.193 E0.02312
G1 X129.631 Y83.289 E0.02312
G1 X128.948 Y83.572 E0.02317
G1 X128.361 Y84.025 E0.02326
G1 X127.916 Y84.605 E0.02291
G1 X127.634 Y85.286 E0.02312
G1 X127.545 Y85.958 E0.02123
M204 P1500
G1 X127.732 Y85.982 F10800
M204 P1000
G1 X127.919 Y86.007
G1 F1200
G1 X128.001 Y86.65 E0.02032
G1 X128.245 Y87.239 E0.02
G1 X128.634 Y87.745 E0.02
G1 X129.14 Y88.134 E0.02
G1 X129.729 Y88.378 E0.02
G1 X130.362 Y88.461 E0.02
G1 X130.994 Y88.378 E0.02
G1 X131.584 Y88.134 E0.02
G1 X132.09 Y87.745 E0.02
G1 X132.478 Y87.239 E0.02
G1 X132.722 Y86.65 E0.02
G1 X132.806 Y86.017 E0.02
G1 X132.722 Y85.385 E0.02
G1 X132.478 Y84.795 E0.02
G1 X132.09 Y84.289 E0.02
G1 X131.584 Y83.901 E0.02
G1 X130.994 Y83.657 E0.02
G1 X130.362 Y83.573 E0.02
G1 X129.729 Y83.657 E0.02
G1 X129.139 Y83.901 E0.02004
G1 X128.63 Y84.294 E0.02015
G1 X128.245 Y84.795 E0.01982
G1 X128.001 Y85.385 E0.02
G1 X127.927 Y85.947 E0.0178
M204 P1500
G1 X128.114 Y85.972 F10800
M204 P1000
G1 X128.301 Y85.997
;TYPE:External perimeter
G1 F1200
G1 X128.298 Y86.017 E0.00065
G1 X128.368 Y86.551 E0.01689
G1 X128.575 Y87.049 E0.01689
G1 X128.902 Y87.476 E0.01689
G1 X129.33 Y87.804 E0.01689
G1 X129.828 Y88.01 E0.01689
G1 X130.362 Y88.081 E0.01689
G1 X130.896 Y88.01 E0.01689
G1 X131.393 Y87.804 E0.01689
G1 X131.821 Y87.476 E0.01689
G1 X132.149 Y87.049 E0.01689
G1 X132.355 Y86.551 E0.01689
G1 X132.425 Y86.017 E0.01689
G1 X132.355 Y85.483 E0.01689
G1 X132.149 Y84.985 E0.01689
G1 X131.821 Y84.558 E0.01689
G1 X131.393 Y84.23 E0.01689
G1 X130.896 Y84.024 E0.01689
G1 X130.362 Y83.954 E0.01689
G1 X129.828 Y84.024 E0.01689
G1 X129.329 Y84.23 E0.01691
G1 X128.899 Y84.562 E0.01704
G1 X128.575 Y84.985 E0.01672
G1 X128.368 Y85.483 E0.01689
G1 X128.309 Y85.937 E0.01436
G1 X128.282 Y86.005 F10800
;WIPE_START
G1 F8640
G1 X128.298 Y86.017 E-0.01864
G1 X128.368 Y86.551 E-0.12438
G1 X128.575 Y87.049 E-0.12438
G1 X128.902 Y87.476 E-0.12438
G1 X129.33 Y87.804 E-0.12439
G1 X129.828 Y88.01 E-0.12439
G1 X130.34 Y88.078 E-0.11943
;WIPE_END
G1 E-0.04 F2100
G1 Z0.6 F10800
M204 P1500
G1 X115.747 Y85.977
M204 P1000
G1 X103.186 Y86.017
G1 Z0.2
G1 E0.8 F2100
;TYPE:Internal perimeter
G1 F1200
G1 X103.09 Y85.286 E0.02312
G1 X102.807 Y84.605 E0.02312
G1 X102.359 Y84.02 E0.02312
G1 X101.774 Y83.571 E0.02312
G1 X101.093 Y83.289 E0.02312
G1 X100.362 Y83.193 E0.02312
G1 X99.631 Y83.289 E0.02312
G1 X98.95 Y83.571 E0.02312
G1 X98.365 Y84.02 E0.02312
G1 X97.916 Y84.605 E0.02312
G1 X97.634 Y85.286 E0.02312
G1 X97.537 Y86.017 E0.02311
G1 X97.634 Y86.748 E0.02311
G1 X97.916 Y87.429 E0.02312
G1 X98.365 Y88.014 E0.02312
G1 X98.95 Y88.463 E0.02312
G1 X99.631 Y88.745 E0.02312
G1 X100.362 Y88.841 E0.02312
G1 X101.093 Y88.745 E0.02312
G1 X101.774 Y88.463 E0.02312
G1 X102.359 Y88.014 E0.02312
G1 X102.807 Y87.429 E0.02311
G1 X103.09 Y86.748 E0.02312
G1 X103.178 Y86.077 E0.02124
M204 P1500
G1 X102.991 Y86.052 F10800
M204 P1000
G1 X102.804 Y86.027
G1 F1200
G1 X102.722 Y85.385 E0.02032
G1 X102.478 Y84.795 E0.02
G1 X102.09 Y84.289 E0.02
G1 X101.584 Y83.901 E0.02
G1 X100.994 Y83.657 E0.02
G1 X100.362 Y83.573 E0.02
G1 X99.729 Y83.657 E0.02
G1 X99.14 Y83.901 E0.02
G1 X98.634 Y84.289 E0.02
G1 X98.245 Y84.795 E0.02
G1 X98.001 Y85.385 E0.02
G1 X97.918 Y86.017 E0.02
G1 X98.001 Y86.65 E0.02
G1 X98.245 Y87.239 E0.02
G1 X98.634 Y87.745 E0.02
G1 X99.14 Y88.134 E0.02
G1 X99.729 Y88.378 E0.02
G1 X100.362 Y88.461 E0.02
G1 X100.994 Y88.378 E0.02
G1 X101.584 Y88.134 E0.02
G1 X102.09 Y87.745 E0.02
G1 X102.478 Y87.239 E0.02
G1 X102.722 Y86.65 E0.02
G1 X102.796 Y86.087 E0.0178
M204 P1500
G1 X102.609 Y86.062 F10800
M204 P1000
G1 X102.423 Y86.038
;TYPE:External perimeter
G1 F1200
G1 X102.425 Y86.017 E0.00065
G1 X102.355 Y85.483 E0.01689
G1 X102.149 Y84.985 E0.01689
G1 X101.821 Y84.558 E0.01689
G1 X101.393 Y84.23 E0.01689
G1 X100.896 Y84.024 E0.01689
G1 X100.362 Y83.954 E0.01689
G1 X99.828 Y84.024 E0.01689
G1 X99.33 Y84.23 E0.01689
G1 X98.902 Y84.558 E0.01689
G1 X98.575 Y84.985 E0.01689
G1 X98.368 Y85.483 E0.01689
G1 X98.298 Y86.017 E0.01689
G1 X98.368 Y86.551 E0.01689
G1 X98.575 Y87.049 E0.01689
G1 X98.902 Y87.476 E0.01689
G1 X99.33 Y87.804 E0.01689
G1 X99.828 Y88.01 E0.01689
G1 X100.362 Y88.081 E0.01689
G1 X100.896 Y88.01 E0.01689
G1 X101.393 Y87.804 E0.01689
G1 X101.821 Y87.476 E0.01689
G1 X102.149 Y87.049 E0.01689
G1 X102.355 Y86.551 E0.01689
G1 X102.415 Y86.097 E0.01436
G1 X102.442 Y86.03 F10800
;WIPE_START
G1 F8640
G1 X102.425 Y86.017 E-0.01864
G1 X102.355 Y85.483 E-0.12438
G1 X102.149 Y84.985 E-0.12439
G1 X101.821 Y84.558 E-0.12439
G1 X101.393 Y84.23 E-0.12438
G1 X100.896 Y84.024 E-0.12439
G1 X100.383 Y83.956 E-0.11943
;WIPE_END
G1 E-0.04 F2100
G1 Z0.6 F10800
M204 P1500
G1 X102.415 Y83.639
M204 P1000
G1 X102.415 Y81.181
G1 Z0.2
G1 E0.8 F2100
;TYPE:Internal perimeter
G1 F1200
G1 X131.534 Y81.181 E0.91303
G1 X131.576 Y81.185 E0.00131
G1 X131.808 Y81.252 E0.00758
G1 X131.882 Y81.288 E0.00256
G1 X131.948 Y81.33 E0.00246
G1 X132.003 Y81.375 E0.00222
G1 X135.153 Y84.527 E0.13973
G1 X135.18 Y84.559 E0.00131
G1 X135.284 Y84.747 E0.00674
G1 X135.344 Y84.954 E0.00674
G1 X135.348 Y84.996 E0.00131
G1 X135.348 Y87.039 E0.06406
G1 X135.344 Y87.08 E0.00131
G1 X135.276 Y87.313 E0.00759
G1 X135.241 Y87.387 E0.00257
G1 X135.199 Y87.453 E0.00246
G1 X135.153 Y87.507 E0.00222
G1 X126.948 Y95.712 E0.36383
G1 X126.948 Y107.102 E0.35711
G1 X112.664 Y107.102 E0.44787
G1 X112.664 Y100.118 E0.21897
G1 X112.498 Y98.855 E0.03994
G1 X111.981 Y97.607 E0.04235
G1 X111.159 Y96.536 E0.04235
G1 X110.087 Y95.714 E0.04235
G1 X108.839 Y95.197 E0.04235
G1 X107.576 Y95.03 E0.03994
G1 X104.074 Y95.03 E0.10981
G1 X103.804 Y95.007 E0.00852
G1 X103.507 Y94.94 E0.00955
G1 X103.178 Y94.824 E0.01092
G1 X102.864 Y94.674 E0.01092
G1 X102.607 Y94.511 E0.00955
G1 X102.399 Y94.336 E0.00852
G1 X95.57 Y87.507 E0.30282
G1 X95.524 Y87.453 E0.00222
G1 X95.482 Y87.387 E0.00246
G1 X95.447 Y87.313 E0.00257
G1 X95.379 Y87.081 E0.00758
G1 X95.376 Y87.039 E0.00131
G1 X95.376 Y84.996 E0.06407
G1 X95.379 Y84.954 E0.00131
G1 X95.439 Y84.748 E0.00674
G1 X95.543 Y84.559 E0.00674
G1 X95.57 Y84.527 E0.00131
G1 X98.722 Y81.375 E0.13976
G1 X98.776 Y81.33 E0.00223
G1 X98.842 Y81.288 E0.00246
G1 X98.916 Y81.252 E0.00257
G1 X99.148 Y81.185 E0.00759
G1 X99.19 Y81.181 E0.00131
G1 X102.355 Y81.181 E0.09923
M204 P1500
G1 X102.355 Y80.993 F10800
M204 P1000
G1 X102.355 Y80.804
G1 F1200
G1 X131.55 Y80.804 E0.91541
G1 X131.645 Y80.812 E0.00299
G1 X131.943 Y80.899 E0.00973
G1 X132.065 Y80.957 E0.00422
G1 X132.172 Y81.025 E0.00396
G1 X132.258 Y81.097 E0.00354
G1 X135.431 Y84.272 E0.14074
G1 X135.493 Y84.345 E0.00299
G1 X135.634 Y84.602 E0.00922
G1 X135.717 Y84.885 E0.00922
G1 X135.725 Y84.98 E0.00299
G1 X135.725 Y87.055 E0.06507
G1 X135.717 Y87.15 E0.00299
G1 X135.63 Y87.448 E0.00973
G1 X135.572 Y87.569 E0.00422
G1 X135.504 Y87.676 E0.00396
G1 X135.431 Y87.763 E0.00354
G1 X127.325 Y95.869 E0.35943
G1 X127.325 Y107.479 E0.36404
G1 X112.287 Y107.479 E0.47151
M73 Q1 S50
G1 X112.287 Y100.143 E0.23002
M73 P1 R50
G1 X112.131 Y98.954 E0.03761
G1 X111.652 Y97.798 E0.03924
G1 X110.89 Y96.805 E0.03924
G1 X109.897 Y96.043 E0.03924
G1 X108.741 Y95.564 E0.03924
G1 X107.552 Y95.407 E0.03761
G1 X104.058 Y95.407 E0.10953
G1 X103.746 Y95.381 E0.00984
G1 X103.402 Y95.303 E0.01105
G1 X103.034 Y95.173 E0.01225
G1 X102.682 Y95.005 E0.01225
G1 X102.384 Y94.817 E0.01105
G1 X102.144 Y94.614 E0.00984
G1 X95.292 Y87.763 E0.30382
G1 X95.219 Y87.676 E0.00354
G1 X95.152 Y87.569 E0.00396
G1 X95.093 Y87.448 E0.00423
G1 X95.007 Y87.15 E0.00973
G1 X94.999 Y87.055 E0.00299
G1 X94.999 Y84.98 E0.06507
G1 X95.007 Y84.885 E0.00299
G1 X95.089 Y84.602 E0.00922
G1 X95.23 Y84.345 E0.00922
G1 X95.292 Y84.272 E0.00299
G1 X98.466 Y81.097 E0.14076
G1 X98.553 Y81.025 E0.00354
G1 X98.66 Y80.957 E0.00396
G1 X98.781 Y80.899 E0.00422
G1 X99.079 Y80.812 E0.00973
G1 X99.174 Y80.804 E0.00299
G1 X102.295 Y80.804 E0.09785
M204 P1500
G1 X102.295 Y80.616 F10800
M204 P1000
G1 X102.295 Y80.427
;TYPE:External perimeter
G1 F1200
G1 X131.567 Y80.427 E0.9178
G1 X131.715 Y80.44 E0.00466
G1 X132.078 Y80.546 E0.01188
G1 X132.248 Y80.627 E0.00588
G1 X132.395 Y80.72 E0.00546
G1 X132.513 Y80.819 E0.00486
G1 X135.709 Y84.016 E0.14174
G1 X135.805 Y84.13 E0.00466
G1 X135.985 Y84.457 E0.0117
G1 X136.089 Y84.815 E0.0117
G1 X136.102 Y84.964 E0.00466
G1 X136.102 Y87.071 E0.06607
G1 X136.089 Y87.219 E0.00466
G1 X135.983 Y87.583 E0.01188
G1 X135.902 Y87.752 E0.00588
G1 X135.809 Y87.899 E0.00546
G1 X135.709 Y88.018 E0.00486
G1 X127.703 Y96.025 E0.35504
G1 X127.703 Y107.856 E0.37096
G1 X111.91 Y107.856 E0.49516
G1 X111.91 Y100.168 E0.24106
G1 X111.763 Y99.052 E0.03528
G1 X111.322 Y97.988 E0.03613
G1 X110.621 Y97.074 E0.03612
G1 X109.707 Y96.372 E0.03613
G1 X108.643 Y95.931 E0.03613
G1 X107.527 Y95.785 E0.03528
G1 X104.042 Y95.785 E0.10926
G1 X103.688 Y95.754 E0.01116
G1 X103.298 Y95.666 E0.01255
G1 X102.889 Y95.522 E0.01357
G1 X102.499 Y95.335 E0.01357
G1 X102.16 Y95.122 E0.01255
G1 X101.888 Y94.892 E0.01116
G1 X95.014 Y88.018 E0.30482
G1 X94.914 Y87.899 E0.00486
G1 X94.821 Y87.752 E0.00546
G1 X94.74 Y87.583 E0.00588
G1 X94.634 Y87.219 E0.01188
G1 X94.622 Y87.071 E0.00466
G1 X94.622 Y84.964 E0.06608
G1 X94.634 Y84.815 E0.00466
G1 X94.738 Y84.457 E0.01169
G1 X94.918 Y84.13 E0.0117
G1 X95.014 Y84.017 E0.00466
G1 X98.211 Y80.819 E0.14177
G1 X98.33 Y80.72 E0.00486
G1 X98.477 Y80.627 E0.00546
G1 X98.646 Y80.546 E0.00588
G1 X99.01 Y80.44 E0.01188
G1 X99.158 Y80.427 E0.00466
G1 X102.235 Y80.427 E0.09647
G1 X102.495 Y80.774 F10800
;WIPE_START
G1 F8640
G1 X105.526 Y80.427 E-0.76
;WIPE_END
G1 E-0.04 F2100
G1 Z0.6 F10800
M204 P1500
G1 X116.88 Y80.863
M204 P1000
G1 X131.525 Y81.298
G1 Z0.2
G1 E0.8 F2100
;TYPE:Solid infill
;WIDTH:0.422152
G1 F1200
G1 X134.964 Y84.737 E0.15326
G1 X135.026 Y84.85 E0.00406
G1 X135.072 Y85.03 E0.00588
G1 X135.072 Y85.378 E0.01095
G1 X131.154 Y81.46 E0.1746
G1 X130.621 Y81.46 E0.01681
G1 X135.071 Y85.91 E0.19832
G1 X135.07 Y86.442 E0.01678
G1 X130.088 Y81.46 E0.22205
G1 X129.554 Y81.46 E0.01681
G1 X131.108 Y83.014 E0.06923
G1 X130.494 Y82.933 E0.01952
G1 X129.021 Y81.46 E0.06563
G1 X128.488 Y81.46 E0.01681
G1 X129.992 Y82.964 E0.06703
G1 X129.559 Y83.021 E0.01376
G1 X129.528 Y83.034 E0.00105
G1 X127.955 Y81.46 E0.07013
G1 X127.421 Y81.46 E0.01681
G1 X129.151 Y83.19 E0.0771
G1 X128.809 Y83.332 E0.01168
G1 X128.781 Y83.353 E0.0011
G1 X126.888 Y81.46 E0.08437
G1 X126.355 Y81.46 E0.01681
G1 X128.48 Y83.586 E0.09472
G1 X128.179 Y83.818 E0.01198
G1 X125.821 Y81.46 E0.10508
G1 X125.288 Y81.46 E0.01681
G1 X127.944 Y84.116 E0.11837
G1 X127.713 Y84.418 E0.01199
G1 X124.755 Y81.46 E0.13182
G1 X124.222 Y81.46 E0.01681
G1 X127.544 Y84.783 E0.14809
G1 X127.388 Y85.16 E0.01286
G1 X123.688 Y81.46 E0.16489
G1 X123.155 Y81.46 E0.01681
G1 X127.312 Y85.618 E0.18529
G1 X127.26 Y86.017 E0.0127
G1 X127.272 Y86.11 E0.00296
G1 X122.622 Y81.46 E0.20726
G1 X122.089 Y81.46 E0.01681
G1 X127.607 Y86.978 E0.24593
;WIPE_START
G1 F8640
G1 X125.279 Y84.651 E-0.76
;WIPE_END
G1 E-0.04 F2100
G1 Z0.6 F10800
M204 P1500
G1 X130.35 Y85.988
M204 P1000
G1 X133.093 Y84.999
G1 Z0.2
G1 E0.8 F2100
G1 F1200
G1 X135.069 Y86.975 E0.08806
G1 X135.069 Y87.041 E0.00209
G1 X135.023 Y87.199 E0.00517
G1 X134.937 Y87.334 E0.00506
G1 X134.916 Y87.355 E0.00094
G1 X133.446 Y85.885 E0.06552
G1 X133.463 Y86.017 E0.0042
G1 X133.415 Y86.387 E0.01176
G1 X134.65 Y87.622 E0.05503
G1 X134.383 Y87.889 E0.01188
G1 X133.345 Y86.851 E0.04625
G1 X133.189 Y87.228 E0.01286
G1 X134.116 Y88.155 E0.04133
G1 X133.85 Y88.422 E0.01188
G1 X133.025 Y87.598 E0.03674
G1 X132.794 Y87.899 E0.01199
G1 X133.583 Y88.688 E0.03517
G1 X133.316 Y88.955 E0.01188
G1 X132.562 Y88.201 E0.03361
G1 X132.263 Y88.435 E0.01197
G1 X133.05 Y89.222 E0.03507
G1 X132.783 Y89.488 E0.01188
G1 X131.961 Y88.666 E0.03664
G1 X131.913 Y88.703 E0.00193
G1 X131.596 Y88.835 E0.0108
G1 X132.516 Y89.755 E0.04102
G1 X132.25 Y90.022 E0.01188
G1 X131.219 Y88.991 E0.04594
G1 X131.164 Y89.013 E0.00186
G1 X130.761 Y89.066 E0.01281
G1 X131.983 Y90.288 E0.05446
G1 X131.717 Y90.555 E0.01188
G1 X130.268 Y89.107 E0.06454
G1 X129.654 Y89.026 E0.01952
G1 X131.45 Y90.822 E0.08003
G1 X131.183 Y91.088 E0.01188
G1 X121.555 Y81.46 E0.42911
G1 X121.022 Y81.46 E0.01681
G1 X130.917 Y91.355 E0.44099
G1 X130.65 Y91.621 E0.01188
G1 X120.489 Y81.46 E0.45288
G1 X119.956 Y81.46 E0.01681
G1 X130.383 Y91.888 E0.46476
G1 X130.117 Y92.155 E0.01188
G1 X119.422 Y81.46 E0.47664
G1 X118.889 Y81.46 E0.01681
