; generated by SuperSlicer 2.3.57 on 2022-03-07 at 18:39:10 UTC

; 

; external perimeters extrusion width = 0.45mm
; perimeters extrusion width = 0.45mm
; infill extrusion width = 0.45mm
; solid infill extrusion width = 0.45mm
; top infill extrusion width = 0.40mm
; first layer extrusion width = 0.42mm

; object:{"name":"Black - PSU DIN Clip (L)_1","id":"Black - PSU DIN Clip (L)_1.stl id:0 copy 0","object_center":[125.000000,88.703560,0.000000],"boundingbox_center":[125.000000,88.703560,3.799999],"boundingbox_size":[59.185760,26.592896,7.599998]}
; object:{"name":"Black - PSU DIN Clip (R)_1","id":"Black - PSU DIN Clip (R)_1.stl id:1 copy 0","object_center":[125.000000,121.296447,0.000000],"boundingbox_center":[125.000000,121.296447,3.799999],"boundingbox_size":[59.185760,26.592880,7.599998]}
; Total objects to print: 2
M486 T2
; plater:{"center":[125.000000,105.000000,0.000000],"boundingbox_center":[125.000000,105.000000,3.799999],"boundingbox_size":[59.185760,59.185775,7.599998]}

M73 P0 R65
M73 Q0 S65
;TYPE:Custom
M862.3 P "MK3S" ; printer model check
M862.1 P0.4 ; nozzle diameter check
M115 U3.10.0 ; tell printer latest fw version
G90 ; use absolute coordinates
M83 ; extruder relative mode
M104 S255 ; set extruder temp
M140 S100 ; set bed temp
M190 S100 ; wait for bed temp
M109 S255 ; wait for extruder temp
G28 W ; home all without mesh bed level
G80 ; mesh bed leveling
G1 Y-3.0 F1000.0 ; go outside print area
G92 E0.0
G1 X60.0 E9.0 F1000.0 ; intro line
G1 X100.0 E12.5 F1000.0 ; intro line
G92 E0.0
M221 S95

; Don't change E values below. Excessive value can damage the printer.
M907 E430 ; set extruder motor current
M107
G21 ; set units to millimeters
G90 ; use absolute coordinates
M83 ; use relative distances for extrusion
M900 K0.04 ; Filament gcode LA 1.5
M900 K20 ; Filament gcode LA 1.0
;LAYER_CHANGE
;Z:0.2
;HEIGHT:0.2
;BEFORE_LAYER_CHANGE
G92 E0.0
;0.2


G1 E-0.8 F2100
G1 Z0.4 F10800
;AFTER_LAYER_CHANGE
;0.2
G1 Z0.6
M204 P1500
G1 X94.03 Y72.279
G1 Z0.2
G1 E0.8 F2100
;TYPE:Skirt
;WIDTH:0.42
G1 F1200
G1 X94.727 Y71.578 E0.031
G1 X96.582 Y70.147 E0.07345
G1 X97.437 Y69.651 E0.031
G1 X99.599 Y68.749 E0.07345
G1 X100.554 Y68.491 E0.031
G1 X102.642 Y68.211 E0.06606
G1 X103.143 Y68.178 E0.01576
G1 X146.852 Y68.178 E1.37046
M73 P0 R64
G1 X147.345 Y68.21 E0.01548
G1 X148.031 Y68.3 E0.02171
G1 X149.4 Y68.481 E0.04329
G1 X150.347 Y68.733 E0.03072
G1 X152.509 Y69.623 E0.07331
G1 X153.367 Y70.115 E0.031
G1 X155.229 Y71.537 E0.07345
G1 X155.929 Y72.234 E0.031
G1 X157.36 Y74.089 E0.07345
G1 X157.856 Y74.944 E0.031
G1 X158.758 Y77.106 E0.07345
G1 X159.016 Y78.061 E0.031
G1 X159.296 Y80.148 E0.06603
G1 X159.329 Y80.648 E0.01571
G1 X159.33 Y82.776 E0.06672
G1 X159.365 Y83.783 E0.0316
G1 X159.455 Y84.656 E0.0275
G1 X159.627 Y85.647 E0.03156
G1 X161.629 Y95.219 E0.30661
G1 X161.698 Y95.705 E0.0154
G1 X161.838 Y97.55 E0.058
G1 X161.785 Y98.529 E0.03074
G1 X161.401 Y100.597 E0.06596
G1 X161.095 Y101.537 E0.031
G1 X160.187 Y103.439 E0.06608
G1 X159.648 Y104.268 E0.031
G1 X159.023 Y104.999 E0.03017
G1 X159.608 Y105.677 E0.02807
G1 X160.152 Y106.502 E0.031
G1 X161.071 Y108.399 E0.06609
G1 X161.382 Y109.337 E0.031
G1 X161.779 Y111.407 E0.06609
G1 X161.837 Y112.394 E0.031
G1 X161.702 Y114.262 E0.05871
G1 X161.632 Y114.761 E0.01581
G1 X159.627 Y124.352 E0.30721
G1 X159.455 Y125.344 E0.03157
G1 X159.365 Y126.217 E0.0275
G1 X159.33 Y127.222 E0.03155
G1 X159.33 Y129.332 E0.06614
G1 X159.298 Y129.822 E0.01541
G1 X159.027 Y131.89 E0.06539
G1 X158.774 Y132.839 E0.03079
G1 X157.884 Y135.002 E0.07335
G1 X157.392 Y135.859 E0.031
G1 X155.97 Y137.721 E0.07345
G1 X155.273 Y138.422 E0.031
G1 X153.418 Y139.853 E0.07345
G1 X152.563 Y140.349 E0.031
G1 X150.401 Y141.251 E0.07345
G1 X149.446 Y141.509 E0.031
G1 X147.358 Y141.789 E0.06606
G1 X146.857 Y141.822 E0.01576
G1 X103.161 Y141.823 E1.37004
G1 X102.671 Y141.791 E0.01541
G1 X100.603 Y141.52 E0.06539
G1 X99.654 Y141.267 E0.03079
G1 X97.491 Y140.377 E0.07335
G1 X96.633 Y139.885 E0.031
G1 X94.771 Y138.463 E0.07345
G1 X94.071 Y137.766 E0.031
G1 X92.64 Y135.911 E0.07345
G1 X92.144 Y135.056 E0.031
G1 X91.242 Y132.894 E0.07345
G1 X90.984 Y131.939 E0.031
G1 X90.704 Y129.852 E0.06603
G1 X90.671 Y129.352 E0.01571
G1 X90.67 Y127.224 E0.06672
G1 X90.635 Y126.217 E0.0316
G1 X90.545 Y125.344 E0.0275
G1 X90.373 Y124.353 E0.03156
G1 X88.371 Y114.781 E0.30661
G1 X88.302 Y114.295 E0.0154
G1 X88.162 Y112.45 E0.058
G1 X88.215 Y111.471 E0.03074
G1 X88.599 Y109.403 E0.06596
G1 X88.905 Y108.463 E0.031
G1 X89.813 Y106.561 E0.06609
G1 X90.352 Y105.732 E0.031
G1 X90.977 Y105.001 E0.03017
G1 X90.392 Y104.323 E0.02807
G1 X89.848 Y103.498 E0.031
G1 X88.929 Y101.601 E0.06608
G1 X88.618 Y100.663 E0.031
G1 X88.221 Y98.593 E0.06609
G1 X88.163 Y97.606 E0.031
G1 X88.298 Y95.738 E0.05871
G1 X88.368 Y95.239 E0.01581
G1 X90.373 Y85.648 E0.30721
G1 X90.545 Y84.656 E0.03157
G1 X90.635 Y83.783 E0.0275
G1 X90.67 Y82.778 E0.03156
G1 X90.67 Y80.668 E0.06614
G1 X90.702 Y80.178 E0.01541
G1 X90.973 Y78.11 E0.06539
G1 X91.226 Y77.161 E0.03078
G1 X92.116 Y74.998 E0.07335
G1 X92.608 Y74.141 E0.031
G1 X93.993 Y72.326 E0.07157
G1 X94.143 Y72.441 F10800
M204 P1000
G1 X94.293 Y72.555
G1 F1200
G1 X94.314 Y72.527 E0.00111
G1 X94.977 Y71.861 E0.02945
G1 X96.793 Y70.461 E0.0719
G1 X97.605 Y69.99 E0.02945
G1 X99.722 Y69.107 E0.0719
G1 X100.628 Y68.862 E0.02945
G1 X102.679 Y68.587 E0.06489
G1 X103.156 Y68.555 E0.01497
G1 X146.84 Y68.555 E1.36968
G1 X147.308 Y68.586 E0.01471
G1 X147.982 Y68.674 E0.02132
G1 X149.327 Y68.851 E0.04253
G1 X150.226 Y69.091 E0.02918
G1 X152.343 Y69.962 E0.07177
G1 X153.157 Y70.43 E0.02945
G1 X154.98 Y71.821 E0.0719
G1 X155.646 Y72.484 E0.02945
G1 X157.046 Y74.3 E0.0719
G1 X157.518 Y75.112 E0.02945
G1 X158.4 Y77.229 E0.0719
G1 X158.645 Y78.135 E0.02945
G1 X158.92 Y80.186 E0.06486
G1 X158.952 Y80.661 E0.01493
G1 X158.953 Y82.783 E0.06653
G1 X158.988 Y83.809 E0.03221
G1 X159.081 Y84.707 E0.02831
G1 X159.257 Y85.718 E0.03217
G1 X161.257 Y95.284 E0.30643
G1 X161.322 Y95.746 E0.01463
G1 X161.46 Y97.554 E0.05684
G1 X161.41 Y98.484 E0.0292
G1 X161.035 Y100.504 E0.06441
G1 X160.744 Y101.397 E0.02945
G1 X159.857 Y103.254 E0.06453
G1 X159.345 Y104.042 E0.02945
G1 X158.525 Y105.001 E0.03956
G1 X159.307 Y105.904 E0.03746
G1 X159.823 Y106.689 E0.02945
G1 X160.721 Y108.541 E0.06454
G1 X161.017 Y109.433 E0.02945
G1 X161.404 Y111.454 E0.06454
G1 X161.459 Y112.392 E0.02945
G1 X161.326 Y114.222 E0.05754
G1 X161.26 Y114.697 E0.01502
G1 X159.257 Y124.281 E0.30702
G1 X159.081 Y125.293 E0.03217
G1 X158.988 Y126.191 E0.02831
G1 X158.953 Y127.216 E0.03216
G1 X158.953 Y129.319 E0.06596
G1 X158.923 Y129.785 E0.01464
G1 X158.656 Y131.817 E0.06424
G1 X158.416 Y132.718 E0.02925
G1 X157.545 Y134.836 E0.0718
G1 X157.077 Y135.65 E0.02945
G1 X155.686 Y137.473 E0.0719
G1 X155.023 Y138.139 E0.02945
G1 X153.207 Y139.539 E0.0719
G1 X152.395 Y140.01 E0.02945
G1 X150.278 Y140.893 E0.0719
G1 X149.372 Y141.138 E0.02945
G1 X147.321 Y141.413 E0.06489
G1 X146.844 Y141.445 E0.01497
G1 X103.174 Y141.446 E1.36926
G1 X102.708 Y141.416 E0.01464
G1 X100.676 Y141.149 E0.06424
G1 X99.775 Y140.909 E0.02925
G1 X97.657 Y140.038 E0.0718
G1 X96.843 Y139.57 E0.02945
G1 X95.02 Y138.179 E0.0719
G1 X94.354 Y137.516 E0.02945
G1 X92.954 Y135.7 E0.0719
G1 X92.482 Y134.888 E0.02945
G1 X91.6 Y132.771 E0.0719
G1 X91.355 Y131.865 E0.02945
G1 X91.08 Y129.814 E0.06486
G1 X91.048 Y129.339 E0.01493
G1 X91.047 Y127.217 E0.06653
G1 X91.012 Y126.191 E0.03221
G1 X90.919 Y125.293 E0.02831
G1 X90.743 Y124.282 E0.03217
G1 X88.743 Y114.716 E0.30643
G1 X88.678 Y114.254 E0.01463
G1 X88.54 Y112.446 E0.05684
G1 X88.59 Y111.516 E0.0292
G1 X88.965 Y109.496 E0.06441
G1 X89.256 Y108.603 E0.02945
G1 X90.143 Y106.746 E0.06454
G1 X90.655 Y105.958 E0.02945
G1 X91.475 Y104.999 E0.03956
G1 X90.693 Y104.095 E0.03746
G1 X90.177 Y103.311 E0.02945
G1 X89.279 Y101.459 E0.06453
G1 X88.983 Y100.567 E0.02945
G1 X88.596 Y98.546 E0.06454
G1 X88.541 Y97.608 E0.02945
G1 X88.674 Y95.778 E0.05754
G1 X88.74 Y95.303 E0.01502
G1 X90.743 Y85.719 E0.30702
G1 X90.919 Y84.707 E0.03217
G1 X91.012 Y83.809 E0.02831
G1 X91.047 Y82.784 E0.03216
G1 X91.047 Y80.681 E0.06596
G1 X91.077 Y80.215 E0.01464
G1 X91.344 Y78.183 E0.06424
G1 X91.584 Y77.282 E0.02925
G1 X92.455 Y75.164 E0.0718
G1 X92.923 Y74.35 E0.02945
G1 X94.256 Y72.603 E0.06891
M204 P1500
G1 X94.406 Y72.717 F10800
M204 P1000
G1 X94.556 Y72.832
G1 F1200
G1 X94.599 Y72.776 E0.00221
G1 X95.227 Y72.145 E0.0279
G1 X97.003 Y70.775 E0.07035
G1 X97.773 Y70.328 E0.0279
G1 X99.844 Y69.464 E0.07035
G1 X100.703 Y69.232 E0.0279
G1 X102.717 Y68.962 E0.06372
G1 X103.168 Y68.932 E0.01419
G1 X146.828 Y68.932 E1.3689
G1 X147.271 Y68.961 E0.01393
G1 X147.933 Y69.048 E0.02094
G1 X149.253 Y69.222 E0.04176
G1 X150.105 Y69.449 E0.02764
G1 X152.177 Y70.301 E0.07023
G1 X152.948 Y70.744 E0.0279
G1 X154.732 Y72.106 E0.07035
G1 X155.362 Y72.734 E0.0279
G1 X156.732 Y74.511 E0.07035
G1 X157.179 Y75.28 E0.0279
G1 X158.043 Y77.351 E0.07035
G1 X158.275 Y78.21 E0.0279
G1 X158.545 Y80.223 E0.0637
G1 X158.575 Y80.673 E0.01414
G1 X158.576 Y82.789 E0.06634
G1 X158.612 Y83.835 E0.03282
G1 X158.707 Y84.759 E0.02912
G1 X158.886 Y85.789 E0.03277
G1 X160.885 Y95.35 E0.30625
G1 X160.947 Y95.787 E0.01386
G1 X161.082 Y97.558 E0.05569
G1 X161.035 Y98.439 E0.02767
G1 X160.668 Y100.411 E0.06287
G1 X160.393 Y101.257 E0.0279
G1 X159.528 Y103.069 E0.06298
G1 X159.043 Y103.815 E0.0279
G1 X158.028 Y105.002 E0.04896
G1 X159.006 Y106.132 E0.04685
G1 X159.495 Y106.876 E0.0279
G1 X160.371 Y108.683 E0.06299
G1 X160.651 Y109.528 E0.0279
M73 P1 R64
G1 X161.029 Y111.501 E0.06299
G1 X161.081 Y112.389 E0.0279
G1 X160.951 Y114.182 E0.05637
G1 X160.888 Y114.632 E0.01423
M73 Q1 S65
G1 X158.886 Y124.211 E0.30683
G1 X158.707 Y125.241 E0.03278
G1 X158.612 Y126.165 E0.02912
G1 X158.576 Y127.209 E0.03277
G1 X158.576 Y129.307 E0.06577
G1 X158.547 Y129.749 E0.01387
G1 X158.286 Y131.743 E0.06308
G1 X158.058 Y132.597 E0.02771
G1 X157.206 Y134.669 E0.07026
G1 X156.763 Y135.441 E0.0279
G1 X155.401 Y137.224 E0.07035
G1 X154.773 Y137.855 E0.0279
G1 X152.997 Y139.225 E0.07035
G1 X152.227 Y139.672 E0.0279
G1 X150.156 Y140.536 E0.07035
G1 X149.297 Y140.768 E0.0279
G1 X147.283 Y141.038 E0.06372
G1 X146.832 Y141.068 E0.01418
G1 X103.186 Y141.069 E1.36848
G1 X102.744 Y141.04 E0.01387
G1 X100.75 Y140.779 E0.06308
G1 X99.896 Y140.551 E0.02771
G1 X97.823 Y139.699 E0.07026
G1 X97.052 Y139.256 E0.0279
G1 X95.268 Y137.894 E0.07035
G1 X94.638 Y137.266 E0.0279
G1 X93.268 Y135.489 E0.07035
G1 X92.821 Y134.72 E0.0279
G1 X91.957 Y132.649 E0.07035
G1 X91.725 Y131.79 E0.0279
G1 X91.455 Y129.777 E0.0637
G1 X91.425 Y129.327 E0.01414
G1 X91.424 Y127.211 E0.06634
G1 X91.388 Y126.165 E0.03282
G1 X91.293 Y125.241 E0.02912
G1 X91.114 Y124.211 E0.03277
G1 X89.115 Y114.65 E0.30625
G1 X89.053 Y114.213 E0.01386
G1 X88.918 Y112.442 E0.05569
G1 X88.965 Y111.561 E0.02767
G1 X89.332 Y109.589 E0.06287
G1 X89.607 Y108.743 E0.0279
G1 X90.472 Y106.931 E0.06299
G1 X90.957 Y106.184 E0.0279
G1 X91.972 Y104.998 E0.04895
G1 X90.994 Y103.867 E0.04685
G1 X90.505 Y103.124 E0.0279
G1 X89.629 Y101.317 E0.06298
G1 X89.349 Y100.472 E0.0279
G1 X88.971 Y98.499 E0.06299
G1 X88.919 Y97.611 E0.0279
G1 X89.049 Y95.818 E0.05637
G1 X89.112 Y95.368 E0.01423
G1 X91.114 Y85.789 E0.30683
G1 X91.293 Y84.759 E0.03278
G1 X91.388 Y83.835 E0.02912
G1 X91.424 Y82.791 E0.03277
G1 X91.424 Y80.693 E0.06577
G1 X91.453 Y80.251 E0.01387
G1 X91.714 Y78.257 E0.06308
G1 X91.942 Y77.403 E0.02771
G1 X92.794 Y75.331 E0.07026
G1 X93.237 Y74.559 E0.0279
G1 X94.52 Y72.879 E0.06626
M204 P1500
G1 X94.67 Y72.994 F10800
M204 P1000
G1 X94.819 Y73.108
G1 F1200
G1 X94.884 Y73.024 E0.00332
G1 X95.476 Y72.428 E0.02635
G1 X97.214 Y71.088 E0.0688
G1 X97.941 Y70.667 E0.02635
G1 X99.966 Y69.822 E0.0688
G1 X100.777 Y69.603 E0.02635
G1 X102.755 Y69.337 E0.06255
G1 X103.181 Y69.309 E0.0134
G1 X146.815 Y69.309 E1.36812
G1 X147.234 Y69.336 E0.01316
G1 X147.884 Y69.422 E0.02055
G1 X149.18 Y69.593 E0.04099
G1 X149.985 Y69.807 E0.02611
G1 X152.01 Y70.641 E0.06868
G1 X152.739 Y71.059 E0.02635
G1 X154.483 Y72.391 E0.0688
G1 X155.079 Y72.984 E0.02635
G1 X156.419 Y74.721 E0.0688
G1 X156.841 Y75.448 E0.02635
G1 X157.685 Y77.473 E0.0688
G1 X157.905 Y78.284 E0.02635
G1 X158.17 Y80.261 E0.06253
G1 X158.198 Y80.686 E0.01336
G1 X158.199 Y82.796 E0.06615
G1 X158.235 Y83.861 E0.03342
G1 X158.334 Y84.811 E0.02994
G1 X158.516 Y85.86 E0.03338
G1 X160.514 Y95.415 E0.30606
G1 X160.572 Y95.828 E0.01309
G1 X160.704 Y97.562 E0.05454
G1 X160.659 Y98.394 E0.02613
G1 X160.302 Y100.317 E0.06133
G1 X160.042 Y101.117 E0.02635
G1 X159.198 Y102.885 E0.06143
G1 X158.74 Y103.589 E0.02635
G1 X157.531 Y105.004 E0.05835
G1 X158.704 Y106.36 E0.05624
G1 X159.166 Y107.062 E0.02635
G1 X160.021 Y108.826 E0.06144
G1 X160.285 Y109.623 E0.02635
G1 X160.654 Y111.548 E0.06144
G1 X160.703 Y112.386 E0.02635
G1 X160.576 Y114.143 E0.0552
G1 X160.517 Y114.567 E0.01344
G1 X158.516 Y124.14 E0.30664
G1 X158.334 Y125.189 E0.03339
G1 X158.235 Y126.139 E0.02994
G1 X158.199 Y127.203 E0.03338
G1 X158.199 Y129.295 E0.06559
G1 X158.172 Y129.712 E0.0131
G1 X157.915 Y131.67 E0.06193
G1 X157.7 Y132.477 E0.02617
G1 X156.866 Y134.503 E0.06871
G1 X156.448 Y135.232 E0.02635
G1 X155.116 Y136.976 E0.0688
G1 X154.524 Y137.572 E0.02635
G1 X152.786 Y138.912 E0.0688
G1 X152.059 Y139.333 E0.02635
G1 X150.034 Y140.178 E0.0688
G1 X149.223 Y140.397 E0.02635
G1 X147.245 Y140.663 E0.06255
G1 X146.819 Y140.691 E0.0134
G1 X103.198 Y140.692 E1.3677
G1 X102.781 Y140.665 E0.0131
G1 X100.823 Y140.408 E0.06193
G1 X100.016 Y140.193 E0.02617
G1 X97.99 Y139.359 E0.06871
G1 X97.261 Y138.941 E0.02635
G1 X95.517 Y137.609 E0.0688
G1 X94.921 Y137.016 E0.02635
G1 X93.581 Y135.279 E0.0688
G1 X93.159 Y134.552 E0.02635
G1 X92.315 Y132.527 E0.0688
G1 X92.095 Y131.716 E0.02635
G1 X91.83 Y129.739 E0.06253
G1 X91.802 Y129.314 E0.01336
G1 X91.801 Y127.204 E0.06615
G1 X91.765 Y126.139 E0.03342
G1 X91.666 Y125.189 E0.02993
G1 X91.484 Y124.14 E0.03338
G1 X89.486 Y114.585 E0.30607
G1 X89.428 Y114.172 E0.01309
G1 X89.296 Y112.438 E0.05454
G1 X89.341 Y111.606 E0.02613
G1 X89.698 Y109.683 E0.06133
G1 X89.958 Y108.883 E0.02635
G1 X90.802 Y107.115 E0.06144
G1 X91.26 Y106.411 E0.02635
G1 X92.469 Y104.996 E0.05834
G1 X91.296 Y103.64 E0.05624
G1 X90.834 Y102.938 E0.02635
G1 X89.979 Y101.174 E0.06143
G1 X89.715 Y100.377 E0.02635
G1 X89.346 Y98.452 E0.06144
G1 X89.297 Y97.614 E0.02635
G1 X89.424 Y95.857 E0.0552
G1 X89.483 Y95.433 E0.01344
G1 X91.484 Y85.86 E0.30664
M73 Q1 S64
G1 X91.666 Y84.811 E0.03339
G1 X91.765 Y83.861 E0.02993
G1 X91.801 Y82.797 E0.03338
G1 X91.801 Y80.705 E0.06559
G1 X91.828 Y80.288 E0.0131
G1 X92.085 Y78.33 E0.06193
G1 X92.3 Y77.523 E0.02617
G1 X93.134 Y75.497 E0.06871
G1 X93.552 Y74.768 E0.02635
G1 X94.783 Y73.156 E0.0636
M204 P1500
G1 X94.933 Y73.27 F10800
M204 P1000
G1 X95.083 Y73.385
G1 F1200
G1 X95.168 Y73.273 E0.00443
G1 X95.726 Y72.712 E0.0248
G1 X97.425 Y71.402 E0.06725
G1 X98.109 Y71.005 E0.0248
G1 X100.089 Y70.18 E0.06725
G1 X100.852 Y69.973 E0.0248
G1 X102.792 Y69.713 E0.06138
G1 X103.194 Y69.686 E0.01261
G1 X146.803 Y69.686 E1.36734
G1 X147.197 Y69.712 E0.01238
G1 X147.835 Y69.796 E0.02016
G1 X149.106 Y69.963 E0.04022
G1 X149.864 Y70.165 E0.02457
G1 X151.844 Y70.98 E0.06714
G1 X152.53 Y71.374 E0.0248
G1 X154.235 Y72.675 E0.06725
G1 X154.795 Y73.233 E0.0248
G1 X156.105 Y74.932 E0.06725
G1 X156.502 Y75.616 E0.0248
G1 X157.328 Y77.596 E0.06725
G1 X157.534 Y78.359 E0.0248
G1 X157.794 Y80.299 E0.06136
G1 X157.821 Y80.699 E0.01257
G1 X157.822 Y82.802 E0.06595
G1 X157.859 Y83.887 E0.03403
G1 X157.96 Y84.863 E0.03075
G1 X158.145 Y85.931 E0.03399
G1 X160.142 Y95.48 E0.30588
G1 X160.197 Y95.869 E0.01232
G1 X160.327 Y97.566 E0.05338
G1 X160.284 Y98.35 E0.02459
G1 X159.936 Y100.224 E0.05978
G1 X159.691 Y100.976 E0.0248
G1 X158.868 Y102.7 E0.05989
G1 X158.437 Y103.363 E0.0248
G1 X157.196 Y104.815 E0.05989
G1 X156.991 Y104.999 E0.00865
G1 X157.153 Y105.144 E0.00681
G1 X158.403 Y106.588 E0.05989
G1 X158.838 Y107.249 E0.0248
G1 X159.671 Y108.968 E0.05989
G1 X159.92 Y109.718 E0.0248
G1 X160.279 Y111.594 E0.05989
G1 X160.326 Y112.384 E0.0248
