; generated by SuperSlicer 2.3.57 on 2022-03-07 at 18:39:40 UTC

; 

; external perimeters extrusion width = 0.45mm
; perimeters extrusion width = 0.45mm
; infill extrusion width = 0.45mm
; solid infill extrusion width = 0.45mm
; top infill extrusion width = 0.40mm
; first layer extrusion width = 0.42mm

; object:{"name":"Black - SSR DIN Clip_1","id":"Black - SSR DIN Clip_1.stl id:0 copy 0","object_center":[125.000000,105.000000,0.000000],"boundingbox_center":[125.000000,105.000000,3.799999],"boundingbox_size":[59.197090,44.023125,7.599998]}
; Total objects to print: 1
M486 T1
; plater:{"center":[125.000000,105.000000,0.000000],"boundingbox_center":[125.000000,105.000000,3.799999],"boundingbox_size":[59.197090,44.023125,7.599998]}

M73 P0 R59
M73 Q0 S60
;TYPE:Custom
M862.3 P "MK3S" ; printer model check
M862.1 P0.4 ; nozzle diameter check
M115 U3.10.0 ; tell printer latest fw version
G90 ; use absolute coordinates
M83 ; extruder relative mode
M104 S255 ; set extruder temp
M140 S100 ; set bed temp
M190 S100 ; wait for bed temp
M109 S255 ; wait for extruder temp
G28 W ; home all without mesh bed level
G80 ; mesh bed leveling
G1 Y-3.0 F1000.0 ; go outside print area
G92 E0.0
G1 X60.0 E9.0 F1000.0 ; intro line
G1 X100.0 E12.5 F1000.0 ; intro line
G92 E0.0
M221 S95

; Don't change E values below. Excessive value can damage the printer.
M907 E430 ; set extruder motor current
M107
G21 ; set units to millimeters
G90 ; use absolute coordinates
M83 ; use relative distances for extrusion
M900 K0.04 ; Filament gcode LA 1.5
M900 K20 ; Filament gcode LA 1.0
M107
;LAYER_CHANGE
;Z:0.2
;HEIGHT:0.2
;BEFORE_LAYER_CHANGE
G92 E0.0
;0.2


G1 E-0.8 F2100
G1 Z0.4 F10800
;AFTER_LAYER_CHANGE
;0.2
G1 Z0.6
M204 P1500
G1 X93.958 Y79.962
G1 Z0.2
G1 E0.8 F2100
;TYPE:Skirt
;WIDTH:0.42
G1 F1200
G1 X94.087 Y79.81 E0.00624
G1 X94.376 Y79.506 E0.01316
G1 X94.736 Y79.168 E0.01546
G1 X94.872 Y79.046 E0.00576
G1 X95.62 Y78.409 E0.03081
G1 X96.043 Y78.096 E0.01648
G1 X97.102 Y77.423 E0.03936
G1 X97.554 Y77.177 E0.01613
G1 X98.325 Y76.824 E0.02657
G1 X98.394 Y76.793 E0.00238
G1 X98.814 Y76.61 E0.01436
G1 X99.262 Y76.448 E0.01493
G1 X100.447 Y76.103 E0.0387
G1 X100.967 Y75.991 E0.01668
G1 X102.221 Y75.81 E0.03972
G1 X102.757 Y75.772 E0.01686
G1 X147.229 Y75.772 E1.39438
G1 X147.743 Y75.807 E0.01616
G1 X148.189 Y75.869 E0.01409
G1 X148.212 Y75.872 E0.00073
G1 X149.016 Y75.987 E0.02547
G1 X149.527 Y76.097 E0.01638
G1 X150.733 Y76.446 E0.03938
G1 X151.231 Y76.628 E0.01661
G1 X152.441 Y77.171 E0.04158
G1 X153.022 Y77.497 E0.0209
G1 X154.547 Y78.536 E0.05785
G1 X155.178 Y79.077 E0.02607
G1 X156.551 Y80.544 E0.063
G1 X157.034 Y81.185 E0.02516
G1 X157.93 Y82.682 E0.05469
G1 X158.219 Y83.278 E0.02077
G1 X158.714 Y84.577 E0.04359
G1 X158.857 Y85.039 E0.01518
G1 X159.104 Y86.071 E0.03327
G1 X159.205 Y86.798 E0.02301
G1 X159.407 Y91.692 E0.1536
G1 X161.754 Y103.673 E0.3828
G1 X161.825 Y104.432 E0.02387
G1 X161.814 Y105.711 E0.04013
G1 X161.744 Y106.408 E0.02196
G1 X159.406 Y118.315 E0.38046
G1 X159.194 Y123.279 E0.15579
G1 X159.087 Y124.024 E0.0236
G1 X158.854 Y124.966 E0.03041
G1 X158.732 Y125.365 E0.0131
G1 X158.293 Y126.558 E0.03985
G1 X158.014 Y127.15 E0.0205
G1 X157.376 Y128.25 E0.03988
G1 X157.337 Y128.315 E0.00237
G1 X157.026 Y128.826 E0.01875
G1 X156.566 Y129.434 E0.02393
G1 X155.213 Y130.891 E0.06233
G1 X154.583 Y131.435 E0.02609
G1 X153.059 Y132.482 E0.05799
G1 X152.477 Y132.809 E0.02092
G1 X151.265 Y133.358 E0.04174
G1 X150.765 Y133.543 E0.0167
G1 X149.553 Y133.897 E0.03959
G1 X149.032 Y134.009 E0.01671
G1 X147.778 Y134.189 E0.03974
G1 X147.241 Y134.228 E0.01686
G1 X102.776 Y134.229 E1.39419
G1 X102.249 Y134.192 E0.01656
G1 X101.022 Y134.019 E0.03884
G1 X100.546 Y133.92 E0.01525
G1 X100.095 Y133.796 E0.01465
G1 X100.035 Y133.779 E0.00197
G1 X99.238 Y133.545 E0.02603
G1 X98.754 Y133.366 E0.0162
G1 X97.608 Y132.851 E0.03939
G1 X97.138 Y132.598 E0.01671
G1 X96.051 Y131.911 E0.04033
G1 X95.596 Y131.572 E0.0178
G1 X94.553 Y130.668 E0.04329
G1 X94.157 Y130.27 E0.01759
G1 X93.325 Y129.297 E0.04014
G1 X93.008 Y128.868 E0.01673
G1 X92.329 Y127.801 E0.03967
G1 X92.075 Y127.332 E0.01671
G1 X91.554 Y126.18 E0.03965
G1 X91.369 Y125.68 E0.0167
G1 X90.968 Y124.308 E0.04481
G1 X90.822 Y123.449 E0.02733
G1 X90.581 Y118.909 E0.14255
G1 X90.569 Y118.819 E0.00284
G1 X90.534 Y118.37 E0.01412
G1 X90.523 Y117.71 E0.02071
G1 X88.297 Y106.773 E0.34993
G1 X88.224 Y106.177 E0.01885
G1 X88.182 Y105.165 E0.03174
G1 X88.182 Y104.863 E0.00949
G1 X88.221 Y103.854 E0.03165
G1 X88.294 Y103.247 E0.01916
G1 X90.522 Y92.294 E0.35048
G1 X90.532 Y91.657 E0.01997
G1 X90.565 Y91.217 E0.01384
G1 X90.58 Y91.106 E0.00349
G1 X90.818 Y86.584 E0.14198
G1 X90.959 Y85.74 E0.02684
G1 X91.354 Y84.362 E0.04495
G1 X91.54 Y83.854 E0.01695
G1 X92.06 Y82.697 E0.03978
G1 X92.312 Y82.228 E0.01671
G1 X92.989 Y81.159 E0.03966
G1 X93.304 Y80.729 E0.01671
G1 X93.919 Y80.007 E0.02973
G1 X94.062 Y80.13 F10800
M204 P1000
G1 X94.206 Y80.252
G1 F1200
G1 X94.367 Y80.063 E0.00779
G1 X94.642 Y79.774 E0.0125
G1 X94.99 Y79.446 E0.01499
G1 X95.12 Y79.33 E0.00547
G1 X95.855 Y78.704 E0.03025
G1 X96.256 Y78.408 E0.01566
G1 X97.294 Y77.748 E0.03854
G1 X97.723 Y77.514 E0.01533
G1 X98.48 Y77.167 E0.02611
G1 X98.546 Y77.138 E0.00226
G1 X98.953 Y76.961 E0.01393
G1 X99.379 Y76.807 E0.01419
G1 X100.54 Y76.469 E0.03791
G1 X101.034 Y76.362 E0.01585
G1 X102.261 Y76.186 E0.03889
G1 X102.771 Y76.149 E0.01602
G1 X147.216 Y76.149 E1.39356
G1 X147.705 Y76.183 E0.01535
G1 X148.137 Y76.242 E0.01367
G1 X148.159 Y76.245 E0.0007
G1 X148.949 Y76.359 E0.02504
G1 X149.434 Y76.463 E0.01556
G1 X150.616 Y76.805 E0.03856
G1 X151.088 Y76.978 E0.01578
G1 X152.271 Y77.508 E0.04064
G1 X152.824 Y77.818 E0.01986
G1 X154.317 Y78.836 E0.05667
G1 X154.917 Y79.35 E0.02477
G1 X156.262 Y80.787 E0.06171
G1 X156.72 Y81.396 E0.02391
G1 X157.598 Y82.861 E0.05355
G1 X157.872 Y83.427 E0.01973
G1 X158.357 Y84.7 E0.04269
G1 X158.493 Y85.139 E0.01442
G1 X158.733 Y86.141 E0.03232
G1 X158.829 Y86.832 E0.02186
G1 X159.031 Y91.737 E0.15392
G1 X161.381 Y103.727 E0.3831
G1 X161.448 Y104.447 E0.02268
G1 X161.437 Y105.691 E0.03898
G1 X161.37 Y106.353 E0.02086
G1 X159.03 Y118.27 E0.3808
G1 X158.818 Y123.244 E0.15609
G1 X158.716 Y123.952 E0.02242
G1 X158.491 Y124.865 E0.02949
G1 X158.375 Y125.245 E0.01245
G1 X157.944 Y126.412 E0.03901
G1 X157.68 Y126.975 E0.01948
G1 X157.05 Y128.059 E0.03931
G1 X157.014 Y128.12 E0.00225
G1 X156.714 Y128.613 E0.01809
G1 X156.277 Y129.192 E0.02274
G1 X154.951 Y130.619 E0.06108
G1 X154.353 Y131.135 E0.02478
G1 X152.859 Y132.161 E0.05682
G1 X152.307 Y132.473 E0.01987
G1 X151.121 Y133.009 E0.0408
G1 X150.647 Y133.185 E0.01586
G1 X149.46 Y133.531 E0.03876
G1 X148.965 Y133.638 E0.01587
G1 X147.737 Y133.814 E0.0389
G1 X147.228 Y133.851 E0.01602
G1 X102.789 Y133.852 E1.39335
M73 Q0 S59
G1 X102.288 Y133.817 E0.01573
G1 X101.087 Y133.647 E0.03805
G1 X100.634 Y133.553 E0.01449
G1 X100.197 Y133.433 E0.01422
G1 X100.14 Y133.417 E0.00187
G1 X99.357 Y133.187 E0.02557
G1 X98.897 Y133.017 E0.01539
G1 X97.775 Y132.512 E0.03857
G1 X97.329 Y132.272 E0.01587
G1 X96.265 Y131.6 E0.03946
G1 X95.832 Y131.278 E0.01691
G1 X94.81 Y130.392 E0.04241
G1 X94.435 Y130.014 E0.01671
G1 X93.62 Y129.062 E0.03928
G1 X93.319 Y128.655 E0.01589
G1 X92.654 Y127.609 E0.03883
G1 X92.413 Y127.164 E0.01587
G1 X91.903 Y126.036 E0.03882
G1 X91.727 Y125.562 E0.01586
G1 X91.336 Y124.224 E0.04371
G1 X91.197 Y123.407 E0.02596
G1 X90.957 Y118.873 E0.14236
G1 X90.944 Y118.779 E0.00298
G1 X90.911 Y118.352 E0.01342
G1 X90.899 Y117.669 E0.02144
G1 X88.669 Y106.713 E0.35055
G1 X88.6 Y106.146 E0.0179
G1 X88.559 Y105.157 E0.03103
G1 X88.559 Y104.87 E0.00901
G1 X88.597 Y103.884 E0.03094
G1 X88.666 Y103.308 E0.0182
G1 X90.899 Y92.334 E0.3511
G1 X90.909 Y91.674 E0.02071
G1 X90.94 Y91.256 E0.01315
G1 X90.956 Y91.141 E0.00362
G1 X91.193 Y86.626 E0.14178
G1 X91.327 Y85.823 E0.0255
G1 X91.713 Y84.479 E0.04386
G1 X91.889 Y83.997 E0.0161
G1 X92.399 Y82.864 E0.03894
G1 X92.638 Y82.418 E0.01587
G1 X93.3 Y81.371 E0.03883
G1 X93.6 Y80.964 E0.01588
G1 X94.167 Y80.297 E0.02743
M204 P1500
G1 X94.311 Y80.42 F10800
M204 P1000
G1 X94.454 Y80.542
G1 F1200
G1 X94.647 Y80.315 E0.00934
G1 X94.908 Y80.041 E0.01185
G1 X95.245 Y79.724 E0.01452
G1 X95.368 Y79.614 E0.00518
G1 X96.089 Y79. E0.0297
G1 X96.47 Y78.719 E0.01483
G1 X97.485 Y78.073 E0.03773
G1 X97.892 Y77.852 E0.01452
G1 X98.636 Y77.511 E0.02565
G1 X98.698 Y77.483 E0.00214
G1 X99.093 Y77.311 E0.0135
G1 X99.496 Y77.166 E0.01344
G1 X100.632 Y76.834 E0.03712
G1 X101.1 Y76.733 E0.01501
G1 X102.302 Y76.561 E0.03805
G1 X102.784 Y76.526 E0.01518
G1 X147.204 Y76.526 E1.39273
G1 X147.666 Y76.558 E0.01454
G1 X148.085 Y76.615 E0.01325
G1 X148.106 Y76.618 E0.00066
G1 X148.883 Y76.73 E0.02462
G1 X149.342 Y76.829 E0.01474
G1 X150.498 Y77.163 E0.03773
G1 X150.946 Y77.327 E0.01495
G1 X152.101 Y77.846 E0.0397
G1 X152.625 Y78.139 E0.01881
G1 X154.087 Y79.136 E0.0555
G1 X154.656 Y79.623 E0.02346
G1 X155.972 Y81.03 E0.06043
G1 X156.407 Y81.607 E0.02265
G1 X157.266 Y83.041 E0.0524
G1 X157.526 Y83.577 E0.01869
G1 X158. Y84.823 E0.04179
G1 X158.129 Y85.239 E0.01366
G1 X158.362 Y86.211 E0.03136
G1 X158.453 Y86.866 E0.02071
G1 X158.656 Y91.781 E0.15425
G1 X161.007 Y103.781 E0.38341
G1 X161.07 Y104.463 E0.02149
G1 X161.06 Y105.67 E0.03784
G1 X160.997 Y106.297 E0.01976
G1 X158.655 Y118.226 E0.38115
G1 X158.442 Y123.209 E0.1564
M73 P1 R59
M73 Q1 S59
G1 X158.346 Y123.88 E0.02124
G1 X158.127 Y124.765 E0.02858
G1 X158.017 Y125.124 E0.01179
G1 X157.596 Y126.267 E0.03817
G1 X157.346 Y126.799 E0.01845
G1 X156.725 Y127.868 E0.03874
G1 X156.691 Y127.926 E0.00213
G1 X156.402 Y128.401 E0.01743
G1 X155.987 Y128.949 E0.02154
G1 X154.689 Y130.347 E0.05982
G1 X154.122 Y130.836 E0.02348
G1 X152.659 Y131.841 E0.05564
G1 X152.136 Y132.136 E0.01883
G1 X150.978 Y132.66 E0.03986
G1 X150.528 Y132.827 E0.01503
G1 X149.367 Y133.165 E0.03792
G1 X148.899 Y133.267 E0.01504
G1 X147.697 Y133.439 E0.03806
G1 X147.214 Y133.474 E0.01517
G1 X102.802 Y133.475 E1.39252
G1 X102.328 Y133.441 E0.0149
G1 X101.151 Y133.276 E0.03725
G1 X100.723 Y133.187 E0.01373
G1 X100.299 Y133.07 E0.01379
G1 X100.244 Y133.054 E0.00177
G1 X99.476 Y132.829 E0.02512
G1 X99.04 Y132.667 E0.01458
G1 X97.941 Y132.174 E0.03775
G1 X97.519 Y131.947 E0.01504
G1 X96.478 Y131.289 E0.0386
G1 X96.068 Y130.984 E0.01602
G1 X95.068 Y130.116 E0.04152
G1 X94.712 Y129.758 E0.01583
G1 X93.915 Y128.827 E0.03843
G1 X93.63 Y128.441 E0.01506
G1 X92.979 Y127.418 E0.038
G1 X92.751 Y126.997 E0.01504
G1 X92.252 Y125.893 E0.03798
G1 X92.085 Y125.443 E0.01503
G1 X91.704 Y124.139 E0.04261
G1 X91.573 Y123.366 E0.0246
G1 X91.332 Y118.838 E0.14217
G1 X91.319 Y118.739 E0.00312
G1 X91.288 Y118.335 E0.01271
G1 X91.276 Y117.627 E0.02218
G1 X89.042 Y106.652 E0.35117
G1 X88.976 Y106.115 E0.01696
G1 X88.936 Y105.149 E0.03032
G1 X88.936 Y104.877 E0.00854
G1 X88.973 Y103.914 E0.03022
G1 X89.039 Y103.368 E0.01724
G1 X91.275 Y92.375 E0.35172
G1 X91.286 Y91.691 E0.02146
G1 X91.316 Y91.295 E0.01245
G1 X91.332 Y91.176 E0.00376
G1 X91.568 Y86.667 E0.14159
G1 X91.696 Y85.907 E0.02416
G1 X92.072 Y84.596 E0.04276
G1 X92.239 Y84.139 E0.01525
G1 X92.737 Y83.031 E0.0381
G1 X92.964 Y82.608 E0.01504
G1 X93.612 Y81.584 E0.03799
G1 X93.896 Y81.198 E0.01504
G1 X94.415 Y80.588 E0.02513
M204 P1500
G1 X94.559 Y80.71 F10800
M204 P1000
G1 X94.703 Y80.832
G1 F1200
G1 X94.928 Y80.567 E0.0109
G1 X95.174 Y80.309 E0.01119
G1 X95.5 Y80.002 E0.01405
G1 X95.617 Y79.898 E0.00489
G1 X96.324 Y79.295 E0.02914
G1 X96.683 Y79.03 E0.01401
G1 X97.677 Y78.398 E0.03691
G1 X98.061 Y78.189 E0.01371
G1 X98.791 Y77.854 E0.02518
G1 X98.85 Y77.828 E0.00202
G1 X99.232 Y77.662 E0.01306
G1 X99.613 Y77.524 E0.01269
G1 X100.725 Y77.2 E0.03633
G1 X101.167 Y77.105 E0.01418
G1 X102.342 Y76.936 E0.03721
G1 X102.798 Y76.903 E0.01433
G1 X147.191 Y76.903 E1.39191
G1 X147.628 Y76.933 E0.01373
G1 X148.033 Y76.989 E0.01282
G1 X148.052 Y76.992 E0.00062
G1 X148.816 Y77.102 E0.02419
G1 X149.25 Y77.195 E0.01392
G1 X150.381 Y77.522 E0.03691
G1 X150.804 Y77.677 E0.01412
G1 X151.932 Y78.183 E0.03876
G1 X152.426 Y78.46 E0.01777
G1 X153.858 Y79.435 E0.05432
G1 X154.395 Y79.895 E0.02216
G1 X155.683 Y81.273 E0.05915
G1 X156.094 Y81.818 E0.02139
G1 X156.934 Y83.22 E0.05125
G1 X157.179 Y83.727 E0.01765
G1 X157.644 Y84.946 E0.04089
G1 X157.765 Y85.339 E0.0129
G1 X157.991 Y86.282 E0.03041
G1 X158.077 Y86.899 E0.01956
G1 X158.28 Y91.825 E0.15458
G1 X160.633 Y103.835 E0.38371
G1 X160.693 Y104.479 E0.02029
G1 X160.684 Y105.65 E0.03669
G1 X160.623 Y106.242 E0.01867
G1 X158.279 Y118.181 E0.3815
G1 X158.066 Y123.174 E0.15671
G1 X157.975 Y123.808 E0.02006
G1 X157.764 Y124.664 E0.02766
G1 X157.66 Y125.004 E0.01114
G1 X157.248 Y126.121 E0.03733
G1 X157.012 Y126.624 E0.01743
G1 X156.4 Y127.677 E0.03816
G1 X156.367 Y127.732 E0.00202
G1 X156.089 Y128.189 E0.01677
G1 X155.698 Y128.707 E0.02034
G1 X154.427 Y130.075 E0.05857
G1 X153.891 Y130.537 E0.02217
G1 X152.459 Y131.521 E0.05447
G1 X151.965 Y131.799 E0.01778
G1 X150.835 Y132.311 E0.03892
G1 X150.41 Y132.468 E0.01419
G1 X149.275 Y132.8 E0.03709
G1 X148.832 Y132.895 E0.0142
G1 X147.657 Y133.064 E0.03722
G1 X147.201 Y133.097 E0.01433
G1 X102.815 Y133.098 E1.39168
M73 P1 R58
G1 X102.367 Y133.066 E0.01408
G1 X101.216 Y132.904 E0.03646
G1 X100.811 Y132.82 E0.01296
G1 X100.401 Y132.707 E0.01336
G1 X100.349 Y132.692 E0.00167
G1 X99.594 Y132.47 E0.02467
G1 X99.182 Y132.318 E0.01377
G1 X98.108 Y131.835 E0.03693
G1 X97.709 Y131.621 E0.0142
G1 X96.692 Y130.977 E0.03774
G1 X96.305 Y130.69 E0.01513
G1 X95.325 Y129.841 E0.04064
G1 X94.989 Y129.502 E0.01495
G1 X94.21 Y128.592 E0.03757
G1 X93.941 Y128.227 E0.01422
G1 X93.305 Y127.227 E0.03716
G1 X93.089 Y126.829 E0.0142
G1 X92.601 Y125.75 E0.03715
G1 X92.443 Y125.325 E0.01419
G1 X92.073 Y124.054 E0.04151
G1 X91.948 Y123.324 E0.02323
G1 X91.708 Y118.802 E0.14198
G1 X91.694 Y118.699 E0.00327
G1 X91.665 Y118.317 E0.01201
G1 X91.652 Y117.586 E0.02291
G1 X89.414 Y106.592 E0.35179
G1 X89.352 Y106.085 E0.01602
G1 X89.313 Y105.141 E0.02962
G1 X89.313 Y104.884 E0.00806
G1 X89.349 Y103.944 E0.02951
G1 X89.411 Y103.428 E0.01628
G1 X91.651 Y92.416 E0.35233
G1 X91.663 Y91.708 E0.02221
G1 X91.691 Y91.334 E0.01176
G1 X91.707 Y91.211 E0.00389
G1 X91.944 Y86.708 E0.14139
G1 X92.064 Y85.99 E0.02281
G1 X92.43 Y84.713 E0.04167
G1 X92.588 Y84.281 E0.0144
G1 X93.076 Y83.198 E0.03726
G1 X93.29 Y82.799 E0.0142
G1 X93.923 Y81.797 E0.03716
G1 X94.192 Y81.432 E0.01421
G1 X94.664 Y80.878 E0.02283
M204 P1500
G1 X94.807 Y81. F10800
M204 P1000
G1 X94.951 Y81.122
G1 F1200
G1 X95.208 Y80.82 E0.01245
G1 X95.44 Y80.576 E0.01053
G1 X95.755 Y80.28 E0.01357
G1 X95.865 Y80.182 E0.0046
G1 X96.559 Y79.591 E0.02859
G1 X96.897 Y79.341 E0.01318
G1 X97.868 Y78.723 E0.03609
G1 X98.23 Y78.527 E0.01291
G1 X98.946 Y78.198 E0.02472
G1 X99.002 Y78.173 E0.0019
G1 X99.371 Y78.013 E0.01263
G1 X99.73 Y77.883 E0.01195
G1 X100.818 Y77.566 E0.03554
G1 X101.234 Y77.476 E0.01335
G1 X102.382 Y77.311 E0.03637
G1 X102.811 Y77.281 E0.01349
G1 X147.178 Y77.28 E1.39108
G1 X147.589 Y77.309 E0.01293
G1 X147.981 Y77.362 E0.0124
G1 X147.999 Y77.365 E0.00059
G1 X148.75 Y77.473 E0.02376
G1 X149.158 Y77.561 E0.0131
G1 X150.264 Y77.88 E0.03608
G1 X150.662 Y78.026 E0.01329
G1 X151.762 Y78.52 E0.03783
G1 X152.228 Y78.78 E0.01672
G1 X153.628 Y79.735 E0.05315
G1 X154.133 Y80.168 E0.02086
G1 X155.394 Y81.516 E0.05787
G1 X155.781 Y82.029 E0.02013
G1 X156.602 Y83.4 E0.0501
G1 X156.833 Y83.876 E0.01661
G1 X157.287 Y85.068 E0.03999
G1 X157.401 Y85.438 E0.01214
G1 X157.62 Y86.352 E0.02945
G1 X157.701 Y86.933 E0.01841
G1 X157.905 Y91.87 E0.1549
G1 X160.26 Y103.889 E0.38402
G1 X160.316 Y104.495 E0.0191
G1 X160.307 Y105.629 E0.03555
G1 X160.25 Y106.186 E0.01757
G1 X157.904 Y118.136 E0.38184
G1 X157.69 Y123.14 E0.15701
G1 X157.605 Y123.736 E0.01888
G1 X157.4 Y124.564 E0.02674
G1 X157.302 Y124.883 E0.01048
G1 X156.9 Y125.975 E0.03649
G1 X156.677 Y126.449 E0.0164
G1 X156.075 Y127.486 E0.03759
G1 X156.044 Y127.538 E0.0019
G1 X155.777 Y127.977 E0.01612
G1 X155.409 Y128.464 E0.01915
G1 X154.165 Y129.803 E0.05732
G1 X153.661 Y130.238 E0.02087
G1 X152.26 Y131.201 E0.05329
