; generated by SuperSlicer 2.3.57 on 2022-03-07 at 18:36:27 UTC

; 

; external perimeters extrusion width = 0.45mm
; perimeters extrusion width = 0.45mm
; infill extrusion width = 0.45mm
; solid infill extrusion width = 0.45mm
; top infill extrusion width = 0.40mm
; first layer extrusion width = 0.42mm

; object:{"name":"Black - MKS Monster 8 PCB Support_1","id":"Black - MKS Monster 8 PCB Support_1.stl id:0 copy 0","object_center":[124.999986,105.000000,0.000000],"boundingbox_center":[124.999986,105.000000,3.500000],"boundingbox_size":[89.000000,159.000000,7.000000]}
; Total objects to print: 1
M486 T1
; plater:{"center":[124.999986,105.000000,0.000000],"boundingbox_center":[124.999986,105.000000,3.500000],"boundingbox_size":[89.000000,159.000000,7.000000]}

M73 P0 R86
M73 Q0 S88
;TYPE:Custom
M862.3 P "MK3S" ; printer model check
M862.1 P0.4 ; nozzle diameter check
M115 U3.10.0 ; tell printer latest fw version
G90 ; use absolute coordinates
M83 ; extruder relative mode
M104 S255 ; set extruder temp
M140 S100 ; set bed temp
M190 S100 ; wait for bed temp
M109 S255 ; wait for extruder temp
G28 W ; home all without mesh bed level
G80 ; mesh bed leveling
G1 Y-3.0 F1000.0 ; go outside print area
G92 E0.0
G1 X60.0 E9.0 F1000.0 ; intro line
G1 X100.0 E12.5 F1000.0 ; intro line
G92 E0.0
M221 S95

; Don't change E values below. Excessive value can damage the printer.
M907 E430 ; set extruder motor current
M107
G21 ; set units to millimeters
G90 ; use absolute coordinates
M83 ; use relative distances for extrusion
M900 K0.04 ; Filament gcode LA 1.5
M900 K20 ; Filament gcode LA 1.0
;LAYER_CHANGE
;Z:0.2
;HEIGHT:0.2
;BEFORE_LAYER_CHANGE
G92 E0.0
;0.2


G1 E-0.8 F2100
G1 Z0.4 F10800
;AFTER_LAYER_CHANGE
;0.2
G1 Z0.6
M204 P1500
G1 X73.464 Y25.705
G1 Z0.2
G1 E0.8 F2100
;TYPE:Skirt
;WIDTH:0.42
G1 F1200
G1 X74.184 Y23.949 E0.05954
G1 X74.675 Y23.091 E0.031
G1 X75.826 Y21.58 E0.05954
G1 X76.522 Y20.879 E0.031
G1 X78.025 Y19.717 E0.05954
G1 X78.879 Y19.22 E0.031
G1 X80.631 Y18.487 E0.05954
G1 X81.585 Y18.228 E0.031
G1 X83.467 Y17.973 E0.05954
G1 X84.455 Y17.97 E0.031
G1 X86.339 Y18.211 E0.05954
G1 X87.295 Y18.464 E0.031
G1 X89.051 Y19.184 E0.05954
G1 X89.909 Y19.675 E0.03099
G1 X91.42 Y20.826 E0.05954
G1 X92.121 Y21.522 E0.031
G1 X93.283 Y23.025 E0.05954
G1 X93.78 Y23.879 E0.03099
G1 X94.513 Y25.631 E0.05954
G1 X94.772 Y26.585 E0.031
G1 X94.916 Y27.647 E0.03361
G1 X100.887 Y37.47 E0.36042
G1 X149.03 Y37.47 E1.50948
G1 X155.091 Y27.598 E0.36323
G1 X155.211 Y26.661 E0.0296
G1 X155.464 Y25.705 E0.031
G1 X156.184 Y23.949 E0.05954
G1 X156.675 Y23.091 E0.031
G1 X157.826 Y21.58 E0.05954
G1 X158.522 Y20.879 E0.031
G1 X160.025 Y19.717 E0.05954
G1 X160.879 Y19.22 E0.031
G1 X162.631 Y18.487 E0.05954
G1 X163.585 Y18.228 E0.03099
G1 X165.467 Y17.973 E0.05954
G1 X166.455 Y17.97 E0.031
G1 X168.339 Y18.211 E0.05954
G1 X169.295 Y18.464 E0.031
G1 X171.051 Y19.184 E0.05953
G1 X171.909 Y19.675 E0.03099
G1 X173.42 Y20.826 E0.05954
G1 X174.121 Y21.522 E0.031
G1 X175.283 Y23.025 E0.05954
G1 X175.78 Y23.879 E0.031
G1 X176.513 Y25.631 E0.05954
G1 X176.772 Y26.585 E0.03099
G1 X177.027 Y28.467 E0.05953
G1 X177.03 Y29.455 E0.031
G1 X176.789 Y31.339 E0.05954
G1 X176.536 Y32.294 E0.03099
G1 X175.816 Y34.051 E0.05954
G1 X175.325 Y34.909 E0.031
G1 X174.174 Y36.42 E0.05954
G1 X173.478 Y37.121 E0.031
G1 X172.156 Y38.143 E0.05236
G1 X163.349 Y52.486 E0.52775
G1 X163.242 Y52.688 E0.00716
G1 X163.134 Y52.95 E0.00888
G1 X163.001 Y53.36 E0.01353
G1 X162.899 Y53.78 E0.01353
G1 X162.855 Y54.06 E0.00889
G1 X162.84 Y54.288 E0.00716
G1 X162.84 Y155.563 E3.17542
G1 X162.855 Y155.799 E0.0074
G1 X162.901 Y156.087 E0.00917
G1 X163.004 Y156.516 E0.01381
G1 X163.139 Y156.935 E0.01381
G1 X163.25 Y157.205 E0.00916
G1 X163.36 Y157.414 E0.00739
G1 X172.223 Y171.948 E0.53376
G1 X173.375 Y172.826 E0.04542
G1 X174.077 Y173.522 E0.03099
G1 X175.238 Y175.025 E0.05954
G1 X175.735 Y175.879 E0.031
G1 X176.468 Y177.631 E0.05954
G1 X176.727 Y178.585 E0.031
G1 X176.982 Y180.467 E0.05954
G1 X176.986 Y181.455 E0.031
G1 X176.744 Y183.339 E0.05954
G1 X176.492 Y184.295 E0.031
G1 X175.771 Y186.051 E0.05954
G1 X175.28 Y186.909 E0.03099
G1 X174.13 Y188.42 E0.05954
G1 X173.433 Y189.121 E0.031
G1 X171.931 Y190.283 E0.05954
G1 X171.076 Y190.78 E0.031
G1 X169.325 Y191.513 E0.05954
G1 X168.371 Y191.772 E0.031
G1 X166.489 Y192.027 E0.05954
G1 X165.5 Y192.03 E0.031
G1 X163.617 Y191.789 E0.05954
G1 X162.661 Y191.536 E0.031
G1 X160.904 Y190.816 E0.05954
G1 X160.046 Y190.325 E0.031
G1 X158.536 Y189.174 E0.05954
G1 X157.834 Y188.478 E0.031
G1 X156.673 Y186.975 E0.05954
G1 X156.176 Y186.121 E0.03099
G1 X155.443 Y184.369 E0.05954
G1 X155.183 Y183.415 E0.031
G1 X155.04 Y182.353 E0.03362
G1 X149.068 Y172.53 E0.36042
G1 X100.97 Y172.53 E1.50808
M73 P0 R85
G1 X94.909 Y182.402 E0.36323
G1 X94.789 Y183.339 E0.02959
G1 X94.536 Y184.295 E0.031
G1 X93.816 Y186.051 E0.05954
G1 X93.325 Y186.909 E0.03099
G1 X92.174 Y188.42 E0.05954
G1 X91.478 Y189.121 E0.031
G1 X89.975 Y190.283 E0.05954
G1 X89.121 Y190.78 E0.031
G1 X87.369 Y191.513 E0.05954
G1 X86.415 Y191.772 E0.031
G1 X84.533 Y192.027 E0.05954
G1 X83.545 Y192.03 E0.031
G1 X81.661 Y191.789 E0.05954
G1 X80.706 Y191.536 E0.03099
G1 X78.949 Y190.816 E0.05954
G1 X78.091 Y190.325 E0.031
G1 X76.58 Y189.174 E0.05954
G1 X75.879 Y188.478 E0.031
G1 X74.717 Y186.975 E0.05954
G1 X74.22 Y186.121 E0.03099
G1 X73.487 Y184.369 E0.05954
G1 X73.228 Y183.415 E0.031
G1 X72.973 Y181.533 E0.05954
G1 X72.97 Y180.545 E0.031
G1 X73.211 Y178.661 E0.05954
G1 X73.464 Y177.705 E0.031
G1 X74.184 Y175.949 E0.05954
G1 X74.675 Y175.091 E0.031
G1 X75.826 Y173.58 E0.05954
G1 X76.522 Y172.879 E0.03099
G1 X77.828 Y171.869 E0.05176
G1 X86.639 Y157.415 E0.53075
G1 X86.75 Y157.206 E0.00741
G1 X86.861 Y156.936 E0.00917
G1 X86.996 Y156.516 E0.01382
G1 X87.099 Y156.087 E0.01383
G1 X87.145 Y155.799 E0.00917
G1 X87.16 Y155.563 E0.00741
G1 X87.16 Y54.516 E3.16825
G1 X87.145 Y54.277 E0.0075
G1 X87.098 Y53.985 E0.00928
G1 X86.994 Y53.553 E0.01394
G1 X86.859 Y53.129 E0.01394
G1 X86.747 Y52.855 E0.00928
G1 X86.635 Y52.643 E0.0075
G1 X77.792 Y38.098 E0.53374
G1 X76.58 Y37.174 E0.04778
M73 Q0 S87
G1 X75.879 Y36.478 E0.031
G1 X74.717 Y34.975 E0.05954
G1 X74.22 Y34.121 E0.03099
G1 X73.487 Y32.369 E0.05954
G1 X73.228 Y31.415 E0.031
G1 X72.973 Y29.533 E0.05954
G1 X72.97 Y28.545 E0.031
G1 X73.211 Y26.661 E0.05954
G1 X73.448 Y25.763 E0.02912
G1 X73.631 Y25.812 F10800
M204 P1000
G1 X73.813 Y25.86
G1 F1200
G1 X73.822 Y25.826 E0.00111
G1 X74.524 Y24.114 E0.05799
G1 X74.99 Y23.3 E0.02945
G1 X76.111 Y21.828 E0.05799
G1 X76.773 Y21.162 E0.02945
G1 X78.236 Y20.031 E0.05799
G1 X79.047 Y19.558 E0.02945
G1 X80.754 Y18.845 E0.05799
G1 X81.66 Y18.598 E0.02945
G1 X83.493 Y18.35 E0.05799
G1 X84.432 Y18.347 E0.02945
G1 X86.266 Y18.582 E0.05799
G1 X87.174 Y18.822 E0.02945
G1 X88.885 Y19.524 E0.05799
G1 X89.7 Y19.99 E0.02944
G1 X91.172 Y21.111 E0.05799
G1 X91.838 Y21.773 E0.02945
G1 X92.969 Y23.236 E0.05799
G1 X93.442 Y24.047 E0.02945
G1 X94.155 Y25.754 E0.05799
G1 X94.402 Y26.66 E0.02945
G1 X94.553 Y27.776 E0.03531
G1 X100.675 Y37.847 E0.36954
G1 X149.241 Y37.847 E1.52274
G1 X155.455 Y27.726 E0.37238
G1 X155.582 Y26.734 E0.03137
G1 X155.822 Y25.826 E0.02945
G1 X156.524 Y24.114 E0.05799
G1 X156.99 Y23.3 E0.02945
G1 X158.111 Y21.828 E0.05799
G1 X158.773 Y21.162 E0.02945
G1 X160.236 Y20.031 E0.05799
G1 X161.048 Y19.558 E0.02945
G1 X162.754 Y18.845 E0.05799
G1 X163.66 Y18.598 E0.02944
G1 X165.493 Y18.35 E0.05799
G1 X166.432 Y18.347 E0.02945
G1 X168.266 Y18.582 E0.05799
G1 X169.174 Y18.822 E0.02945
G1 X170.885 Y19.524 E0.05799
G1 X171.7 Y19.99 E0.02944
G1 X173.172 Y21.111 E0.05799
G1 X173.838 Y21.773 E0.02945
G1 X174.969 Y23.236 E0.05799
G1 X175.442 Y24.048 E0.02945
G1 X176.155 Y25.754 E0.05799
G1 X176.402 Y26.66 E0.02944
G1 X176.65 Y28.493 E0.05798
G1 X176.653 Y29.432 E0.02945
G1 X176.418 Y31.266 E0.05799
G1 X176.178 Y32.174 E0.02944
G1 X175.477 Y33.885 E0.05799
G1 X175.01 Y34.7 E0.02945
G1 X173.889 Y36.172 E0.05799
G1 X173.227 Y36.838 E0.02945
G1 X171.871 Y37.887 E0.05375
G1 X163.022 Y52.299 E0.53028
G1 X162.901 Y52.527 E0.0081
G1 X162.78 Y52.819 E0.00992
G1 X162.638 Y53.258 E0.01444
G1 X162.529 Y53.705 E0.01444
G1 X162.479 Y54.018 E0.00993
G1 X162.463 Y54.276 E0.0081
G1 X162.463 Y155.575 E3.17615
G1 X162.48 Y155.84 E0.00833
G1 X162.531 Y156.161 E0.0102
G1 X162.641 Y156.618 E0.01471
G1 X162.785 Y157.064 E0.01472
G1 X162.908 Y157.365 E0.01019
G1 X163.032 Y157.6 E0.00833
G1 X171.938 Y172.205 E0.53635
G1 X173.127 Y173.111 E0.04688
G1 X173.793 Y173.773 E0.02944
G1 X174.925 Y175.236 E0.05799
G1 X175.397 Y176.047 E0.02945
G1 X176.111 Y177.754 E0.05799
G1 X176.357 Y178.66 E0.02945
G1 X176.605 Y180.493 E0.05799
G1 X176.608 Y181.432 E0.02945
G1 X176.373 Y183.266 E0.05799
G1 X176.134 Y184.174 E0.02945
M73 P1 R85
G1 X175.432 Y185.886 E0.05799
G1 X174.965 Y186.7 E0.02944
G1 X173.845 Y188.172 E0.05799
G1 X173.183 Y188.838 E0.02945
G1 X171.72 Y189.969 E0.05799
G1 X170.908 Y190.442 E0.02945
G1 X169.202 Y191.155 E0.05799
G1 X168.296 Y191.402 E0.02945
G1 X166.463 Y191.65 E0.05799
G1 X165.524 Y191.653 E0.02945
G1 X163.689 Y191.418 E0.05799
G1 X162.781 Y191.178 E0.02945
G1 X161.07 Y190.477 E0.05799
G1 X160.255 Y190.01 E0.02945
G1 X158.784 Y188.889 E0.05799
G1 X158.117 Y188.227 E0.02945
G1 X156.986 Y186.764 E0.05799
G1 X156.514 Y185.953 E0.02944
M73 Q1 S87
G1 X155.8 Y184.247 E0.05799
G1 X155.554 Y183.34 E0.02945
G1 X155.403 Y182.224 E0.03531
G1 X149.281 Y172.153 E0.36954
G1 X100.759 Y172.153 E1.52135
G1 X94.545 Y182.274 E0.37238
G1 X94.418 Y183.266 E0.03136
G1 X94.178 Y184.174 E0.02945
G1 X93.476 Y185.886 E0.05799
G1 X93.01 Y186.7 E0.02944
G1 X91.889 Y188.172 E0.05799
G1 X91.227 Y188.838 E0.02945
G1 X89.764 Y189.969 E0.05799
G1 X88.952 Y190.442 E0.02945
G1 X87.246 Y191.155 E0.05799
G1 X86.34 Y191.402 E0.02945
G1 X84.507 Y191.65 E0.05799
G1 X83.568 Y191.653 E0.02945
G1 X81.734 Y191.418 E0.05799
G1 X80.826 Y191.178 E0.02944
G1 X79.115 Y190.477 E0.05799
G1 X78.3 Y190.01 E0.02945
G1 X76.828 Y188.889 E0.05799
G1 X76.162 Y188.227 E0.02945
G1 X75.031 Y186.764 E0.05799
G1 X74.558 Y185.953 E0.02944
G1 X73.845 Y184.247 E0.05799
G1 X73.598 Y183.34 E0.02945
G1 X73.35 Y181.507 E0.05799
G1 X73.347 Y180.568 E0.02945
G1 X73.582 Y178.734 E0.05799
G1 X73.822 Y177.826 E0.02945
G1 X74.524 Y176.114 E0.05799
G1 X74.99 Y175.299 E0.02945
G1 X76.111 Y173.828 E0.05799
G1 X76.773 Y173.162 E0.02944
G1 X78.114 Y172.125 E0.05317
G1 X86.967 Y157.602 E0.5333
G1 X87.092 Y157.366 E0.00834
G1 X87.215 Y157.065 E0.0102
G1 X87.359 Y156.618 E0.01473
G1 X87.469 Y156.161 E0.01473
G1 X87.52 Y155.84 E0.0102
G1 X87.537 Y155.574 E0.00834
G1 X87.537 Y54.504 E3.16898
G1 X87.52 Y54.236 E0.00844
G1 X87.468 Y53.911 E0.01031
G1 X87.358 Y53.451 E0.01484
G1 X87.213 Y53. E0.01484
G1 X87.089 Y52.696 E0.01032
G1 X86.963 Y52.457 E0.00844
G1 X78.078 Y37.841 E0.53634
G1 X76.828 Y36.889 E0.04924
G1 X76.162 Y36.227 E0.02945
G1 X75.031 Y34.764 E0.05799
G1 X74.558 Y33.953 E0.02944
G1 X73.845 Y32.246 E0.05799
G1 X73.598 Y31.34 E0.02945
G1 X73.35 Y29.507 E0.05799
G1 X73.347 Y28.568 E0.02945
G1 X73.582 Y26.734 E0.05799
G1 X73.797 Y25.918 E0.02646
M204 P1500
G1 X73.98 Y25.966 F10800
M204 P1000
G1 X74.162 Y26.014
G1 F1200
G1 X74.18 Y25.946 E0.00221
G1 X74.863 Y24.28 E0.05644
G1 X75.305 Y23.508 E0.0279
G1 X76.396 Y22.076 E0.05644
G1 X77.023 Y21.445 E0.0279
G1 X78.447 Y20.344 E0.05644
G1 X79.216 Y19.897 E0.0279
G1 X80.876 Y19.202 E0.05644
G1 X81.735 Y18.969 E0.0279
G1 X83.519 Y18.727 E0.05644
G1 X84.408 Y18.724 E0.0279
G1 X86.194 Y18.953 E0.05644
G1 X87.054 Y19.18 E0.0279
G1 X88.72 Y19.863 E0.05644
G1 X89.492 Y20.305 E0.02789
G1 X90.923 Y21.396 E0.05644
G1 X91.555 Y22.023 E0.0279
G1 X92.656 Y23.447 E0.05644
G1 X93.103 Y24.216 E0.0279
G1 X93.798 Y25.876 E0.05644
G1 X94.031 Y26.735 E0.0279
G1 X94.19 Y27.905 E0.037
G1 X100.463 Y38.224 E0.37865
G1 X149.452 Y38.224 E1.53601
G1 X155.819 Y27.854 E0.38154
G1 X155.953 Y26.806 E0.03313
G1 X156.18 Y25.946 E0.0279
G1 X156.863 Y24.28 E0.05644
G1 X157.305 Y23.508 E0.0279
G1 X158.396 Y22.076 E0.05644
G1 X159.023 Y21.445 E0.0279
G1 X160.447 Y20.344 E0.05644
G1 X161.216 Y19.897 E0.0279
G1 X162.876 Y19.202 E0.05644
G1 X163.735 Y18.969 E0.02789
G1 X165.519 Y18.727 E0.05644
G1 X166.408 Y18.724 E0.0279
G1 X168.194 Y18.953 E0.05644
G1 X169.054 Y19.18 E0.0279
G1 X170.719 Y19.863 E0.05644
G1 X171.491 Y20.305 E0.02789
G1 X172.923 Y21.396 E0.05644
G1 X173.555 Y22.023 E0.0279
G1 X174.656 Y23.447 E0.05644
G1 X175.103 Y24.216 E0.0279
G1 X175.798 Y25.877 E0.05644
G1 X176.031 Y26.735 E0.02789
G1 X176.273 Y28.519 E0.05643
G1 X176.276 Y29.408 E0.0279
G1 X176.047 Y31.194 E0.05644
G1 X175.82 Y32.054 E0.02789
G1 X175.137 Y33.719 E0.05644
G1 X174.695 Y34.492 E0.0279
G1 X173.604 Y35.924 E0.05644
G1 X172.977 Y36.555 E0.0279
G1 X171.586 Y37.63 E0.05514
G1 X162.694 Y52.112 E0.53281
G1 X162.559 Y52.366 E0.00904
G1 X162.426 Y52.689 E0.01096
G1 X162.275 Y53.155 E0.01535
G1 X162.16 Y53.631 E0.01535
G1 X162.104 Y53.976 E0.01097
G1 X162.086 Y54.264 E0.00904
G1 X162.086 Y155.586 E3.17688
G1 X162.105 Y155.881 E0.00927
G1 X162.161 Y156.235 E0.01124
G1 X162.278 Y156.72 E0.01562
G1 X162.43 Y157.194 E0.01562
G1 X162.566 Y157.525 E0.01123
G1 X162.704 Y157.787 E0.00926
G1 X171.653 Y172.462 E0.53894
G1 X172.879 Y173.396 E0.04833
G1 X173.51 Y174.023 E0.02789
G1 X174.611 Y175.447 E0.05644
G1 X175.059 Y176.216 E0.0279
G1 X175.753 Y177.876 E0.05644
G1 X175.987 Y178.735 E0.0279
G1 X176.228 Y180.519 E0.05644
G1 X176.231 Y181.408 E0.0279
G1 X176.003 Y183.194 E0.05644
G1 X175.775 Y184.054 E0.0279
G1 X175.092 Y185.72 E0.05644
G1 X174.65 Y186.492 E0.02789
G1 X173.56 Y187.923 E0.05644
G1 X172.933 Y188.555 E0.0279
G1 X171.509 Y189.656 E0.05644
G1 X170.74 Y190.103 E0.0279
G1 X169.079 Y190.798 E0.05644
G1 X168.22 Y191.031 E0.0279
G1 X166.437 Y191.273 E0.05644
G1 X165.547 Y191.276 E0.0279
G1 X163.762 Y191.047 E0.05644
G1 X162.901 Y190.82 E0.0279
G1 X161.236 Y190.137 E0.05644
G1 X160.464 Y189.695 E0.0279
G1 X159.032 Y188.604 E0.05644
G1 X158.401 Y187.977 E0.0279
G1 X157.3 Y186.553 E0.05644
G1 X156.852 Y185.784 E0.02789
G1 X156.157 Y184.124 E0.05644
G1 X155.924 Y183.265 E0.0279
G1 X155.766 Y182.095 E0.03701
G1 X149.493 Y171.776 E0.37865
G1 X100.548 Y171.776 E1.53461
M73 P1 R84
G1 X94.181 Y182.146 E0.38154
G1 X94.047 Y183.194 E0.03312
G1 X93.82 Y184.054 E0.0279
G1 X93.137 Y185.72 E0.05644
G1 X92.695 Y186.492 E0.02789
G1 X91.604 Y187.924 E0.05644
G1 X90.977 Y188.555 E0.0279
G1 X89.553 Y189.656 E0.05644
G1 X88.784 Y190.103 E0.0279
G1 X87.124 Y190.798 E0.05644
G1 X86.265 Y191.031 E0.0279
G1 X84.481 Y191.273 E0.05644
G1 X83.591 Y191.276 E0.0279
G1 X81.806 Y191.047 E0.05644
G1 X80.946 Y190.82 E0.02789
G1 X79.281 Y190.137 E0.05644
G1 X78.508 Y189.695 E0.0279
G1 X77.076 Y188.604 E0.05644
G1 X76.445 Y187.977 E0.0279
G1 X75.344 Y186.553 E0.05644
G1 X74.897 Y185.784 E0.02789
G1 X74.202 Y184.124 E0.05644
G1 X73.969 Y183.265 E0.0279
G1 X73.727 Y181.481 E0.05644
G1 X73.724 Y180.592 E0.0279
G1 X73.953 Y178.806 E0.05644
G1 X74.18 Y177.946 E0.0279
G1 X74.863 Y176.28 E0.05644
G1 X75.305 Y175.508 E0.0279
G1 X76.396 Y174.076 E0.05644
G1 X77.023 Y173.445 E0.0279
G1 X78.4 Y172.381 E0.05458
G1 X87.295 Y157.788 E0.53585
G1 X87.434 Y157.526 E0.00928
G1 X87.57 Y157.195 E0.01124
G1 X87.722 Y156.72 E0.01563
G1 X87.839 Y156.235 E0.01563
G1 X87.895 Y155.881 E0.01124
G1 X87.914 Y155.586 E0.00928
G1 X87.914 Y54.493 E3.16971
G1 X87.895 Y54.195 E0.00937
G1 X87.839 Y53.837 E0.01135
G1 X87.721 Y53.349 E0.01574
G1 X87.568 Y52.871 E0.01574
G1 X87.431 Y52.536 E0.01135
G1 X87.291 Y52.272 E0.00937
G1 X78.363 Y37.584 E0.53893
G1 X77.076 Y36.604 E0.0507
G1 X76.445 Y35.977 E0.0279
G1 X75.344 Y34.553 E0.05644
G1 X74.897 Y33.784 E0.02789
G1 X74.202 Y32.124 E0.05644
G1 X73.969 Y31.265 E0.0279
G1 X73.727 Y29.481 E0.05644
G1 X73.724 Y28.592 E0.0279
G1 X73.953 Y26.806 E0.05644
M73 Q1 S86
G1 X74.147 Y26.072 E0.0238
M204 P1500
G1 X74.329 Y26.12 F10800
M204 P1000
G1 X74.511 Y26.168
G1 F1200
G1 X74.538 Y26.066 E0.00332
G1 X75.203 Y24.446 E0.05489
G1 X75.62 Y23.717 E0.02635
G1 X76.681 Y22.325 E0.05489
G1 X77.273 Y21.728 E0.02635
G1 X78.658 Y20.658 E0.05489
G1 X79.384 Y20.235 E0.02635
