; generated by SuperSlicer 2.3.57 on 2022-03-07 at 18:38:08 UTC

; 

; external perimeters extrusion width = 0.45mm
; perimeters extrusion width = 0.45mm
; infill extrusion width = 0.45mm
; solid infill extrusion width = 0.45mm
; top infill extrusion width = 0.40mm
; first layer extrusion width = 0.42mm

; object:{"name":"Black - MKS TS35 Bouton_1","id":"Black - MKS TS35 Bouton_1.stl id:0 copy 0","object_center":[125.000000,105.000000,0.000000],"boundingbox_center":[125.000000,105.000000,6.500000],"boundingbox_size":[28.860474,19.869717,13.000000]}
; Total objects to print: 1
M486 T1
; plater:{"center":[125.000000,105.000000,0.000000],"boundingbox_center":[125.000000,105.000000,6.500000],"boundingbox_size":[28.860474,19.869717,13.000000]}

M73 P0 R27
M73 Q0 S28
;TYPE:Custom
M862.3 P "MK3S" ; printer model check
M862.1 P0.4 ; nozzle diameter check
M115 U3.10.0 ; tell printer latest fw version
G90 ; use absolute coordinates
M83 ; extruder relative mode
M104 S255 ; set extruder temp
M140 S100 ; set bed temp
M190 S100 ; wait for bed temp
M109 S255 ; wait for extruder temp
G28 W ; home all without mesh bed level
G80 ; mesh bed leveling
G1 Y-3.0 F1000.0 ; go outside print area
G92 E0.0
G1 X60.0 E9.0 F1000.0 ; intro line
G1 X100.0 E12.5 F1000.0 ; intro line
G92 E0.0
M221 S95

; Don't change E values below. Excessive value can damage the printer.
M907 E430 ; set extruder motor current
M107
G21 ; set units to millimeters
G90 ; use absolute coordinates
M83 ; use relative distances for extrusion
M900 K0.04 ; Filament gcode LA 1.5
M900 K20 ; Filament gcode LA 1.0
;LAYER_CHANGE
;Z:0.2
;HEIGHT:0.2
;BEFORE_LAYER_CHANGE
G92 E0.0
;0.2


G1 E-0.8 F2100
G1 Z0.4 F10800
;AFTER_LAYER_CHANGE
;0.2
G1 Z0.6
M204 P1500
G1 X107.394 Y93.819
M73 Q0 S27
G1 Z0.2
G1 E0.8 F2100
;TYPE:Skirt
;WIDTH:0.42
G1 F1200
G1 X107.692 Y93.479 E0.01419
G1 X108.826 Y92.331 E0.05061
G1 X109.163 Y92.028 E0.01419
G1 X110.426 Y91.024 E0.05061
G1 X110.797 Y90.764 E0.01419
G1 X112.171 Y89.918 E0.05061
G1 X112.57 Y89.705 E0.01419
G1 X114.036 Y89.029 E0.05061
G1 X114.458 Y88.865 E0.01419
G1 X115.994 Y88.37 E0.05061
G1 X116.432 Y88.257 E0.01419
G1 X118.017 Y87.949 E0.05061
G1 X118.465 Y87.89 E0.01419
G1 X120.073 Y87.774 E0.05054
G1 X120.521 Y87.769 E0.01405
G1 X121.147 Y87.798 E0.01964
G1 X122.143 Y87.847 E0.03127
G1 X122.591 Y87.895 E0.01412
G1 X124.181 Y88.165 E0.05057
G1 X124.622 Y88.268 E0.01419
G1 X126.169 Y88.726 E0.05061
G1 X126.595 Y88.881 E0.01419
G1 X128.076 Y89.521 E0.05061
G1 X128.48 Y89.725 E0.01419
G1 X129.874 Y90.538 E0.05061
G1 X130.251 Y90.789 E0.01419
G1 X131.538 Y91.764 E0.05061
G1 X131.881 Y92.058 E0.01419
G1 X133.042 Y93.179 E0.05061
G1 X133.349 Y93.512 E0.01419
G1 X134.367 Y94.764 E0.05061
G1 X134.631 Y95.132 E0.01419
G1 X134.97 Y95.67 E0.01994
G1 X140.583 Y95.67 E0.17599
G1 X143.355 Y96.818 E0.09407
G1 X145.587 Y99.05 E0.09897
G1 X146.735 Y101.822 E0.09407
G1 X146.735 Y108.178 E0.1993
G1 X145.587 Y110.95 E0.09407
G1 X143.355 Y113.182 E0.09897
G1 X140.583 Y114.33 E0.09407
G1 X134.971 Y114.33 E0.17598
G1 X134.643 Y114.852 E0.01932
G1 X134.379 Y115.219 E0.01419
G1 X133.362 Y116.473 E0.05061
G1 X133.056 Y116.806 E0.01419
G1 X131.897 Y117.929 E0.05061
G1 X131.553 Y118.224 E0.01419
G1 X130.267 Y119.199 E0.05061
G1 X129.891 Y119.451 E0.01419
G1 X128.498 Y120.265 E0.05059
G1 X128.096 Y120.469 E0.01415
G1 X127.171 Y120.871 E0.03159
G1 X126.61 Y121.113 E0.01917
G1 X126.187 Y121.267 E0.01412
G1 X124.641 Y121.727 E0.05057
G1 X124.201 Y121.83 E0.01419
G1 X122.61 Y122.102 E0.05061
G1 X122.16 Y122.152 E0.01419
G1 X120.548 Y122.231 E0.05061
G1 X120.095 Y122.226 E0.01419
G1 X118.485 Y122.112 E0.05061
G1 X118.037 Y122.054 E0.01419
G1 X116.452 Y121.748 E0.05061
G1 X116.013 Y121.635 E0.01419
G1 X114.477 Y121.142 E0.05061
G1 X114.055 Y120.978 E0.01419
G1 X112.588 Y120.305 E0.05061
G1 X112.189 Y120.092 E0.01419
G1 X110.813 Y119.247 E0.05061
G1 X110.443 Y118.988 E0.01419
G1 X109.178 Y117.985 E0.05061
G1 X108.841 Y117.683 E0.01419
G1 X107.705 Y116.536 E0.05061
G1 X107.407 Y116.196 E0.01419
G1 X106.417 Y114.921 E0.05061
G1 X106.161 Y114.548 E0.01419
G1 X105.331 Y113.164 E0.05061
G1 X105.122 Y112.763 E0.01419
G1 X104.463 Y111.289 E0.05061
G1 X104.303 Y110.866 E0.01419
G1 X103.825 Y109.324 E0.05061
G1 X103.718 Y108.884 E0.01419
G1 X103.428 Y107.297 E0.05061
G1 X103.373 Y106.847 E0.01419
G1 X103.276 Y105.236 E0.05061
G1 X103.275 Y104.784 E0.01419
G1 X103.371 Y103.177 E0.05048
G1 X103.425 Y102.729 E0.01415
G1 X103.711 Y101.145 E0.05046
G1 X103.818 Y100.706 E0.01415
G1 X104.295 Y99.157 E0.05083
G1 X104.455 Y98.731 E0.01427
G1 X105.112 Y97.255 E0.05065
G1 X105.321 Y96.854 E0.01419
G1 X106.15 Y95.469 E0.05061
G1 X106.405 Y95.095 E0.01419
G1 X107.357 Y93.867 E0.04873
G1 X107.506 Y93.982 F10800
M204 P1000
G1 X107.655 Y94.098
G1 F1200
G1 X107.685 Y94.059 E0.00153
G1 X107.968 Y93.736 E0.01348
G1 X109.086 Y92.604 E0.0499
G1 X109.406 Y92.316 E0.01348
G1 X110.652 Y91.326 E0.0499
G1 X111.004 Y91.079 E0.01348
G1 X112.359 Y90.245 E0.0499
G1 X112.738 Y90.042 E0.01348
G1 X114.184 Y89.376 E0.0499
G1 X114.584 Y89.22 E0.01348
G1 X116.099 Y88.732 E0.0499
G1 X116.515 Y88.625 E0.01348
G1 X118.077 Y88.322 E0.0499
G1 X118.504 Y88.265 E0.01348
G1 X120.089 Y88.151 E0.04983
G1 X120.515 Y88.146 E0.01335
G1 X121.129 Y88.175 E0.01928
G1 X122.114 Y88.223 E0.03091
G1 X122.539 Y88.269 E0.01341
G1 X124.107 Y88.535 E0.04987
G1 X124.525 Y88.632 E0.01348
G1 X126.051 Y89.085 E0.0499
G1 X126.455 Y89.231 E0.01348
G1 X127.916 Y89.863 E0.0499
G1 X128.3 Y90.057 E0.01348
G1 X129.675 Y90.858 E0.0499
G1 X130.032 Y91.097 E0.01348
G1 X131.301 Y92.057 E0.0499
G1 X131.628 Y92.337 E0.01348
G1 X132.772 Y93.442 E0.0499
G1 X133.063 Y93.759 E0.01348
G1 X134.067 Y94.994 E0.0499
G1 X134.318 Y95.343 E0.01348
G1 X134.763 Y96.047 E0.02611
G1 X140.508 Y96.047 E0.18016
G1 X143.142 Y97.138 E0.08937
G1 X145.268 Y99.264 E0.09426
G1 X146.358 Y101.897 E0.08937
G1 X146.358 Y108.103 E0.1946
G1 X145.268 Y110.736 E0.08937
M73 Q1 S27
G1 X143.142 Y112.862 E0.09426
G1 X140.508 Y113.953 E0.08937
M73 P1 R27
G1 X134.763 Y113.953 E0.18016
G1 X134.329 Y114.641 E0.02549
G1 X134.079 Y114.991 E0.01348
G1 X133.076 Y116.226 E0.0499
G1 X132.786 Y116.543 E0.01348
G1 X131.642 Y117.65 E0.0499
G1 X131.316 Y117.93 E0.01348
G1 X130.048 Y118.892 E0.0499
G1 X129.691 Y119.131 E0.01348
G1 X128.318 Y119.934 E0.04988
G1 X127.935 Y120.128 E0.01345
G1 X127.021 Y120.525 E0.03124
G1 X126.471 Y120.763 E0.01881
G1 X126.069 Y120.909 E0.01341
G1 X124.545 Y121.363 E0.04987
G1 X124.126 Y121.461 E0.01348
G1 X122.557 Y121.729 E0.0499
G1 X122.13 Y121.776 E0.01348
G1 X120.54 Y121.854 E0.0499
G1 X120.111 Y121.849 E0.01348
G1 X118.523 Y121.737 E0.0499
G1 X118.097 Y121.681 E0.01348
G1 X116.534 Y121.38 E0.0499
G1 X116.118 Y121.273 E0.01348
G1 X114.603 Y120.787 E0.0499
G1 X114.202 Y120.631 E0.01348
G1 X112.756 Y119.967 E0.0499
G1 X112.377 Y119.764 E0.01348
G1 X111.02 Y118.932 E0.0499
G1 X110.668 Y118.685 E0.01348
G1 X109.421 Y117.696 E0.0499
G1 X109.101 Y117.41 E0.01348
G1 X107.981 Y116.279 E0.0499
G1 X107.698 Y115.956 E0.01348
G1 X106.721 Y114.699 E0.0499
G1 X106.479 Y114.344 E0.01348
G1 X105.66 Y112.979 E0.0499
G1 X105.461 Y112.598 E0.01348
G1 X104.812 Y111.146 E0.0499
G1 X104.66 Y110.743 E0.01348
G1 X104.189 Y109.223 E0.0499
G1 X104.086 Y108.806 E0.01348
G1 X103.801 Y107.24 E0.0499
G1 X103.749 Y106.813 E0.01348
G1 X103.653 Y105.225 E0.0499
G1 X103.652 Y104.795 E0.01348
G1 X103.747 Y103.21 E0.04978
G1 X103.798 Y102.785 E0.01344
G1 X104.08 Y101.223 E0.04975
G1 X104.182 Y100.807 E0.01344
G1 X104.652 Y99.279 E0.05012
G1 X104.804 Y98.874 E0.01355
G1 X105.452 Y97.419 E0.04994
G1 X105.65 Y97.038 E0.01348
G1 X106.468 Y95.672 E0.0499
G1 X106.71 Y95.317 E0.01348
G1 X107.618 Y94.145 E0.04649
M204 P1500
G1 X107.767 Y94.261 F10800
M204 P1000
G1 X107.916 Y94.376
G1 F1200
G1 X107.976 Y94.299 E0.00305
G1 X108.244 Y93.993 E0.01277
G1 X109.347 Y92.877 E0.04919
G1 X109.65 Y92.605 E0.01277
G1 X110.878 Y91.628 E0.04919
G1 X111.211 Y91.395 E0.01277
G1 X112.547 Y90.572 E0.04919
G1 X112.906 Y90.38 E0.01277
G1 X114.331 Y89.724 E0.04919
G1 X114.711 Y89.576 E0.01277
G1 X116.204 Y89.095 E0.04919
G1 X116.598 Y88.993 E0.01277
G1 X118.138 Y88.694 E0.04919
G1 X118.542 Y88.641 E0.01277
G1 X120.105 Y88.528 E0.04913
G1 X120.508 Y88.523 E0.01265
G1 X121.111 Y88.551 E0.01891
G1 X122.084 Y88.599 E0.03056
G1 X122.487 Y88.643 E0.01271
G1 X124.032 Y88.905 E0.04916
G1 X124.429 Y88.997 E0.01277
G1 X125.933 Y89.443 E0.04919
G1 X126.316 Y89.582 E0.01277
G1 X127.756 Y90.204 E0.04919
G1 X128.12 Y90.388 E0.01277
G1 X129.475 Y91.178 E0.04919
G1 X129.814 Y91.404 E0.01277
G1 X131.064 Y92.351 E0.04919
G1 X131.374 Y92.616 E0.01277
G1 X132.502 Y93.706 E0.04919
G1 X132.778 Y94.006 E0.01277
G1 X133.768 Y95.223 E0.04919
G1 X134.005 Y95.554 E0.01277
G1 X134.555 Y96.424 E0.03227
G1 X140.433 Y96.424 E0.18433
G1 X142.928 Y97.457 E0.08466
G1 X144.948 Y99.477 E0.08956
G1 X145.981 Y101.972 E0.08466
G1 X145.981 Y108.028 E0.18989
G1 X144.948 Y110.523 E0.08466
G1 X142.928 Y112.543 E0.08956
G1 X140.433 Y113.576 E0.08466
G1 X134.554 Y113.576 E0.18434
G1 X134.016 Y114.431 E0.03167
G1 X133.779 Y114.762 E0.01277
G1 X132.791 Y115.98 E0.04919
G1 X132.516 Y116.28 E0.01277
G1 X131.388 Y117.371 E0.04919
G1 X131.079 Y117.636 E0.01277
G1 X129.829 Y118.585 E0.04919
G1 X129.491 Y118.811 E0.01277
G1 X128.137 Y119.603 E0.04917
G1 X127.775 Y119.787 E0.01274
G1 X126.871 Y120.179 E0.03088
G1 X126.331 Y120.412 E0.01845
G1 X125.951 Y120.551 E0.01271
G1 X124.448 Y120.998 E0.04916
G1 X124.051 Y121.091 E0.01277
G1 X122.505 Y121.355 E0.04919
G1 X122.1 Y121.4 E0.01277
G1 X120.533 Y121.477 E0.04919
G1 X120.126 Y121.473 E0.01277
G1 X118.561 Y121.362 E0.04919
G1 X118.157 Y121.309 E0.01277
G1 X116.617 Y121.011 E0.04919
G1 X116.222 Y120.911 E0.01277
G1 X114.729 Y120.431 E0.04919
G1 X114.349 Y120.284 E0.01277
G1 X112.923 Y119.629 E0.04919
G1 X112.564 Y119.437 E0.01277
G1 X111.227 Y118.616 E0.04919
G1 X110.893 Y118.383 E0.01277
G1 X109.664 Y117.408 E0.04919
G1 X109.361 Y117.136 E0.01277
G1 X108.257 Y116.021 E0.04919
G1 X107.989 Y115.715 E0.01277
G1 X107.026 Y114.476 E0.04919
G1 X106.796 Y114.14 E0.01277
G1 X105.989 Y112.795 E0.04919
G1 X105.801 Y112.434 E0.01277
G1 X105.16 Y111.002 E0.04919
G1 X105.017 Y110.621 E0.01277
G1 X104.552 Y109.122 E0.04919
G1 X104.455 Y108.727 E0.01277
G1 X104.174 Y107.183 E0.04919
G1 X104.125 Y106.779 E0.01277
G1 X104.03 Y105.213 E0.04919
G1 X104.03 Y104.806 E0.01277
G1 X104.122 Y103.244 E0.04907
G1 X104.171 Y102.841 E0.01273
G1 X104.449 Y101.301 E0.04905
G1 X104.545 Y100.907 E0.01273
G1 X105.009 Y99.401 E0.04941
G1 X105.153 Y99.017 E0.01284
G1 X105.792 Y97.583 E0.04923
G1 X105.98 Y97.222 E0.01277
G1 X106.785 Y95.876 E0.04919
G1 X107.015 Y95.539 E0.01277
G1 X107.88 Y94.424 E0.04426
M204 P1500
G1 X108.029 Y94.539 F10800
M204 P1000
G1 X108.178 Y94.655
G1 F1200
G1 X108.267 Y94.539 E0.00458
G1 X108.521 Y94.25 E0.01206
G1 X109.607 Y93.15 E0.04848
G1 X109.893 Y92.893 E0.01206
G1 X111.104 Y91.931 E0.04848
G1 X111.418 Y91.71 E0.01206
G1 X112.735 Y90.899 E0.04848
G1 X113.074 Y90.718 E0.01206
G1 X114.479 Y90.071 E0.04848
G1 X114.837 Y89.931 E0.01206
G1 X116.309 Y89.457 E0.04848
G1 X116.681 Y89.361 E0.01206
G1 X118.199 Y89.066 E0.04848
G1 X118.58 Y89.016 E0.01206
G1 X120.121 Y88.905 E0.04842
G1 X120.502 Y88.9 E0.01194
G1 X121.092 Y88.928 E0.01854
G1 X122.054 Y88.975 E0.0302
G1 X122.435 Y89.016 E0.012
G1 X123.958 Y89.275 E0.04845
G1 X124.333 Y89.362 E0.01206
G1 X125.815 Y89.801 E0.04848
G1 X126.177 Y89.932 E0.01206
G1 X127.596 Y90.546 E0.04848
G1 X127.939 Y90.719 E0.01206
G1 X129.275 Y91.498 E0.04848
G1 X129.595 Y91.712 E0.01206
G1 X130.828 Y92.645 E0.04848
G1 X131.12 Y92.895 E0.01206
G1 X132.232 Y93.969 E0.04848
G1 X132.492 Y94.253 E0.01206
G1 X133.468 Y95.452 E0.04848
G1 X133.692 Y95.764 E0.01206
G1 X134.347 Y96.801 E0.03844
G1 X140.358 Y96.801 E0.18849
G1 X142.715 Y97.777 E0.07996
G1 X144.628 Y99.691 E0.08486
G1 X145.604 Y102.047 E0.07996
G1 X145.604 Y107.953 E0.18519
G1 X144.628 Y110.309 E0.07996
G1 X142.715 Y112.223 E0.08486
G1 X140.358 Y113.199 E0.07996
G1 X134.346 Y113.199 E0.18851
G1 X133.703 Y114.22 E0.03784
G1 X133.479 Y114.533 E0.01206
G1 X132.505 Y115.733 E0.04848
G1 X132.245 Y116.017 E0.01206
G1 X131.134 Y117.092 E0.04848
G1 X130.842 Y117.343 E0.01206
G1 X129.611 Y118.278 E0.04848
G1 X129.291 Y118.491 E0.01206
G1 X127.956 Y119.272 E0.04847
G1 X127.614 Y119.445 E0.01203
G1 X126.721 Y119.833 E0.03052
G1 X126.192 Y120.062 E0.01809
G1 X125.832 Y120.193 E0.012
G1 X124.351 Y120.634 E0.04845
G1 X123.977 Y120.721 E0.01206
G1 X122.453 Y120.981 E0.04848
G1 X122.07 Y121.023 E0.01206
G1 X120.526 Y121.1 E0.04848
G1 X120.141 Y121.096 E0.01206
G1 X118.599 Y120.986 E0.04848
G1 X118.218 Y120.936 E0.01206
G1 X116.699 Y120.643 E0.04848
G1 X116.327 Y120.548 E0.01206
G1 X114.855 Y120.075 E0.04848
G1 X114.496 Y119.936 E0.01206
G1 X113.091 Y119.291 E0.04848
G1 X112.752 Y119.11 E0.01206
G1 X111.434 Y118.301 E0.04848
G1 X111.119 Y118.08 E0.01206
G1 X109.907 Y117.12 E0.04848
G1 X109.621 Y116.863 E0.01206
G1 X108.533 Y115.764 E0.04848
G1 X108.279 Y115.475 E0.01206
G1 X107.331 Y114.254 E0.04848
G1 X107.114 Y113.937 E0.01206
G1 X106.318 Y112.611 E0.04848
G1 X106.14 Y112.27 E0.01206
G1 X105.509 Y110.858 E0.04848
G1 X105.374 Y110.498 E0.01206
G1 X104.916 Y109.022 E0.04848
G1 X104.824 Y108.648 E0.01206
G1 X104.547 Y107.127 E0.04848
G1 X104.5 Y106.745 E0.01206
G1 X104.407 Y105.202 E0.04848
G1 X104.407 Y104.817 E0.01206
G1 X104.498 Y103.277 E0.04836
G1 X104.544 Y102.897 E0.01202
G1 X104.818 Y101.38 E0.04834
G1 X104.909 Y101.007 E0.01203
G1 X105.366 Y99.522 E0.0487
G1 X105.502 Y99.16 E0.01213
G1 X106.132 Y97.747 E0.04852
G1 X106.309 Y97.406 E0.01206
G1 X107.103 Y96.079 E0.04848
G1 X107.32 Y95.761 E0.01206
G1 X108.141 Y94.702 E0.04202
M204 P1500
G1 X108.29 Y94.818 F10800
M204 P1000
G1 X108.439 Y94.933
G1 F1200
G1 X108.558 Y94.779 E0.00611
G1 X108.797 Y94.507 E0.01135
G1 X109.867 Y93.423 E0.04777
G1 X110.137 Y93.181 E0.01135
G1 X111.329 Y92.233 E0.04777
G1 X111.626 Y92.025 E0.01135
G1 X112.923 Y91.226 E0.04777
G1 X113.242 Y91.056 E0.01135
G1 X114.626 Y90.418 E0.04777
G1 X114.963 Y90.287 E0.01135
G1 X116.414 Y89.819 E0.04777
G1 X116.764 Y89.729 E0.01135
G1 X118.26 Y89.439 E0.04777
G1 X118.619 Y89.391 E0.01135
G1 X120.137 Y89.282 E0.04772
G1 X120.495 Y89.277 E0.01124
G1 X121.074 Y89.305 E0.01818
G1 X122.025 Y89.351 E0.02984
G1 X122.383 Y89.39 E0.0113
G1 X123.884 Y89.645 E0.04774
G1 X124.237 Y89.727 E0.01135
G1 X125.697 Y90.16 E0.04777
G1 X126.038 Y90.283 E0.01135
G1 X127.436 Y90.888 E0.04777
G1 X127.759 Y91.051 E0.01135
G1 X129.075 Y91.818 E0.04777
G1 X129.376 Y92.019 E0.01135
G1 X130.591 Y92.939 E0.04777
G1 X130.866 Y93.174 E0.01135
M73 Q2 S27
G1 X131.962 Y94.233 E0.04777
G1 X132.207 Y94.499 E0.01135
G1 X133.168 Y95.681 E0.04777
G1 X133.38 Y95.975 E0.01135
G1 X134.139 Y97.178 E0.0446
M73 P2 R27
G1 X140.283 Y97.178 E0.19266
G1 X142.501 Y98.097 E0.07526
G1 X144.309 Y99.904 E0.08015
G1 X145.227 Y102.122 E0.07526
G1 X145.227 Y107.878 E0.18049
G1 X144.309 Y110.096 E0.07526
G1 X142.501 Y111.903 E0.08015
G1 X140.283 Y112.822 E0.07526
G1 X134.138 Y112.822 E0.19269
G1 X133.39 Y114.01 E0.04401
G1 X133.179 Y114.304 E0.01135
G1 X132.219 Y115.487 E0.04777
G1 X131.975 Y115.754 E0.01135
G1 X130.88 Y116.814 E0.04777
G1 X130.605 Y117.049 E0.01135
G1 X129.392 Y117.97 E0.04777
G1 X129.091 Y118.171 E0.01135
G1 X127.776 Y118.94 E0.04776
G1 X127.454 Y119.104 E0.01132
G1 X126.569 Y119.488 E0.03025
G1 X126.052 Y119.711 E0.01764
G1 X125.714 Y119.835 E0.01129
G1 X124.254 Y120.269 E0.04774
G1 X123.902 Y120.351 E0.01135
G1 X122.4 Y120.608 E0.04777
G1 X122.04 Y120.647 E0.01135
G1 X120.519 Y120.722 E0.04777
G1 X120.157 Y120.719 E0.01135
G1 X118.637 Y120.611 E0.04777
G1 X118.278 Y120.564 E0.01135
G1 X116.782 Y120.275 E0.04777
G1 X116.431 Y120.186 E0.01135
G1 X114.981 Y119.72 E0.04777
G1 X114.643 Y119.589 E0.01135
G1 X113.259 Y118.953 E0.04777
G1 X112.939 Y118.782 E0.01135
G1 X111.641 Y117.985 E0.04777
G1 X111.344 Y117.778 E0.01135
G1 X110.151 Y116.831 E0.04777
G1 X109.881 Y116.59 E0.01135
G1 X108.809 Y115.507 E0.04777
G1 X108.57 Y115.235 E0.01135
G1 X107.636 Y114.032 E0.04777
