; generated by SuperSlicer 2.3.57 on 2022-03-07 at 16:30:46 UTC

; 

; external perimeters extrusion width = 0.45mm
; perimeters extrusion width = 0.45mm
; infill extrusion width = 0.45mm
; solid infill extrusion width = 0.45mm
; top infill extrusion width = 0.40mm
; first layer extrusion width = 0.42mm

; object:{"name":"Blue - LCD Support (R)_1","id":"Blue - LCD Support (R)_1.stl id:0 copy 0","object_center":[125.000000,105.000000,0.000000],"boundingbox_center":[125.000000,105.000000,22.666443],"boundingbox_size":[123.517761,90.003693,45.332886]}
; Total objects to print: 1
M486 T1
; plater:{"center":[125.000000,105.000000,0.000000],"boundingbox_center":[125.000000,105.000000,22.666443],"boundingbox_size":[123.517761,90.003693,45.332886]}

M73 P0 R158
M73 Q0 S161
;TYPE:Custom
M862.3 P "MK3S" ; printer model check
M862.1 P0.4 ; nozzle diameter check
M115 U3.10.0 ; tell printer latest fw version
G90 ; use absolute coordinates
M83 ; extruder relative mode
M104 S255 ; set extruder temp
M140 S100 ; set bed temp
M190 S100 ; wait for bed temp
M109 S255 ; wait for extruder temp
G28 W ; home all without mesh bed level
G80 ; mesh bed leveling
G1 Y-3.0 F1000.0 ; go outside print area
G92 E0.0
G1 X60.0 E9.0 F1000.0 ; intro line
G1 X100.0 E12.5 F1000.0 ; intro line
G92 E0.0
M221 S95

; Don't change E values below. Excessive value can damage the printer.
M907 E430 ; set extruder motor current
M107
G21 ; set units to millimeters
G90 ; use absolute coordinates
M83 ; use relative distances for extrusion
M900 K0.04 ; Filament gcode LA 1.5
M900 K20 ; Filament gcode LA 1.0
;LAYER_CHANGE
;Z:0.2
;HEIGHT:0.2
;BEFORE_LAYER_CHANGE
G92 E0.0
;0.2


G1 E-0.8 F2100
G1 Z0.4 F10800
;AFTER_LAYER_CHANGE
;0.2
G1 Z0.6
M204 P1500
G1 X104.924 Y59.191
G1 Z0.2
G1 E0.8 F2100
;TYPE:Skirt
;WIDTH:0.42
G1 F1200
G1 X105.416 Y58.334 E0.03099
G1 X106.806 Y56.513 E0.07181
G1 X107.503 Y55.813 E0.031
G1 X109.317 Y54.414 E0.07182
G1 X110.172 Y53.917 E0.03099
G1 X112.286 Y53.035 E0.07181
G1 X113.24 Y52.777 E0.031
G1 X115.276 Y52.504 E0.06442
G1 X115.778 Y52.47 E0.01577
G1 X140.79 Y52.469 E0.78422
G1 X141.283 Y52.501 E0.01549
G1 X141.78 Y52.567 E0.01571
G1 X142.503 Y52.662 E0.02287
G1 X143.436 Y52.909 E0.03025
G1 X144.821 Y53.472 E0.04689
G1 X145.68 Y53.961 E0.03099
G1 X146.881 Y54.871 E0.04726
G1 X147.585 Y55.566 E0.031
G1 X148.51 Y56.756 E0.04726
G1 X149.01 Y57.609 E0.03099
G1 X149.595 Y58.998 E0.04727
G1 X149.857 Y59.952 E0.03102
G1 X150.032 Y61.218 E0.04008
G1 X150.067 Y61.733 E0.01618
G1 X150.069 Y68.874 E0.22389
G1 X148.925 Y71.642 E0.09392
G1 X147.167 Y73.405 E0.07804
G1 X147.167 Y76.596 E0.10006
G1 X148.921 Y78.35 E0.07777
G1 X150.069 Y81.121 E0.09405
G1 X150.07 Y99.14 E0.56496
M73 Q0 S160
G1 X150.093 Y99.205 E0.00216
G1 X150.123 Y99.267 E0.00216
G1 X175.885 Y125.027 E1.14229
G1 X177.033 Y127.793 E0.0939
G1 X177.037 Y130.282 E0.07803
G1 X179.292 Y132.537 E0.10001
G1 X181.781 Y132.54 E0.07803
G1 X184.547 Y133.688 E0.0939
G1 X190.662 Y139.803 E0.27115
G1 X190.92 Y140.088 E0.01206
G1 X192.431 Y141.944 E0.07503
G1 X192.99 Y142.876 E0.03407
G1 X193.873 Y144.99 E0.07182
G1 X194.121 Y145.869 E0.02863
G1 X194.267 Y146.81 E0.02987
G1 X194.298 Y147.711 E0.02827
G1 X194.127 Y149.715 E0.06305
G1 X193.852 Y150.844 E0.03645
G1 X193.385 Y151.973 E0.03829
G1 X192.781 Y152.966 E0.03645
G1 X191.485 Y154.504 E0.06306
G1 X190.825 Y155.119 E0.02827
G1 X190.061 Y155.678 E0.02969
G1 X189.275 Y156.12 E0.02827
G1 X187.189 Y156.984 E0.07081
G1 X186.134 Y157.252 E0.03411
G1 X183.731 Y157.505 E0.07575
G1 X183.337 Y157.525 E0.01237
G1 X65.005 Y157.532 E3.71021
G1 X64.518 Y157.5 E0.01529
G1 X63.286 Y157.34 E0.03897
G1 X62.347 Y157.093 E0.03045
G1 X60.959 Y156.528 E0.04698
G1 X60.1 Y156.039 E0.03099
G1 X58.898 Y155.129 E0.04727
G1 X58.194 Y154.434 E0.03101
G1 X57.269 Y153.244 E0.04726
G1 X56.77 Y152.391 E0.03099
G1 X56.184 Y151.002 E0.04726
G1 X55.923 Y150.049 E0.03101
G1 X55.748 Y148.782 E0.04009
G1 X55.712 Y148.267 E0.0162
G1 X55.711 Y133.625 E0.45908
G1 X56.859 Y130.853 E0.09408
G1 X59.091 Y128.62 E0.09898
G1 X61.863 Y127.472 E0.09407
G1 X93.919 Y127.473 E1.00509
G1 X97.206 Y124.184 E0.14579
G1 X98.441 Y123.358 E0.04659
G1 X99.883 Y122.761 E0.04894
G1 X101.341 Y122.471 E0.04659
G1 X118.509 Y122.469 E0.53829
G1 X118.507 Y97.529 E0.78197
G1 X115.799 Y97.53 E0.08493
G1 X115.308 Y97.498 E0.01541
G1 X113.292 Y97.234 E0.06375
G1 X112.344 Y96.981 E0.03078
G1 X110.229 Y96.111 E0.0717
G1 X109.371 Y95.619 E0.03099
G1 X107.551 Y94.229 E0.07181
G1 X106.85 Y93.532 E0.031
G1 X105.451 Y91.719 E0.07182
G1 X104.955 Y90.864 E0.031
G1 X104.073 Y88.75 E0.07182
G1 X103.814 Y87.795 E0.031
G1 X103.541 Y85.759 E0.06442
G1 X103.508 Y85.257 E0.01577
G1 X103.506 Y64.762 E0.64263
G1 X103.538 Y64.271 E0.01541
G1 X103.802 Y62.255 E0.06375
G1 X104.054 Y61.306 E0.03078
G1 X104.901 Y59.247 E0.06982
G1 X105.076 Y59.319 F10800
M204 P1000
G1 X105.25 Y59.39
G1 F1200
G1 X105.263 Y59.358 E0.00111
G1 X105.731 Y58.543 E0.02944
G1 X107.091 Y56.762 E0.07026
G1 X107.753 Y56.096 E0.02945
G1 X109.528 Y54.727 E0.07027
G1 X110.34 Y54.256 E0.02945
G1 X112.408 Y53.393 E0.07026
G1 X113.315 Y53.147 E0.02945
G1 X115.314 Y52.879 E0.06325
G1 X115.791 Y52.847 E0.01499
G1 X140.778 Y52.846 E0.78344
G1 X141.246 Y52.877 E0.01471
G1 X141.73 Y52.94 E0.01532
G1 X142.43 Y53.032 E0.02212
G1 X143.316 Y53.267 E0.02874
G1 X144.656 Y53.812 E0.04535
G1 X145.472 Y54.276 E0.02944
G1 X146.634 Y55.157 E0.04571
G1 X147.302 Y55.817 E0.02945
G1 X148.197 Y56.968 E0.04571
G1 X148.672 Y57.778 E0.02944
G1 X149.238 Y59.122 E0.04572
G1 X149.487 Y60.028 E0.02947
G1 X149.657 Y61.257 E0.0389
G1 X149.69 Y61.746 E0.01537
G1 X149.692 Y68.799 E0.22114
G1 X148.605 Y71.429 E0.08923
G1 X146.79 Y73.249 E0.08058
G1 X146.79 Y76.752 E0.10985
G1 X148.601 Y78.564 E0.08031
G1 X149.692 Y81.196 E0.08935
G1 X149.693 Y99.201 E0.56453
G1 X149.744 Y99.35 E0.00492
G1 X149.813 Y99.491 E0.00492
G1 X175.566 Y125.241 E1.14186
G1 X176.656 Y127.869 E0.08921
G1 X176.66 Y130.438 E0.08057
G1 X179.136 Y132.914 E0.10979
G1 X181.705 Y132.917 E0.08057
G1 X184.333 Y134.008 E0.08921
G1 X190.389 Y140.063 E0.26851
G1 X190.634 Y140.334 E0.01146
G1 X192.122 Y142.161 E0.07387
G1 X192.652 Y143.047 E0.03237
G1 X193.516 Y145.114 E0.07026
G1 X193.751 Y145.949 E0.0272
G1 X193.891 Y146.846 E0.02845
G1 X193.92 Y147.701 E0.02685
G1 X193.754 Y149.654 E0.06144
G1 X193.493 Y150.727 E0.03463
G1 X193.048 Y151.802 E0.03647
G1 X192.474 Y152.745 E0.03463
G1 X191.211 Y154.243 E0.06144
G1 X190.585 Y154.828 E0.02686
G1 X189.857 Y155.36 E0.02828
G1 X189.11 Y155.78 E0.02686
G1 X187.069 Y156.626 E0.06925
G1 X186.068 Y156.88 E0.03241
G1 X183.702 Y157.129 E0.07459
G1 X183.327 Y157.148 E0.01176
G1 X65.017 Y157.155 E3.70952
M73 P0 R157
G1 X64.555 Y157.125 E0.01453
G1 X63.359 Y156.969 E0.03783
G1 X62.467 Y156.734 E0.02892
G1 X61.124 Y156.188 E0.04545
G1 X60.308 Y155.724 E0.02944
G1 X59.145 Y154.843 E0.04572
G1 X58.477 Y154.183 E0.02946
G1 X57.582 Y153.032 E0.04571
G1 X57.108 Y152.222 E0.02944
G1 X56.542 Y150.878 E0.04571
G1 X56.293 Y149.973 E0.02946
G1 X56.123 Y148.743 E0.03891
G1 X56.09 Y148.254 E0.01539
G1 X56.088 Y133.7 E0.45632
G1 X57.179 Y131.066 E0.08938
G1 X59.305 Y128.94 E0.09427
G1 X61.938 Y127.849 E0.08937
G1 X94.075 Y127.85 E1.00764
G1 X97.446 Y124.477 E0.14953
G1 X98.62 Y123.692 E0.04426
G1 X99.993 Y123.123 E0.04661
G1 X101.378 Y122.848 E0.04426
G1 X118.886 Y122.846 E0.54895
G1 X118.884 Y97.152 E0.80562
G1 X115.811 Y97.152 E0.09636
G1 X115.345 Y97.122 E0.01464
G1 X113.366 Y96.863 E0.06259
G1 X112.465 Y96.623 E0.02924
G1 X110.395 Y95.772 E0.07016
G1 X109.581 Y95.304 E0.02944
G1 X107.799 Y93.945 E0.07026
G1 X107.134 Y93.282 E0.02945
G1 X105.765 Y91.508 E0.07027
G1 X105.293 Y90.696 E0.02945
G1 X104.43 Y88.627 E0.07027
G1 X104.185 Y87.721 E0.02945
G1 X103.916 Y85.721 E0.06325
G1 X103.885 Y85.245 E0.01498
G1 X103.883 Y64.774 E0.64185
G1 X103.913 Y64.308 E0.01464
G1 X104.172 Y62.328 E0.0626
G1 X104.412 Y61.427 E0.02924
G1 X105.227 Y59.446 E0.06717
M204 P1500
G1 X105.402 Y59.518 F10800
M204 P1000
G1 X105.576 Y59.589
G1 F1200
G1 X105.603 Y59.524 E0.00221
G1 X106.046 Y58.752 E0.02789
G1 X107.375 Y57.01 E0.06871
G1 X108.003 Y56.38 E0.0279
G1 X109.738 Y55.041 E0.06872
G1 X110.508 Y54.594 E0.0279
G1 X112.53 Y53.75 E0.06871
G1 X113.389 Y53.518 E0.0279
G1 X115.352 Y53.255 E0.06209
G1 X115.803 Y53.224 E0.0142
G1 X140.765 Y53.223 E0.78266
G1 X141.209 Y53.252 E0.01394
G1 X141.681 Y53.314 E0.01494
G1 X142.357 Y53.403 E0.02136
G1 X143.196 Y53.625 E0.02723
G1 X144.491 Y54.152 E0.04382
G1 X145.264 Y54.592 E0.02789
G1 X146.387 Y55.442 E0.04416
G1 X147.02 Y56.068 E0.0279
G1 X147.884 Y57.18 E0.04416
G1 X148.334 Y57.947 E0.02789
G1 X148.881 Y59.245 E0.04417
G1 X149.117 Y60.104 E0.02792
G1 X149.281 Y61.296 E0.03772
G1 X149.313 Y61.759 E0.01456
G1 X149.315 Y68.724 E0.21839
G1 X148.285 Y71.216 E0.08453
G1 X146.413 Y73.093 E0.08312
G1 X146.413 Y76.908 E0.11963
G1 X148.282 Y78.777 E0.08286
G1 X149.315 Y81.271 E0.08465
G1 X149.316 Y99.217 E0.56268
G1 X149.32 Y99.265 E0.00149
G1 X149.33 Y99.309 E0.00141
G1 X149.395 Y99.494 E0.00617
G1 X149.48 Y99.672 E0.00617
G1 X149.504 Y99.71 E0.00142
G1 X149.535 Y99.746 E0.00149
G1 X175.246 Y125.455 E1.14002
G1 X176.279 Y127.944 E0.08451
G1 X176.283 Y130.595 E0.08311
G1 X178.98 Y133.291 E0.11956
G1 X181.63 Y133.294 E0.08311
G1 X184.12 Y134.327 E0.08451
G1 X190.116 Y140.323 E0.26586
G1 X190.348 Y140.58 E0.01086
G1 X191.812 Y142.378 E0.07272
G1 X192.315 Y143.217 E0.03066
G1 X193.159 Y145.238 E0.06869
G1 X193.382 Y146.029 E0.02577
G1 X193.514 Y146.881 E0.02702
G1 X193.542 Y147.692 E0.02544
G1 X193.381 Y149.593 E0.05982
G1 X193.133 Y150.61 E0.03281
G1 X192.71 Y151.63 E0.03464
G1 X192.167 Y152.524 E0.03281
G1 X190.937 Y153.983 E0.05982
G1 X190.344 Y154.537 E0.02545
G1 X189.652 Y155.043 E0.02686
G1 X188.945 Y155.441 E0.02545
G1 X186.95 Y156.267 E0.06769
G1 X186.001 Y156.508 E0.0307
G1 X183.672 Y156.753 E0.07343
G1 X183.317 Y156.771 E0.01114
G1 X65.03 Y156.778 E3.70883
G1 X64.591 Y156.749 E0.01377
G1 X63.431 Y156.599 E0.03668
G1 X62.586 Y156.376 E0.0274
G1 X61.289 Y155.848 E0.04391
G1 X60.516 Y155.408 E0.0279
G1 X59.393 Y154.558 E0.04417
G1 X58.76 Y153.932 E0.02791
G1 X57.895 Y152.82 E0.04416
G1 X57.446 Y152.053 E0.02789
G1 X56.899 Y150.755 E0.04416
G1 X56.663 Y149.897 E0.0279
G1 X56.498 Y148.705 E0.03773
G1 X56.467 Y148.241 E0.01458
G1 X56.465 Y133.775 E0.45357
G1 X57.498 Y131.28 E0.08467
G1 X59.518 Y129.26 E0.08957
G1 X62.013 Y128.226 E0.08467
G1 X94.231 Y128.227 E1.01019
M73 Q0 S159
G1 X97.687 Y124.77 E0.15326
G1 X98.799 Y124.027 E0.04193
G1 X100.103 Y123.486 E0.04428
G1 X101.415 Y123.225 E0.04193
G1 X119.263 Y123.223 E0.55961
G1 X119.261 Y96.775 E0.82927
G1 X115.823 Y96.775 E0.1078
G1 X115.382 Y96.747 E0.01387
G1 X113.439 Y96.492 E0.06144
G1 X112.585 Y96.265 E0.0277
G1 X110.561 Y95.433 E0.06862
G1 X109.79 Y94.99 E0.0279
G1 X108.048 Y93.66 E0.06871
G1 X107.417 Y93.032 E0.0279
G1 X106.078 Y91.297 E0.06872
G1 X105.632 Y90.528 E0.0279
G1 X104.788 Y88.505 E0.06872
G1 X104.555 Y87.646 E0.0279
G1 X104.292 Y85.684 E0.06208
G1 X104.262 Y85.232 E0.01419
G1 X104.26 Y64.786 E0.64107
G1 X104.289 Y64.345 E0.01387
G1 X104.543 Y62.402 E0.06144
G1 X104.77 Y61.548 E0.0277
G1 X105.553 Y59.645 E0.06452
M204 P1500
G1 X105.728 Y59.716 F10800
M204 P1000
G1 X105.902 Y59.788
G1 F1200
G1 X105.942 Y59.69 E0.00332
G1 X106.36 Y58.962 E0.02634
G1 X107.66 Y57.259 E0.06716
G1 X108.253 Y56.663 E0.02635
G1 X109.949 Y55.355 E0.06717
G1 X110.676 Y54.933 E0.02635
G1 X112.653 Y54.108 E0.06716
G1 X113.464 Y53.888 E0.02635
G1 X115.389 Y53.63 E0.06092
G1 X115.816 Y53.601 E0.01341
G1 X140.753 Y53.6 E0.78188
G1 X141.172 Y53.628 E0.01316
G1 X141.632 Y53.688 E0.01455
G1 X142.283 Y53.774 E0.0206
G1 X143.076 Y53.984 E0.02571
G1 X144.326 Y54.492 E0.04229
G1 X145.056 Y54.908 E0.02634
G1 X146.139 Y55.728 E0.04261
G1 X146.737 Y56.319 E0.02635
G1 X147.571 Y57.391 E0.04261
G1 X147.996 Y58.117 E0.02635
G1 X148.524 Y59.369 E0.04262
G1 X148.747 Y60.18 E0.02637
G1 X148.906 Y61.335 E0.03654
G1 X148.936 Y61.772 E0.01375
G1 X148.937 Y68.649 E0.21563
G1 X147.965 Y71.003 E0.07983
G1 X146.057 Y72.916 E0.08471
G1 X146.036 Y72.925 E0.00072
G1 X146.036 Y77.072 E0.13004
G1 X146.049 Y77.077 E0.00043
G1 X147.962 Y78.991 E0.08484
G1 X148.938 Y81.346 E0.07995
G1 X148.939 Y99.233 E0.56083
G1 X148.946 Y99.323 E0.00281
G1 X148.967 Y99.413 E0.00291
G1 X149.046 Y99.639 E0.0075
G1 X149.15 Y99.854 E0.0075
G1 X149.199 Y99.933 E0.00292
G1 X149.257 Y100.001 E0.00281
G1 X174.926 Y125.668 E1.13817
G1 X175.902 Y128.019 E0.07982
G1 X175.906 Y130.721 E0.0847
G1 X175.897 Y130.742 E0.00072
G1 X178.832 Y133.676 E0.13012
G1 X178.853 Y133.668 E0.00072
G1 X181.555 Y133.671 E0.0847
G1 X183.906 Y134.647 E0.07982
G1 X189.842 Y140.583 E0.26321
G1 X190.061 Y140.825 E0.01025
G1 X191.503 Y142.595 E0.07157
G1 X191.977 Y143.387 E0.02896
G1 X192.803 Y145.363 E0.06712
G1 X193.013 Y146.11 E0.02434
G1 X193.138 Y146.917 E0.0256
G1 X193.165 Y147.682 E0.02403
G1 X193.007 Y149.532 E0.0582
G1 X192.774 Y150.492 E0.03099
G1 X192.373 Y151.459 E0.03282
G1 X191.86 Y152.304 E0.03099
G1 X190.663 Y153.723 E0.0582
G1 X190.103 Y154.246 E0.02403
G1 X189.448 Y154.725 E0.02545
G1 X188.78 Y155.101 E0.02403
G1 X186.831 Y155.908 E0.06613
G1 X185.935 Y156.136 E0.029
G1 X183.642 Y156.377 E0.07227
G1 X183.307 Y156.394 E0.01052
G1 X65.042 Y156.401 E3.70814
G1 X64.628 Y156.374 E0.013
G1 X63.504 Y156.228 E0.03554
G1 X62.706 Y156.017 E0.02588
G1 X61.454 Y155.508 E0.04237
G1 X60.724 Y155.093 E0.02635
G1 X59.64 Y154.272 E0.04262
G1 X59.042 Y153.681 E0.02636
G1 X58.208 Y152.608 E0.04261
G1 X57.784 Y151.883 E0.02634
G1 X57.256 Y150.631 E0.04261
G1 X57.033 Y149.821 E0.02635
G1 X56.874 Y148.666 E0.03655
G1 X56.844 Y148.228 E0.01377
G1 X56.842 Y133.85 E0.45081
G1 X57.818 Y131.493 E0.07997
G1 X59.732 Y129.579 E0.08486
G1 X62.088 Y128.603 E0.07996
G1 X94.388 Y128.604 E1.01273
G1 X97.927 Y125.063 E0.15699
G1 X98.977 Y124.361 E0.0396
G1 X100.213 Y123.848 E0.04195
M73 P1 R157
G1 X101.452 Y123.602 E0.0396
G1 X119.64 Y123.6 E0.57026
G1 X119.639 Y96.398 E0.85291
M73 Q1 S159
G1 X115.836 Y96.398 E0.11924
G1 X115.419 Y96.371 E0.0131
G1 X113.512 Y96.122 E0.06028
G1 X112.706 Y95.907 E0.02616
G1 X110.728 Y95.093 E0.06707
G1 X109.999 Y94.675 E0.02635
G1 X108.296 Y93.375 E0.06716
G1 X107.7 Y92.783 E0.02635
G1 X106.392 Y91.086 E0.06717
G1 X105.97 Y90.36 E0.02635
G1 X105.145 Y88.383 E0.06717
G1 X104.926 Y87.571 E0.02635
G1 X104.667 Y85.646 E0.06091
G1 X104.639 Y85.219 E0.0134
G1 X104.637 Y64.798 E0.64029
G1 X104.664 Y64.381 E0.0131
G1 X104.914 Y62.475 E0.06029
G1 X105.129 Y61.669 E0.02616
G1 X105.879 Y59.844 E0.06187
M204 P1500
G1 X106.053 Y59.915 F10800
M204 P1000
G1 X106.228 Y59.987
G1 F1200
G1 X106.281 Y59.857 E0.00443
G1 X106.675 Y59.171 E0.02479
G1 X107.945 Y57.507 E0.06561
G1 X108.503 Y56.946 E0.0248
G1 X110.16 Y55.668 E0.06562
G1 X110.844 Y55.271 E0.0248
G1 X112.775 Y54.465 E0.06562
G1 X113.538 Y54.259 E0.0248
G1 X115.427 Y54.005 E0.05975
G1 X115.829 Y53.978 E0.01262
G1 X140.741 Y53.977 E0.7811
G1 X141.135 Y54.003 E0.01239
G1 X141.583 Y54.062 E0.01416
G1 X142.21 Y54.145 E0.01985
G1 X142.957 Y54.342 E0.0242
G1 X144.161 Y54.832 E0.04076
G1 X144.848 Y55.223 E0.0248
G1 X145.892 Y56.014 E0.04106
G1 X146.455 Y56.569 E0.0248
G1 X147.259 Y57.603 E0.04106
G1 X147.658 Y58.286 E0.0248
G1 X148.167 Y59.493 E0.04107
G1 X148.377 Y60.256 E0.02482
G1 X148.531 Y61.373 E0.03536
G1 X148.559 Y61.785 E0.01294
G1 X148.56 Y68.575 E0.21288
G1 X147.645 Y70.789 E0.07514
G1 X145.843 Y72.596 E0.08002
G1 X145.659 Y72.673 E0.00626
G1 X145.659 Y77.324 E0.14582
G1 X145.835 Y77.397 E0.00598
G1 X147.642 Y79.204 E0.08014
G1 X148.561 Y81.421 E0.07524
G1 X148.562 Y99.249 E0.55898
M73 P1 R156
G1 X148.573 Y99.38 E0.00413
G1 X148.604 Y99.518 E0.00441
G1 X148.697 Y99.783 E0.00883
G1 X148.819 Y100.037 E0.00882
G1 X148.894 Y100.156 E0.00441
G1 X148.979 Y100.257 E0.00413
G1 X174.607 Y125.882 E1.13633
G1 X175.525 Y128.095 E0.07512
G1 X175.529 Y130.647 E0.08001
G1 X175.453 Y130.831 E0.00626
G1 X178.743 Y134.121 E0.14588
G1 X178.928 Y134.045 E0.00626
G1 X181.479 Y134.048 E0.08001
G1 X183.692 Y134.967 E0.07512
G1 X189.569 Y140.842 E0.26056
G1 X189.775 Y141.071 E0.00965
