; generated by SuperSlicer 2.3.57 on 2022-03-07 at 15:29:51 UTC

; 

; external perimeters extrusion width = 0.45mm
; perimeters extrusion width = 0.45mm
; infill extrusion width = 0.45mm
; solid infill extrusion width = 0.45mm
; top infill extrusion width = 0.40mm
; first layer extrusion width = 0.42mm

; object:{"name":"Blue - LCD Support (L)_1","id":"Blue - LCD Support (L)_1.stl id:0 copy 0","object_center":[125.000000,105.000000,0.000000],"boundingbox_center":[125.000000,105.000000,22.665405],"boundingbox_size":[123.517395,90.002686,45.331390]}
; Total objects to print: 1
M486 T1
; plater:{"center":[125.000000,105.000000,0.000000],"boundingbox_center":[125.000000,105.000000,22.665405],"boundingbox_size":[123.517395,90.002686,45.331390]}

M73 P0 R158
M73 Q0 S161
;TYPE:Custom
M862.3 P "MK3S" ; printer model check
M862.1 P0.4 ; nozzle diameter check
M115 U3.10.0 ; tell printer latest fw version
G90 ; use absolute coordinates
M83 ; extruder relative mode
M104 S255 ; set extruder temp
M140 S100 ; set bed temp
M190 S100 ; wait for bed temp
M109 S255 ; wait for extruder temp
G28 W ; home all without mesh bed level
G80 ; mesh bed leveling
G1 Y-3.0 F1000.0 ; go outside print area
G92 E0.0
G1 X60.0 E9.0 F1000.0 ; intro line
M73 Q0 S160
G1 X100.0 E12.5 F1000.0 ; intro line
G92 E0.0
M221 S95

; Don't change E values below. Excessive value can damage the printer.
M907 E430 ; set extruder motor current
M107
G21 ; set units to millimeters
G90 ; use absolute coordinates
M83 ; use relative distances for extrusion
M900 K0.04 ; Filament gcode LA 1.5
M900 K20 ; Filament gcode LA 1.0
;LAYER_CHANGE
;Z:0.2
;HEIGHT:0.2
;BEFORE_LAYER_CHANGE
G92 E0.0
;0.2


G1 E-0.8 F2100
G1 Z0.4 F10800
;AFTER_LAYER_CHANGE
;0.2
G1 Z0.6
M204 P1500
G1 X101.051 Y57.5
G1 Z0.2
G1 E0.8 F2100
;TYPE:Skirt
;WIDTH:0.42
G1 F1200
G1 X101.417 Y56.858 E0.02318
G1 X102.327 Y55.656 E0.04726
G1 X103.022 Y54.953 E0.031
G1 X104.212 Y54.028 E0.04726
G1 X105.064 Y53.528 E0.03099
G1 X106.453 Y52.942 E0.04726
G1 X107.407 Y52.681 E0.03101
G1 X108.674 Y52.506 E0.04009
G1 X109.19 Y52.47 E0.01621
G1 X134.208 Y52.469 E0.78444
G1 X134.701 Y52.502 E0.01548
G1 X135.37 Y52.59 E0.02117
G1 X136.704 Y52.765 E0.0422
G1 X137.651 Y53.018 E0.0307
G1 X139.764 Y53.887 E0.07167
G1 X140.622 Y54.379 E0.03099
G1 X142.442 Y55.769 E0.07181
G1 X143.143 Y56.466 E0.03099
G1 X144.542 Y58.28 E0.07182
G1 X145.039 Y59.135 E0.031
G1 X145.921 Y61.249 E0.07182
G1 X146.179 Y62.203 E0.031
G1 X146.452 Y64.239 E0.06442
G1 X146.486 Y64.741 E0.01577
G1 X146.487 Y83.534 E0.58926
G1 X146.487 Y85.237 E0.05338
G1 X146.455 Y85.727 E0.01541
G1 X146.191 Y87.743 E0.06375
G1 X145.939 Y88.692 E0.03078
G1 X145.069 Y90.807 E0.07171
G1 X144.577 Y91.664 E0.031
G1 X143.187 Y93.485 E0.07182
G1 X142.49 Y94.186 E0.031
G1 X140.676 Y95.585 E0.07181
G1 X139.821 Y96.081 E0.03099
G1 X137.708 Y96.963 E0.07181
G1 X136.753 Y97.221 E0.031
G1 X134.717 Y97.494 E0.06442
G1 X134.215 Y97.528 E0.01576
G1 X131.488 Y97.528 E0.08551
G1 X131.489 Y122.469 E0.78199
G1 X148.657 Y122.468 E0.53829
G1 X150.114 Y122.758 E0.04659
G1 X151.556 Y123.356 E0.04894
G1 X152.792 Y124.181 E0.04659
G1 X156.079 Y127.47 E0.14579
G1 X188.135 Y127.466 E1.00509
G1 X190.907 Y128.614 E0.09407
G1 X193.139 Y130.846 E0.09897
G1 X194.288 Y133.618 E0.09407
G1 X194.288 Y148.233 E0.45824
G1 X194.257 Y148.719 E0.01529
G1 X194.097 Y149.952 E0.03897
G1 X193.849 Y150.891 E0.03045
G1 X193.284 Y152.279 E0.04698
G1 X192.796 Y153.138 E0.03099
G1 X191.886 Y154.34 E0.04726
G1 X191.191 Y155.043 E0.031
G1 X190.001 Y155.968 E0.04726
G1 X189.148 Y156.468 E0.031
G1 X187.759 Y157.053 E0.04726
G1 X186.805 Y157.315 E0.03101
G1 X185.538 Y157.49 E0.04009
G1 X185.023 Y157.526 E0.01621
G1 X66.679 Y157.531 E3.7106
G1 X66.294 Y157.512 E0.01206
G1 X63.914 Y157.268 E0.07502
G1 X62.86 Y157.004 E0.03407
G1 X60.741 Y156.134 E0.07182
G1 X59.944 Y155.688 E0.02863
G1 X59.175 Y155.125 E0.02987
G1 X58.516 Y154.51 E0.02827
G1 X57.22 Y152.973 E0.06306
G1 X56.616 Y151.979 E0.03646
G1 X56.148 Y150.851 E0.03829
G1 X55.873 Y149.721 E0.03646
G1 X55.702 Y147.718 E0.06306
G1 X55.733 Y146.817 E0.02827
G1 X55.878 Y145.881 E0.02969
G1 X56.122 Y145.013 E0.02827
G1 X56.986 Y142.926 E0.07081
G1 X57.542 Y141.991 E0.03411
G1 X59.063 Y140.113 E0.07575
G1 X59.327 Y139.82 E0.01237
G1 X65.451 Y133.694 E0.27161
G1 X68.218 Y132.546 E0.09391
G1 X70.706 Y132.542 E0.07803
G1 X72.962 Y130.287 E0.10001
G1 X72.965 Y127.798 E0.07803
G1 X74.113 Y125.032 E0.0939
G1 X99.873 Y99.27 E1.14229
G1 X99.903 Y99.208 E0.00216
G1 X99.926 Y99.142 E0.00217
G1 X99.925 Y81.124 E0.56496
G1 X101.072 Y78.352 E0.09405
G1 X102.826 Y76.598 E0.07777
G1 X102.826 Y73.407 E0.10006
G1 X101.068 Y71.645 E0.07803
G1 X99.924 Y68.877 E0.0939
G1 X99.924 Y61.763 E0.22305
G1 X99.955 Y61.276 E0.01529
G1 X100.115 Y60.044 E0.03897
G1 X100.363 Y59.105 E0.03045
G1 X100.928 Y57.717 E0.04698
G1 X101.021 Y57.552 E0.00594
G1 X101.185 Y57.646 F10800
M204 P1000
G1 X101.349 Y57.739
G1 F1200
G1 X101.732 Y57.066 E0.02429
G1 X102.613 Y55.903 E0.04571
G1 X103.273 Y55.235 E0.02945
G1 X104.424 Y54.34 E0.04571
G1 X105.234 Y53.866 E0.02944
G1 X106.577 Y53.3 E0.04571
G1 X107.483 Y53.051 E0.02946
G1 X108.713 Y52.881 E0.03891
G1 X109.203 Y52.847 E0.0154
G1 X134.196 Y52.846 E0.78364
G1 X134.664 Y52.877 E0.01471
G1 X135.321 Y52.964 E0.02078
G1 X136.631 Y53.136 E0.04143
G1 X137.53 Y53.376 E0.02917
G1 X139.598 Y54.226 E0.07012
G1 X140.413 Y54.694 E0.02944
G1 X142.194 Y56.053 E0.07026
G1 X142.86 Y56.716 E0.02944
G1 X144.228 Y58.49 E0.07027
G1 X144.7 Y59.303 E0.02945
G1 X145.563 Y61.371 E0.07027
G1 X145.808 Y62.278 E0.02945
G1 X146.077 Y64.277 E0.06325
G1 X146.108 Y64.754 E0.01498
G1 X146.11 Y83.534 E0.58886
G1 X146.11 Y85.225 E0.05299
G1 X146.08 Y85.69 E0.01464
G1 X145.821 Y87.67 E0.06259
G1 X145.581 Y88.571 E0.02924
G1 X144.73 Y90.641 E0.07016
G1 X144.262 Y91.455 E0.02945
G1 X142.902 Y93.236 E0.07027
G1 X142.24 Y93.902 E0.02945
G1 X140.465 Y95.271 E0.07026
G1 X139.653 Y95.742 E0.02944
G1 X137.585 Y96.605 E0.07026
G1 X136.678 Y96.851 E0.02945
G1 X134.679 Y97.119 E0.06325
G1 X134.203 Y97.151 E0.01498
G1 X131.111 Y97.151 E0.09694
G1 X131.112 Y122.846 E0.80564
G1 X148.62 Y122.846 E0.54895
M73 P0 R157
G1 X150.004 Y123.121 E0.04426
G1 X151.378 Y123.69 E0.04661
G1 X152.551 Y124.474 E0.04426
G1 X155.923 Y127.847 E0.14952
G1 X188.06 Y127.843 E1.00764
G1 X190.694 Y128.934 E0.08937
G1 X192.82 Y131.06 E0.09427
G1 X193.911 Y133.693 E0.08937
G1 X193.911 Y148.221 E0.4555
G1 X193.881 Y148.683 E0.01453
G1 X193.726 Y149.879 E0.03783
G1 X193.491 Y150.771 E0.02892
G1 X192.944 Y152.114 E0.04545
G1 X192.48 Y152.93 E0.02944
G1 X191.6 Y154.092 E0.04571
G1 X190.94 Y154.761 E0.02945
G1 X189.789 Y155.655 E0.04571
G1 X188.978 Y156.13 E0.02945
G1 X187.635 Y156.696 E0.04571
G1 X186.729 Y156.945 E0.02946
G1 X185.5 Y157.115 E0.03891
G1 X185.01 Y157.148 E0.0154
G1 X66.688 Y157.154 E3.70989
G1 X66.323 Y157.136 E0.01146
G1 X63.979 Y156.896 E0.07387
G1 X62.978 Y156.645 E0.03236
G1 X60.906 Y155.794 E0.07025
G1 X60.149 Y155.37 E0.0272
G1 X59.416 Y154.834 E0.02845
G1 X58.79 Y154.25 E0.02686
G1 X57.527 Y152.752 E0.06144
G1 X56.953 Y151.808 E0.03464
G1 X56.508 Y150.734 E0.03647
G1 X56.246 Y149.66 E0.03463
G1 X56.08 Y147.708 E0.06144
G1 X56.109 Y146.852 E0.02686
G1 X56.248 Y145.961 E0.02827
G1 X56.479 Y145.136 E0.02686
G1 X57.324 Y143.095 E0.06925
G1 X57.852 Y142.207 E0.03241
G1 X59.349 Y140.358 E0.07459
G1 X59.6 Y140.08 E0.01175
G1 X65.665 Y134.014 E0.26896
G1 X68.293 Y132.923 E0.08921
G1 X70.863 Y132.919 E0.08057
G1 X73.339 Y130.443 E0.10979
G1 X73.342 Y127.874 E0.08057
G1 X74.432 Y125.246 E0.08921
G1 X100.183 Y99.493 E1.14186
G1 X100.251 Y99.352 E0.00492
G1 X100.303 Y99.204 E0.00493
G1 X100.302 Y81.199 E0.56453
G1 X101.392 Y78.566 E0.08935
G1 X103.203 Y76.754 E0.08032
G1 X103.203 Y73.251 E0.10984
G1 X101.388 Y71.431 E0.08057
G1 X100.301 Y68.802 E0.08921
G1 X100.301 Y61.775 E0.22032
G1 X100.331 Y61.313 E0.01453
G1 X100.486 Y60.117 E0.03783
G1 X100.721 Y59.225 E0.02892
G1 X101.268 Y57.882 E0.04545
G1 X101.32 Y57.791 E0.00328
M204 P1500
G1 X101.483 Y57.884 F10800
M204 P1000
G1 X101.647 Y57.977
G1 F1200
G1 X102.048 Y57.274 E0.02539
G1 X102.898 Y56.151 E0.04416
G1 X103.523 Y55.518 E0.0279
G1 X104.635 Y54.653 E0.04416
G1 X105.403 Y54.204 E0.02789
G1 X106.701 Y53.657 E0.04416
G1 X107.559 Y53.421 E0.02791
G1 X108.751 Y53.256 E0.03773
G1 X109.215 Y53.225 E0.01459
G1 X134.183 Y53.223 E0.78285
G1 X134.627 Y53.253 E0.01393
G1 X135.272 Y53.337 E0.02039
G1 X136.557 Y53.507 E0.04066
G1 X137.409 Y53.734 E0.02763
G1 X139.432 Y54.566 E0.06858
G1 X140.204 Y55.009 E0.0279
G1 X141.946 Y56.338 E0.06871
G1 X142.576 Y56.966 E0.02789
G1 X143.915 Y58.701 E0.06872
G1 X144.362 Y59.471 E0.0279
G1 X145.205 Y61.493 E0.06872
G1 X145.438 Y62.352 E0.0279
G1 X145.701 Y64.315 E0.06208
G1 X145.731 Y64.766 E0.01419
G1 X145.733 Y83.534 E0.58847
G1 X145.733 Y85.212 E0.05261
G1 X145.704 Y85.654 E0.01387
G1 X145.45 Y87.597 E0.06144
G1 X145.223 Y88.45 E0.0277
G1 X144.39 Y90.474 E0.06862
G1 X143.947 Y91.246 E0.0279
G1 X142.618 Y92.988 E0.06872
G1 X141.99 Y93.619 E0.0279
G1 X140.255 Y94.957 E0.06871
G1 X139.485 Y95.404 E0.02789
G1 X137.463 Y96.248 E0.06871
G1 X136.604 Y96.48 E0.0279
G1 X134.641 Y96.744 E0.06208
G1 X134.19 Y96.774 E0.01419
G1 X130.734 Y96.774 E0.10837
G1 X130.735 Y123.223 E0.82928
G1 X148.583 Y123.223 E0.55961
G1 X149.894 Y123.484 E0.04193
G1 X151.199 Y124.024 E0.04428
G1 X152.311 Y124.767 E0.04193
G1 X155.767 Y128.224 E0.15326
G1 X187.985 Y128.22 E1.01019
G1 X190.48 Y129.254 E0.08467
G1 X192.5 Y131.273 E0.08956
G1 X193.534 Y133.768 E0.08467
G1 X193.534 Y148.208 E0.45277
M73 Q0 S159
G1 X193.506 Y148.646 E0.01376
G1 X193.355 Y149.807 E0.03668
G1 X193.132 Y150.652 E0.0274
G1 X192.605 Y151.949 E0.04391
G1 X192.165 Y152.722 E0.02789
G1 X191.314 Y153.845 E0.04416
G1 X190.689 Y154.478 E0.0279
G1 X189.577 Y155.342 E0.04416
G1 X188.809 Y155.792 E0.0279
G1 X187.511 Y156.339 E0.04416
G1 X186.653 Y156.575 E0.02791
G1 X185.461 Y156.739 E0.03773
G1 X184.997 Y156.771 E0.01459
G1 X66.698 Y156.777 E3.70918
G1 X66.352 Y156.76 E0.01086
G1 X64.045 Y156.524 E0.07272
G1 X63.096 Y156.286 E0.03066
G1 X61.07 Y155.454 E0.06869
G1 X60.353 Y155.052 E0.02577
G1 X59.657 Y154.543 E0.02703
G1 X59.064 Y153.99 E0.02544
G1 X57.834 Y152.531 E0.05982
G1 X57.29 Y151.637 E0.03281
G1 X56.867 Y150.616 E0.03465
G1 X56.62 Y149.599 E0.03281
G1 X56.458 Y147.698 E0.05982
G1 X56.485 Y146.888 E0.02544
G1 X56.617 Y146.041 E0.02686
G1 X56.836 Y145.26 E0.02544
G1 X57.662 Y143.265 E0.06769
G1 X58.163 Y142.423 E0.0307
G1 X59.636 Y140.603 E0.07343
G1 X59.874 Y140.34 E0.01113
G1 X65.879 Y134.333 E0.2663
G1 X68.368 Y133.3 E0.08452
G1 X71.019 Y133.296 E0.08311
G1 X73.715 Y130.599 E0.11956
G1 X73.719 Y127.949 E0.08311
G1 X74.752 Y125.459 E0.08451
G1 X100.461 Y99.748 E1.14001
G1 X100.491 Y99.712 E0.00149
G1 X100.515 Y99.674 E0.00142
G1 X100.6 Y99.497 E0.00616
G1 X100.666 Y99.311 E0.00617
G1 X100.676 Y99.267 E0.00142
G1 X100.68 Y99.22 E0.00148
G1 X100.679 Y81.274 E0.56268
G1 X101.712 Y78.779 E0.08465
G1 X103.58 Y76.91 E0.08286
G1 X103.58 Y73.095 E0.11963
G1 X101.708 Y71.218 E0.08311
G1 X100.678 Y68.727 E0.08451
G1 X100.678 Y61.787 E0.21759
G1 X100.706 Y61.349 E0.01376
G1 X100.857 Y60.189 E0.03668
G1 X101.08 Y59.344 E0.0274
G1 X101.608 Y58.047 E0.04391
G1 X101.618 Y58.03 E0.00062
M204 P1500
G1 X101.783 Y58.121 F10800
M204 P1000
G1 X101.948 Y58.212
G1 F1200
G1 X102.363 Y57.482 E0.02635
G1 X103.184 Y56.398 E0.04261
G1 X103.774 Y55.8 E0.02635
G1 X104.847 Y54.966 E0.04261
G1 X105.572 Y54.542 E0.02634
G1 X106.824 Y54.014 E0.04261
G1 X107.635 Y53.791 E0.02636
G1 X108.79 Y53.632 E0.03655
G1 X109.228 Y53.602 E0.01378
G1 X134.171 Y53.601 E0.78206
G1 X134.59 Y53.628 E0.01316
G1 X135.222 Y53.711 E0.02
G1 X136.484 Y53.877 E0.0399
G1 X137.288 Y54.092 E0.0261
G1 X139.266 Y54.905 E0.06704
G1 X139.994 Y55.323 E0.02635
G1 X141.697 Y56.623 E0.06716
G1 X142.293 Y57.216 E0.02635
G1 X143.601 Y58.912 E0.06717
G1 X144.023 Y59.639 E0.02635
G1 X144.848 Y61.616 E0.06717
G1 X145.067 Y62.427 E0.02635
G1 X145.326 Y64.352 E0.06091
G1 X145.354 Y64.779 E0.0134
G1 X145.356 Y83.535 E0.58807
G1 X145.356 Y85.2 E0.05222
G1 X145.329 Y85.617 E0.0131
G1 X145.079 Y87.523 E0.06028
G1 X144.865 Y88.33 E0.02616
G1 X144.051 Y90.308 E0.06707
G1 X143.633 Y91.037 E0.02635
G1 X142.333 Y92.74 E0.06717
G1 X141.74 Y93.335 E0.02635
G1 X140.044 Y94.644 E0.06716
G1 X139.317 Y95.065 E0.02634
G1 X137.34 Y95.89 E0.06717
G1 X136.529 Y96.11 E0.02635
G1 X134.604 Y96.368 E0.06091
G1 X134.177 Y96.397 E0.0134
G1 X130.357 Y96.397 E0.11979
G1 X130.358 Y123.6 E0.85293
G1 X148.546 Y123.6 E0.57027
G1 X149.784 Y123.846 E0.0396
G1 X151.021 Y124.358 E0.04195
G1 X152.071 Y125.06 E0.0396
G1 X155.611 Y128.601 E0.15699
G1 X187.91 Y128.597 E1.01273
G1 X190.266 Y129.573 E0.07996
G1 X192.18 Y131.487 E0.08486
G1 X193.157 Y133.843 E0.07996
G1 X193.157 Y148.196 E0.45004
G1 X193.13 Y148.61 E0.013
G1 X192.984 Y149.734 E0.03554
G1 X192.774 Y150.532 E0.02588
G1 X192.265 Y151.784 E0.04237
G1 X191.849 Y152.514 E0.02635
G1 X191.028 Y153.598 E0.04261
G1 X190.438 Y154.196 E0.02635
G1 X189.365 Y155.03 E0.04261
G1 X188.64 Y155.454 E0.02635
G1 X187.388 Y155.982 E0.04261
G1 X186.577 Y156.205 E0.02636
G1 X185.422 Y156.364 E0.03655
G1 X184.984 Y156.394 E0.01378
G1 X66.707 Y156.4 E3.70848
G1 X66.381 Y156.384 E0.01025
G1 X64.11 Y156.151 E0.07156
G1 X63.215 Y155.927 E0.02896
G1 X61.234 Y155.114 E0.06712
G1 X60.557 Y154.734 E0.02434
G1 X59.898 Y154.252 E0.0256
G1 X59.338 Y153.729 E0.02403
G1 X58.141 Y152.31 E0.0582
G1 X57.627 Y151.466 E0.03099
G1 X57.227 Y150.499 E0.03282
G1 X56.993 Y149.538 E0.03099
G1 X56.835 Y147.689 E0.0582
G1 X56.862 Y146.923 E0.02403
G1 X56.986 Y146.121 E0.02545
G1 X57.193 Y145.383 E0.02403
G1 X58. Y143.434 E0.06613
G1 X58.473 Y142.639 E0.029
G1 X59.923 Y140.848 E0.07226
G1 X60.147 Y140.599 E0.01051
G1 X66.093 Y134.653 E0.26364
G1 X68.444 Y133.677 E0.07982
M73 P1 R157
G1 X71.145 Y133.673 E0.08471
G1 X71.167 Y133.682 E0.00072
G1 X74.101 Y130.747 E0.13012
G1 X74.092 Y130.726 E0.00072
G1 X74.096 Y128.024 E0.0847
G1 X75.072 Y125.673 E0.07982
G1 X100.739 Y100.004 E1.13817
M73 P1 R156
M73 Q1 S159
G1 X100.796 Y99.935 E0.00281
G1 X100.846 Y99.857 E0.00292
G1 X100.949 Y99.641 E0.00749
G1 X101.029 Y99.415 E0.0075
G1 X101.049 Y99.325 E0.00292
G1 X101.057 Y99.236 E0.0028
G1 X101.056 Y81.349 E0.56083
G1 X102.031 Y78.993 E0.07995
G1 X103.944 Y77.079 E0.08484
G1 X103.957 Y77.074 E0.00043
G1 X103.957 Y72.927 E0.13004
G1 X103.936 Y72.918 E0.00072
G1 X102.028 Y71.005 E0.0847
G1 X101.055 Y68.652 E0.07982
G1 X101.055 Y61.8 E0.21486
G1 X101.082 Y61.386 E0.013
G1 X101.228 Y60.262 E0.03554
G1 X101.438 Y59.464 E0.02588
G1 X101.925 Y58.268 E0.04049
M204 P1500
G1 X102.1 Y58.339 F10800
M204 P1000
G1 X102.274 Y58.41
G1 F1200
G1 X102.288 Y58.377 E0.00111
G1 X102.679 Y57.69 E0.0248
G1 X103.47 Y56.646 E0.04106
G1 X104.025 Y56.083 E0.0248
G1 X105.059 Y55.279 E0.04106
G1 X105.741 Y54.88 E0.02479
G1 X106.948 Y54.371 E0.04106
G1 X107.711 Y54.161 E0.02481
G1 X108.829 Y54.007 E0.03537
G1 X109.241 Y53.979 E0.01297
G1 X134.159 Y53.978 E0.78127
G1 X134.553 Y54.003 E0.01239
G1 X135.173 Y54.085 E0.01962
G1 X136.41 Y54.248 E0.03913
G1 X137.167 Y54.45 E0.02456
G1 X139.099 Y55.244 E0.0655
G1 X139.785 Y55.638 E0.0248
G1 X141.449 Y56.908 E0.06561
G1 X142.009 Y57.465 E0.0248
G1 X143.287 Y59.123 E0.06562
G1 X143.685 Y59.807 E0.0248
G1 X144.49 Y61.738 E0.06562
G1 X144.697 Y62.501 E0.0248
G1 X144.95 Y64.39 E0.05974
G1 X144.977 Y64.791 E0.01261
G1 X144.979 Y83.535 E0.58768
G1 X144.979 Y85.188 E0.05184
G1 X144.953 Y85.58 E0.01233
G1 X144.709 Y87.45 E0.05913
G1 X144.507 Y88.209 E0.02462
G1 X143.712 Y90.142 E0.06553
G1 X143.318 Y90.828 E0.0248
G1 X142.048 Y92.491 E0.06562
G1 X141.49 Y93.052 E0.0248
G1 X139.833 Y94.33 E0.06561
G1 X139.149 Y94.727 E0.02479
G1 X137.218 Y95.533 E0.06562
G1 X136.454 Y95.739 E0.0248
G1 X134.566 Y95.993 E0.05974
G1 X134.165 Y96.02 E0.01261
G1 X129.98 Y96.02 E0.13122
G1 X129.981 Y123.977 E0.87657
G1 X148.509 Y123.977 E0.58092
G1 X149.674 Y124.209 E0.03727
G1 X150.842 Y124.692 E0.03962
G1 X151.83 Y125.353 E0.03727
G1 X155.454 Y128.978 E0.16073
G1 X187.835 Y128.975 E1.01528
G1 X190.053 Y129.893 E0.07526
