; generated by SuperSlicer 2.3.57 on 2022-03-08 at 11:13:57 UTC

; 

; external perimeters extrusion width = 0.45mm
; perimeters extrusion width = 0.45mm
; infill extrusion width = 0.45mm
; solid infill extrusion width = 0.45mm
; top infill extrusion width = 0.40mm
; support material extrusion width = 0.35mm
; first layer extrusion width = 0.42mm

; object:{"name":"Black - Housing Fan Clip (L)_2","id":"Black - Housing Fan Clip (L)_2.stl id:0 copy 0","object_center":[134.522571,89.489974,0.000000],"boundingbox_center":[134.522571,89.489974,10.007630],"boundingbox_size":[13.399989,25.386890,20.015260]}
; object:{"name":"Black - Housing Fan Clip (L)_2","id":"Black - Housing Fan Clip (L)_2.stl id:0 copy 1","object_center":[115.498641,89.489974,0.000000],"boundingbox_center":[115.498641,89.489974,10.007630],"boundingbox_size":[13.399989,25.386890,20.015260]}
; object:{"name":"Black - Housing Fan Clip (R)_2","id":"Black - Housing Fan Clip (R)_2.stl id:1 copy 0","object_center":[134.513104,120.718432,0.000000],"boundingbox_center":[134.513104,120.718432,10.007636],"boundingbox_size":[13.014618,25.002930,20.015272]}
; object:{"name":"Black - Housing Fan Clip (R)_2","id":"Black - Housing Fan Clip (R)_2.stl id:1 copy 1","object_center":[115.499691,120.718113,0.000000],"boundingbox_center":[115.499691,120.718113,10.007636],"boundingbox_size":[13.014618,25.002930,20.015272]}
; Total objects to print: 4
M486 T4
; plater:{"center":[125.010606,105.008213,0.000000],"boundingbox_center":[125.010606,105.008213,10.007636],"boundingbox_size":[32.423919,56.423367,20.015272]}

M73 P0 R78
M73 Q0 S79
;TYPE:Custom
M862.3 P "MK3S" ; printer model check
M862.1 P0.4 ; nozzle diameter check
M115 U3.10.0 ; tell printer latest fw version
G90 ; use absolute coordinates
M83 ; extruder relative mode
M104 S255 ; set extruder temp
M140 S100 ; set bed temp
M190 S100 ; wait for bed temp
M109 S255 ; wait for extruder temp
G28 W ; home all without mesh bed level
G80 ; mesh bed leveling
G1 Y-3.0 F1000.0 ; go outside print area
G92 E0.0
G1 X60.0 E9.0 F1000.0 ; intro line
G1 X100.0 E12.5 F1000.0 ; intro line
G92 E0.0
M221 S95

; Don't change E values below. Excessive value can damage the printer.
M907 E430 ; set extruder motor current
M107
G21 ; set units to millimeters
G90 ; use absolute coordinates
M83 ; use relative distances for extrusion
M900 K0.04 ; Filament gcode LA 1.5
M900 K20 ; Filament gcode LA 1.0
;LAYER_CHANGE
;Z:0.2
;HEIGHT:0.2
;BEFORE_LAYER_CHANGE
G92 E0.0
;0.2


G1 E-0.8 F2100
G1 Z0.4 F10800
;AFTER_LAYER_CHANGE
;0.2
G1 Z0.6
M204 P1500
G1 X102.297 Y73.241
G1 Z0.2
G1 E0.8 F2100
;TYPE:Skirt
;WIDTH:0.42
G1 F1200
G1 X104.46 Y70.943 E0.09894
G1 X107.195 Y69.712 E0.09405
G1 X122.95 Y69.232 E0.49422
G1 X125.303 Y70.124 E0.07888
G1 X126.219 Y69.712 E0.03151
G1 X141.974 Y69.232 E0.49422
G1 X144.78 Y70.296 E0.0941
G1 X147.079 Y72.46 E0.099
G1 X148.311 Y75.197 E0.0941
G1 X148.367 Y77.075 E0.0589
G1 X148.783 Y90.947 E0.43513
G1 X147.719 Y93.751 E0.09404
G1 X145.556 Y96.049 E0.09894
G1 X142.821 Y97.28 E0.09404
G1 X138.971 Y97.397 E0.12075
G1 X139.063 Y100.331 E0.09204
G1 X138.926 Y100.691 E0.01208
G1 X142.39 Y100.691 E0.10859
G1 X145.161 Y101.839 E0.09405
G1 X147.393 Y104.07 E0.09894
G1 X148.541 Y106.841 E0.09405
G1 X148.551 Y131.687 E0.77905
G1 X147.404 Y134.46 E0.09407
G1 X145.172 Y136.692 E0.09897
G1 X142.401 Y137.842 E0.09407
G1 X136.638 Y137.843 E0.1807
G1 X133.864 Y136.695 E0.09413
G1 X131.631 Y134.461 E0.09904
G1 X130.483 Y131.686 E0.09413
G1 X130.485 Y128.751 E0.09203
G1 X129.536 Y128.751 E0.02976
G1 X129.537 Y131.687 E0.09204
G1 X128.39 Y134.459 E0.09407
G1 X126.159 Y136.692 E0.09897
G1 X123.387 Y137.841 E0.09407
G1 X117.624 Y137.843 E0.1807
G1 X114.85 Y136.694 E0.09413
G1 X112.617 Y134.46 E0.09904
G1 X111.47 Y131.686 E0.09413
G1 X111.472 Y128.751 E0.09203
G1 X107.621 Y128.751 E0.12075
G1 X104.85 Y127.604 E0.09404
G1 X102.618 Y125.373 E0.09894
G1 X101.469 Y122.602 E0.09404
G1 X101.462 Y106.846 E0.49403
G1 X102.609 Y104.073 E0.0941
G1 X103.165 Y103.516 E0.02466
G1 X101.98 Y100.881 E0.09063
G1 X101.233 Y76.045 E0.77905
G1 X102.276 Y73.297 E0.09217
G1 X102.45 Y73.371 F10800
M204 P1000
G1 X102.623 Y73.444
G1 F1200
G1 X104.683 Y71.256 E0.09424
G1 X107.282 Y70.086 E0.08934
G1 X122.887 Y69.611 E0.48951
G1 X125.315 Y70.532 E0.08143
G1 X126.306 Y70.086 E0.03406
G1 X141.911 Y69.611 E0.48951
G1 X144.577 Y70.622 E0.08939
G1 X146.766 Y72.683 E0.09429
G1 X147.936 Y75.284 E0.08939
G1 X147.99 Y77.086 E0.05655
G1 X148.404 Y90.883 E0.43278
G1 X147.393 Y93.547 E0.08934
G1 X145.333 Y95.735 E0.09424
G1 X142.734 Y96.905 E0.08934
G1 X138.583 Y97.031 E0.13023
G1 X138.683 Y100.268 E0.10152
G1 X138.38 Y101.068 E0.02685
G1 X142.315 Y101.068 E0.12336
G1 X144.947 Y102.159 E0.08934
G1 X147.073 Y104.283 E0.09424
G1 X148.164 Y106.916 E0.08934
G1 X148.174 Y131.612 E0.77435
G1 X147.084 Y134.246 E0.08937
G1 X144.959 Y136.373 E0.09427
G1 X142.326 Y137.465 E0.08937
G1 X136.713 Y137.466 E0.176
G1 X134.077 Y136.375 E0.08943
G1 X131.951 Y134.247 E0.09433
G1 X130.86 Y131.612 E0.08943
G1 X130.863 Y128.374 E0.10151
G1 X129.159 Y128.374 E0.05342
G1 X129.16 Y131.612 E0.10152
G1 X128.071 Y134.246 E0.08937
G1 X125.945 Y136.373 E0.09427
G1 X123.312 Y137.464 E0.08937
G1 X117.699 Y137.466 E0.176
G1 X115.064 Y136.375 E0.08943
G1 X112.937 Y134.247 E0.09433
G1 X111.847 Y131.611 E0.08943
G1 X111.849 Y128.374 E0.10151
G1 X107.696 Y128.374 E0.13023
G1 X105.063 Y127.284 E0.08934
G1 X102.937 Y125.159 E0.09424
G1 X101.846 Y122.527 E0.08934
G1 X101.839 Y106.921 E0.48933
G1 X102.929 Y104.286 E0.08939
G1 X103.677 Y103.538 E0.03317
G1 X103.523 Y103.393 E0.00661
G1 X102.354 Y100.794 E0.08936
G1 X101.613 Y76.109 E0.77435
G1 X102.602 Y73.501 E0.08746
M204 P1500
G1 X102.776 Y73.574 F10800
M204 P1000
G1 X102.949 Y73.648
G1 F1200
G1 X104.907 Y71.569 E0.08954
G1 X107.368 Y70.461 E0.08464
G1 X122.823 Y69.991 E0.48481
G1 X125.328 Y70.94 E0.08397
G1 X126.392 Y70.461 E0.0366
G1 X141.847 Y69.991 E0.48481
G1 X144.373 Y70.948 E0.08469
G1 X146.453 Y72.907 E0.08959
G1 X147.561 Y75.37 E0.08469
G1 X147.613 Y77.098 E0.0542
G1 X148.024 Y90.819 E0.43043
G1 X147.067 Y93.343 E0.08464
G1 X145.109 Y95.422 E0.08953
G1 X142.648 Y96.53 E0.08464
G1 X138.194 Y96.666 E0.13971
G1 X138.304 Y100.204 E0.111
G1 X137.834 Y101.445 E0.04161
G1 X142.24 Y101.445 E0.13812
G1 X144.734 Y102.478 E0.08464
G1 X146.753 Y104.497 E0.08954
G1 X147.787 Y106.991 E0.08464
G1 X147.797 Y131.538 E0.76965
G1 X146.764 Y134.033 E0.08467
G1 X144.745 Y136.053 E0.08956
G1 X142.251 Y137.088 E0.08467
G1 X136.787 Y137.089 E0.17129
G1 X134.291 Y136.055 E0.08472
G1 X132.27 Y134.034 E0.08962
G1 X131.237 Y131.537 E0.08472
G1 X131.24 Y127.997 E0.11098
G1 X128.782 Y127.997 E0.07708
G1 X128.783 Y131.537 E0.11099
G1 X127.751 Y134.032 E0.08467
G1 X125.732 Y136.053 E0.08956
G1 X123.237 Y137.087 E0.08467
G1 X117.774 Y137.089 E0.17129
G1 X115.278 Y136.055 E0.08472
G1 X113.257 Y134.033 E0.08962
M73 P0 R77
M73 Q0 S78
G1 X112.224 Y131.537 E0.08472
G1 X112.227 Y127.997 E0.11098
G1 X107.771 Y127.997 E0.13971
G1 X105.277 Y126.964 E0.08464
G1 X103.257 Y124.946 E0.08953
G1 X102.223 Y122.452 E0.08464
G1 X102.216 Y106.996 E0.48463
G1 X103.249 Y104.5 E0.08469
G1 X104.218 Y103.53 E0.043
G1 X103.837 Y103.17 E0.01644
G1 X102.729 Y100.708 E0.08466
G1 X101.992 Y76.172 E0.76964
G1 X102.928 Y73.704 E0.08276
M204 P1500
G1 X103.102 Y73.778 F10800
M204 P1000
G1 X103.275 Y73.852
G1 F1200
G1 X105.13 Y71.882 E0.08484
G1 X107.455 Y70.835 E0.07994
G1 X122.76 Y70.37 E0.48011
G1 X125.145 Y71.274 E0.07998
G1 X125.261 Y71.383 E0.005
G1 X126.478 Y70.835 E0.04186
G1 X141.784 Y70.37 E0.48011
G1 X144.169 Y71.274 E0.07998
G1 X146.14 Y73.13 E0.08488
G1 X147.187 Y75.456 E0.07998
G1 X147.236 Y77.109 E0.05185
G1 X147.645 Y90.756 E0.42808
G1 X146.741 Y93.139 E0.07994
G1 X144.886 Y95.109 E0.08483
G1 X142.561 Y96.156 E0.07994
G1 X137.805 Y96.3 E0.14919
M73 P1 R77
G1 X137.925 Y100.141 E0.12048
M73 Q1 S78
G1 X137.289 Y101.822 E0.05637
G1 X142.165 Y101.822 E0.15289
G1 X144.52 Y102.798 E0.07994
G1 X146.434 Y104.711 E0.08484
G1 X147.41 Y107.066 E0.07994
G1 X147.42 Y131.463 E0.76494
G1 X146.444 Y133.819 E0.07996
G1 X144.531 Y135.734 E0.08486
G1 X142.175 Y136.71 E0.07996
G1 X136.862 Y136.712 E0.16659
G1 X134.505 Y135.736 E0.08001
G1 X132.59 Y133.82 E0.08491
G1 X131.615 Y131.462 E0.08001
G1 X131.617 Y127.62 E0.12046
G1 X128.405 Y127.62 E0.10073
G1 X128.406 Y131.462 E0.12047
G1 X127.431 Y133.819 E0.07996
G1 X125.518 Y135.733 E0.08486
G1 X123.162 Y136.71 E0.07996
G1 X117.849 Y136.712 E0.16659
G1 X115.491 Y135.735 E0.08001
G1 X113.577 Y133.82 E0.08491
G1 X112.601 Y131.462 E0.08001
G1 X112.604 Y127.62 E0.12046
G1 X107.846 Y127.62 E0.14919
G1 X105.49 Y126.645 E0.07994
G1 X103.577 Y124.732 E0.08483
G1 X102.6 Y122.377 E0.07994
G1 X102.593 Y107.07 E0.47992
G1 X103.568 Y104.713 E0.07998
G1 X104.76 Y103.522 E0.05283
G1 X104.15 Y102.947 E0.02627
G1 X103.103 Y100.622 E0.07996
G1 X102.371 Y76.236 E0.76494
G1 X103.254 Y73.908 E0.07806
M204 P1500
G1 X103.428 Y73.982 F10800
M204 P1000
G1 X103.601 Y74.056
G1 F1200
G1 X105.353 Y72.195 E0.08013
G1 X107.541 Y71.21 E0.07524
G1 X122.696 Y70.749 E0.4754
G1 X124.941 Y71.6 E0.07528
G1 X125.186 Y71.831 E0.01055
G1 X126.565 Y71.21 E0.04741
G1 X141.72 Y70.749 E0.4754
G1 X143.965 Y71.6 E0.07528
G1 X145.827 Y73.353 E0.08018
G1 X146.812 Y75.542 E0.07528
G1 X146.859 Y77.12 E0.04949
G1 X147.266 Y90.692 E0.42573
G1 X146.415 Y92.935 E0.07523
G1 X144.663 Y94.796 E0.08013
G1 X142.475 Y95.781 E0.07523
G1 X137.417 Y95.935 E0.15867
G1 X137.546 Y100.078 E0.12996
G1 X136.743 Y102.2 E0.07114
G1 X142.09 Y102.2 E0.16765
G1 X144.307 Y103.118 E0.07524
G1 X146.114 Y104.924 E0.08013
G1 X147.033 Y107.141 E0.07524
G1 X147.042 Y131.388 E0.76024
G1 X146.125 Y133.606 E0.07526
G1 X144.318 Y135.414 E0.08016
G1 X142.1 Y136.333 E0.07526
G1 X136.937 Y136.335 E0.16188
G1 X134.718 Y135.416 E0.07531
G1 X132.91 Y133.607 E0.08021
G1 X131.992 Y131.387 E0.07531
G1 X131.995 Y127.243 E0.12994
G1 X128.027 Y127.243 E0.12439
G1 X128.029 Y131.388 E0.12994
G1 X127.111 Y133.605 E0.07526
G1 X125.304 Y135.414 E0.08016
G1 X123.087 Y136.333 E0.07526
G1 X117.924 Y136.335 E0.16188
G1 X115.705 Y135.416 E0.07531
G1 X113.896 Y133.606 E0.08021
G1 X112.978 Y131.387 E0.07531
G1 X112.981 Y127.243 E0.12994
G1 X107.921 Y127.243 E0.15867
G1 X105.704 Y126.325 E0.07523
G1 X103.896 Y124.518 E0.08013
G1 X102.977 Y122.302 E0.07523
G1 X102.97 Y107.145 E0.47522
G1 X103.888 Y104.927 E0.07528
G1 X105.301 Y103.513 E0.06266
G1 X104.463 Y102.724 E0.0361
G1 X103.478 Y100.535 E0.07525
G1 X102.75 Y76.3 E0.76024
G1 X103.58 Y74.112 E0.07336
M204 P1500
G1 X103.754 Y74.186 F10800
M204 P1000
G1 X103.927 Y74.26
G1 F1200
G1 X105.576 Y72.508 E0.07543
G1 X107.627 Y71.585 E0.07053
G1 X122.633 Y71.128 E0.4707
G1 X124.737 Y71.926 E0.07057
G1 X125.111 Y72.278 E0.0161
G1 X126.651 Y71.585 E0.05296
G1 X141.657 Y71.128 E0.4707
G1 X143.761 Y71.926 E0.07057
G1 X145.514 Y73.576 E0.07547
G1 X146.437 Y75.629 E0.07057
G1 X146.482 Y77.131 E0.04714
G1 X146.887 Y90.628 E0.42337
G1 X146.089 Y92.732 E0.07053
G1 X144.44 Y94.483 E0.07543
G1 X142.389 Y95.407 E0.07053
G1 X137.028 Y95.569 E0.16815
G1 X137.167 Y100.014 E0.13943
G1 X136.369 Y102.12 E0.07061
G1 X135.94 Y102.577 E0.01964
G1 X142.015 Y102.577 E0.19046
G1 X144.093 Y103.437 E0.07053
G1 X145.795 Y105.138 E0.07543
G1 X146.656 Y107.216 E0.07054
G1 X146.665 Y131.313 E0.75554
G1 X145.805 Y133.392 E0.07056
G1 X144.104 Y135.094 E0.07545
G1 X142.025 Y135.956 E0.07056
G1 X137.012 Y135.958 E0.15718
G1 X134.932 Y135.096 E0.0706
G1 X133.23 Y133.393 E0.0755
G1 X132.369 Y131.313 E0.0706
G1 X132.372 Y126.866 E0.13942
G1 X127.65 Y126.866 E0.14805
G1 X127.652 Y131.313 E0.13942
G1 X126.792 Y133.392 E0.07056
G1 X125.09 Y135.094 E0.07545
G1 X123.012 Y135.956 E0.07056
G1 X117.999 Y135.958 E0.15718
G1 X115.919 Y135.096 E0.0706
G1 X114.216 Y133.393 E0.0755
G1 X113.355 Y131.312 E0.0706
G1 X113.359 Y126.866 E0.13942
G1 X107.996 Y126.866 E0.16815
G1 X105.917 Y126.005 E0.07053
G1 X104.216 Y124.305 E0.07543
G1 X103.354 Y122.227 E0.07053
G1 X103.347 Y107.22 E0.47052
G1 X104.208 Y105.14 E0.07057
G1 X105.842 Y103.505 E0.07249
G1 X104.776 Y102.501 E0.04592
G1 X103.853 Y100.449 E0.07055
G1 X103.129 Y76.363 E0.75553
G1 X103.906 Y74.316 E0.06865
M204 P1500
G1 X104.079 Y74.39 F10800
M204 P1000
G1 X104.253 Y74.464
G1 F1200
G1 X105.799 Y72.821 E0.07073
G1 X107.714 Y71.959 E0.06583
G1 X122.569 Y71.507 E0.466
G1 X124.534 Y72.252 E0.06587
G1 X125.036 Y72.725 E0.02165
G1 X126.738 Y71.959 E0.05851
G1 X141.593 Y71.507 E0.466
G1 X143.557 Y72.252 E0.06587
G1 X145.201 Y73.799 E0.07077
G1 X146.063 Y75.715 E0.06587
G1 X146.106 Y77.143 E0.04479
G1 X146.508 Y90.565 E0.42102
G1 X145.763 Y92.528 E0.06583
G1 X144.217 Y94.17 E0.07073
G1 X142.302 Y95.032 E0.06583
G1 X136.639 Y95.204 E0.17764
G1 X136.787 Y99.951 E0.14891
G1 X136.043 Y101.917 E0.0659
G1 X135.068 Y102.954 E0.04464
G1 X141.94 Y102.954 E0.21546
G1 X143.88 Y103.757 E0.06583
G1 X145.475 Y105.352 E0.07073
G1 X146.279 Y107.291 E0.06583
G1 X146.288 Y131.238 E0.75083
G1 X145.485 Y133.179 E0.06585
G1 X143.89 Y134.775 E0.07075
G1 X141.95 Y135.579 E0.06585
G1 X137.087 Y135.581 E0.15247
G1 X135.146 Y134.777 E0.06589
G1 X133.549 Y133.18 E0.07079
G1 X132.746 Y131.238 E0.06589
G1 X132.749 Y126.489 E0.1489
G1 X127.273 Y126.489 E0.17171
G1 X127.275 Y131.238 E0.1489
G1 X126.472 Y133.178 E0.06585
G1 X124.877 Y134.775 E0.07075
G1 X122.937 Y135.579 E0.06585
G1 X118.074 Y135.58 E0.15247
G1 X116.132 Y134.776 E0.06589
G1 X114.536 Y133.179 E0.07079
G1 X113.733 Y131.237 E0.06589
G1 X113.736 Y126.489 E0.1489
G1 X108.071 Y126.489 E0.17763
G1 X106.131 Y125.685 E0.06583
G1 X104.535 Y124.091 E0.07073
G1 X103.731 Y122.151 E0.06583
G1 X103.724 Y107.295 E0.46581
G1 X104.528 Y105.354 E0.06587
G1 X106.123 Y103.758 E0.07077
G1 X106.496 Y103.603 E0.01265
G1 X105.089 Y102.278 E0.0606
G1 X104.227 Y100.363 E0.06585
G1 X103.508 Y76.427 E0.75083
G1 X104.232 Y74.52 E0.06395
M204 P1500
G1 X104.405 Y74.594 F10800
M204 P1000
G1 X104.579 Y74.668
G1 F1200
G1 X106.022 Y73.134 E0.06603
G1 X107.8 Y72.334 E0.06113
G1 X122.506 Y71.886 E0.46129
G1 X124.33 Y72.578 E0.06116
G1 X124.987 Y73.197 E0.02832
G1 X125.046 Y73.134 E0.0027
G1 X126.824 Y72.334 E0.06113
G1 X141.53 Y71.886 E0.46129
G1 X143.354 Y72.578 E0.06116
G1 X144.888 Y74.022 E0.06606
G1 X145.688 Y75.801 E0.06116
G1 X145.729 Y77.154 E0.04244
G1 X146.129 Y90.501 E0.41867
G1 X145.437 Y92.324 E0.06113
G1 X143.994 Y93.857 E0.06602
M73 P2 R77
G1 X142.216 Y94.657 E0.06113
G1 X136.251 Y94.839 E0.18712
G1 X136.408 Y99.888 E0.15839
G1 X135.717 Y101.713 E0.06119
G1 X134.273 Y103.248 E0.06609
M73 Q2 S78
G1 X134.09 Y103.331 E0.00629
G1 X141.865 Y103.331 E0.24377
G1 X143.666 Y104.077 E0.06113
G1 X145.155 Y105.565 E0.06603
G1 X145.902 Y107.366 E0.06113
G1 X145.911 Y131.163 E0.74613
G1 X145.165 Y132.965 E0.06115
G1 X143.676 Y134.455 E0.06605
G1 X141.875 Y135.202 E0.06115
G1 X137.162 Y135.204 E0.14777
G1 X135.359 Y134.457 E0.06119
G1 X133.869 Y132.966 E0.06609
G1 X133.123 Y131.163 E0.06119
G1 X133.127 Y126.112 E0.15838
G1 X127.159 Y126.112 E0.18712
G1 X126.896 Y126.003 E0.00894
G1 X126.898 Y131.163 E0.16179
G1 X126.152 Y132.965 E0.06115
G1 X124.663 Y134.455 E0.06605
G1 X122.862 Y135.202 E0.06115
G1 X118.149 Y135.203 E0.14777
G1 X116.346 Y134.457 E0.06119
G1 X114.856 Y132.966 E0.06609
G1 X114.11 Y131.163 E0.06119
G1 X114.113 Y126.111 E0.15838
G1 X108.146 Y126.112 E0.18712
M73 P2 R76
M73 Q2 S77
G1 X106.344 Y125.366 E0.06113
G1 X104.855 Y123.877 E0.06602
G1 X104.108 Y122.076 E0.06113
G1 X104.101 Y107.37 E0.46111
G1 X104.847 Y105.567 E0.06116
G1 X106.337 Y104.077 E0.06606
G1 X107.351 Y103.657 E0.03443
G1 X106.935 Y103.499 E0.01395
G1 X105.402 Y102.055 E0.06604
G1 X104.602 Y100.276 E0.06114
G1 X103.888 Y76.491 E0.74613
G1 X104.558 Y74.724 E0.05925
M204 P1500
G1 X104.731 Y74.798 F10800
M204 P1000
G1 X104.905 Y74.871
G1 F1200
G1 X106.246 Y73.447 E0.06132
G1 X107.887 Y72.709 E0.05643
G1 X122.442 Y72.266 E0.45659
G1 X124.126 Y72.904 E0.05646
G1 X125.003 Y73.73 E0.03779
G1 X125.27 Y73.447 E0.01218
G1 X126.911 Y72.709 E0.05643
G1 X141.466 Y72.266 E0.45659
G1 X143.15 Y72.904 E0.05646
G1 X144.575 Y74.245 E0.06136
G1 X145.313 Y75.888 E0.05646
