; generated by SuperSlicer 2.3.57 on 2022-03-10 at 15:46:34 UTC

; 

; external perimeters extrusion width = 0.45mm
; perimeters extrusion width = 0.45mm
; infill extrusion width = 0.45mm
; solid infill extrusion width = 0.45mm
; top infill extrusion width = 0.40mm
; support material extrusion width = 0.35mm
; first layer extrusion width = 0.42mm

; object:{"name":"Blue - Z Top Idler Pulley_4","id":"Blue - Z Top Idler Pulley_4.stl id:0 copy 0","object_center":[139.999755,93.025849,0.000000],"boundingbox_center":[139.999755,93.025849,7.000000],"boundingbox_size":[23.999512,17.948303,14.000000]}
; object:{"name":"Blue - Z Top Idler Pulley_4","id":"Blue - Z Top Idler Pulley_4.stl id:0 copy 1","object_center":[139.999755,116.974151,0.000000],"boundingbox_center":[139.999755,116.974151,7.000000],"boundingbox_size":[23.999512,17.948303,14.000000]}
; object:{"name":"Blue - Z Top Idler Pulley_4","id":"Blue - Z Top Idler Pulley_4.stl id:0 copy 2","object_center":[110.000245,93.025849,0.000000],"boundingbox_center":[110.000245,93.025849,7.000000],"boundingbox_size":[23.999512,17.948303,14.000000]}
; object:{"name":"Blue - Z Top Idler Pulley_4","id":"Blue - Z Top Idler Pulley_4.stl id:0 copy 3","object_center":[110.000245,116.974151,0.000000],"boundingbox_center":[110.000245,116.974151,7.000000],"boundingbox_size":[23.999512,17.948303,14.000000]}
; Total objects to print: 4
M486 T4
; plater:{"center":[125.000000,105.000000,0.000000],"boundingbox_center":[125.000000,105.000000,7.000000],"boundingbox_size":[53.999022,41.896605,14.000000]}

M73 P0 R99
M73 Q0 S101
;TYPE:Custom
M862.3 P "MK3S" ; printer model check
M862.1 P0.4 ; nozzle diameter check
M115 U3.10.0 ; tell printer latest fw version
G90 ; use absolute coordinates
M83 ; extruder relative mode
M104 S255 ; set extruder temp
M140 S100 ; set bed temp
M190 S100 ; wait for bed temp
M109 S255 ; wait for extruder temp
G28 W ; home all without mesh bed level
G80 ; mesh bed leveling
G1 Y-3.0 F1000.0 ; go outside print area
G92 E0.0
G1 X60.0 E9.0 F1000.0 ; intro line
G1 X100.0 E12.5 F1000.0 ; intro line
G92 E0.0
M221 S95

; Don't change E values below. Excessive value can damage the printer.
M907 E430 ; set extruder motor current
M107
G21 ; set units to millimeters
G90 ; use absolute coordinates
M83 ; use relative distances for extrusion
M900 K0.04 ; Filament gcode LA 1.5
M900 K20 ; Filament gcode LA 1.0
;LAYER_CHANGE
;Z:0.2
;HEIGHT:0.2
;BEFORE_LAYER_CHANGE
G92 E0.0
;0.2


M73 Q0 S100
G1 E-0.8 F2100
G1 Z0.4 F10800
;AFTER_LAYER_CHANGE
;0.2
G1 Z0.6
M204 P1500
G1 X89.855 Y78.105
G1 Z0.2
G1 E0.8 F2100
;TYPE:Skirt
;WIDTH:0.42
G1 F1200
G1 X90.895 Y77.048 E0.04649
G1 X92.37 Y75.897 E0.05866
G1 X93.017 Y75.516 E0.02355
G1 X93.192 Y75.325 E0.00811
G1 X95.964 Y73.612 E0.10216
G1 X98.995 Y72.751 E0.09881
G1 X105.006 Y72.751 E0.18848
G1 X108.037 Y73.612 E0.09881
G1 X108.262 Y73.751 E0.00828
G1 X120.857 Y73.751 E0.39491
G1 X121.584 Y73.798 E0.02284
G1 X123.043 Y73.987 E0.04613
G1 X124.444 Y74.354 E0.04541
G1 X124.636 Y74.432 E0.0065
G1 X125.963 Y73.612 E0.0489
G1 X128.994 Y72.751 E0.09881
G1 X135.006 Y72.751 E0.18848
G1 X138.037 Y73.612 E0.09881
G1 X138.262 Y73.751 E0.00828
G1 X150.857 Y73.751 E0.39491
G1 X151.584 Y73.798 E0.02284
G1 X153.043 Y73.987 E0.04613
G1 X154.444 Y74.354 E0.04541
G1 X156.162 Y75.049 E0.05812
G1 X157.452 Y75.78 E0.04648
G1 X158.946 Y76.906 E0.05867
G1 X160.003 Y77.947 E0.04651
G1 X161.154 Y79.421 E0.05866
G1 X161.906 Y80.698 E0.04646
G1 X162.637 Y82.421 E0.05868
G1 X163.033 Y83.852 E0.04655
G1 X163.245 Y85.368 E0.04799
G1 X163.3 Y86.153 E0.02465
G1 X163.3 Y99.857 E0.42968
G1 X163.254 Y100.584 E0.02285
G1 X163.065 Y102.043 E0.04614
G1 X162.697 Y103.445 E0.04543
G1 X162.062 Y105.014 E0.05309
G1 X162.637 Y106.37 E0.04616
G1 X163.033 Y107.801 E0.04655
G1 X163.245 Y109.316 E0.04799
G1 X163.3 Y110.101 E0.02465
G1 X163.3 Y123.805 E0.42968
G1 X163.254 Y124.532 E0.02285
G1 X163.065 Y125.992 E0.04614
G1 X162.697 Y127.393 E0.04543
G1 X162.002 Y129.111 E0.05811
G1 X161.271 Y130.4 E0.04646
G1 X160.145 Y131.894 E0.05865
G1 X159.105 Y132.952 E0.04651
G1 X157.63 Y134.103 E0.05867
G1 X156.352 Y134.855 E0.04648
G1 X154.629 Y135.586 E0.05868
G1 X153.199 Y135.982 E0.04654
G1 X151.683 Y136.194 E0.04799
G1 X150.899 Y136.248 E0.02465
G1 X138.262 Y136.249 E0.39621
G1 X138.037 Y136.388 E0.0083
G1 X135.006 Y137.249 E0.0988
G1 X128.994 Y137.249 E0.18848
G1 X125.963 Y136.388 E0.0988
G1 X124.651 Y135.577 E0.04838
G1 X124.63 Y135.586 E0.00071
G1 X123.199 Y135.982 E0.04654
G1 X121.683 Y136.194 E0.04799
G1 X120.899 Y136.248 E0.02465
G1 X108.262 Y136.249 E0.39621
G1 X108.037 Y136.388 E0.0083
G1 X105.006 Y137.249 E0.0988
G1 X98.995 Y137.249 E0.18848
G1 X95.964 Y136.388 E0.0988
G1 X93.192 Y134.675 E0.10216
G1 X93.021 Y134.488 E0.00795
G1 X92.548 Y134.22 E0.01705
G1 X91.054 Y133.093 E0.05866
G1 X89.997 Y132.054 E0.04647
G1 X88.846 Y130.579 E0.05866
G1 X88.093 Y129.301 E0.04651
G1 X87.363 Y127.577 E0.05869
G1 X86.967 Y126.147 E0.04653
G1 X86.755 Y124.632 E0.04798
G1 X86.7 Y123.847 E0.02465
G1 X86.7 Y110.143 E0.42969
G1 X86.746 Y109.416 E0.02285
G1 X86.935 Y107.957 E0.04613
G1 X87.303 Y106.556 E0.0454
G1 X87.938 Y104.986 E0.05312
G1 X87.363 Y103.629 E0.0462
G1 X86.967 Y102.199 E0.04653
G1 X86.755 Y100.684 E0.04798
G1 X86.7 Y99.899 E0.02465
G1 X86.7 Y86.195 E0.42969
G1 X86.746 Y85.468 E0.02285
G1 X86.935 Y84.009 E0.04613
G1 X87.303 Y82.608 E0.0454
G1 X87.998 Y80.89 E0.05812
G1 X88.729 Y79.599 E0.0465
G1 X89.819 Y78.153 E0.05679
G1 X89.97 Y78.267 F10800
M204 P1000
G1 X90.12 Y78.38
G1 F1200
G1 X90.142 Y78.352 E0.00111
G1 X91.147 Y77.33 E0.04494
G1 X92.583 Y76.209 E0.05711
G1 X93.257 Y75.812 E0.02456
G1 X93.435 Y75.618 E0.00824
G1 X96.117 Y73.96 E0.09887
G1 X99.047 Y73.128 E0.09551
G1 X104.954 Y73.128 E0.18518
G1 X107.884 Y73.96 E0.09551
G1 X108.155 Y74.128 E0.00999
G1 X120.845 Y74.128 E0.39789
G1 X121.548 Y74.173 E0.02208
G1 X122.971 Y74.357 E0.045
G1 X124.325 Y74.713 E0.0439
G1 X124.672 Y74.853 E0.01174
G1 X126.117 Y73.96 E0.05324
G1 X129.047 Y73.128 E0.09551
G1 X134.953 Y73.128 E0.18518
G1 X137.883 Y73.96 E0.09551
G1 X138.154 Y74.128 E0.00999
G1 X150.845 Y74.128 E0.39789
G1 X151.547 Y74.173 E0.02208
G1 X152.97 Y74.357 E0.045
G1 X154.325 Y74.713 E0.0439
G1 X155.998 Y75.39 E0.05659
G1 X157.245 Y76.096 E0.04493
G1 X158.699 Y77.193 E0.05712
G1 X159.721 Y78.198 E0.04496
G1 X160.842 Y79.634 E0.05711
G1 X161.569 Y80.868 E0.04491
G1 X162.28 Y82.546 E0.05713
G1 X162.663 Y83.929 E0.045
G1 X162.87 Y85.407 E0.04681
G1 X162.923 Y86.166 E0.02383
G1 X162.923 Y99.845 E0.42889
G1 X162.878 Y100.548 E0.02209
G1 X162.694 Y101.971 E0.04501
G1 X162.338 Y103.326 E0.04391
G1 X161.661 Y104.999 E0.05658
G1 X161.652 Y105.014 E0.00058
G1 X162.28 Y106.494 E0.05039
G1 X162.663 Y107.877 E0.045
G1 X162.87 Y109.356 E0.04681
G1 X162.923 Y110.114 E0.02383
G1 X162.923 Y123.793 E0.42889
G1 X162.878 Y124.496 E0.02209
G1 X162.694 Y125.919 E0.04501
G1 X162.338 Y127.274 E0.04391
G1 X161.661 Y128.947 E0.05658
G1 X160.956 Y130.193 E0.04491
G1 X159.859 Y131.647 E0.05711
G1 X158.854 Y132.67 E0.04496
G1 X157.418 Y133.791 E0.05712
G1 X156.182 Y134.517 E0.04493
G1 X154.505 Y135.229 E0.05713
G1 X153.122 Y135.612 E0.04499
G1 X151.644 Y135.818 E0.0468
G1 X150.885 Y135.871 E0.02383
G1 X138.155 Y135.872 E0.39916
G1 X137.883 Y136.04 E0.01001
G1 X134.953 Y136.872 E0.09551
G1 X129.047 Y136.872 E0.18518
G1 X126.117 Y136.04 E0.09551
G1 X124.683 Y135.154 E0.05285
G1 X124.505 Y135.229 E0.00604
G1 X123.122 Y135.612 E0.04499
G1 X121.644 Y135.818 E0.0468
G1 X120.886 Y135.871 E0.02383
G1 X108.155 Y135.872 E0.39916
G1 X107.884 Y136.04 E0.01001
G1 X104.954 Y136.872 E0.09551
G1 X99.047 Y136.872 E0.18518
G1 X96.117 Y136.04 E0.09551
G1 X93.435 Y134.382 E0.09887
G1 X93.259 Y134.189 E0.00818
G1 X92.755 Y133.904 E0.01815
G1 X91.301 Y132.807 E0.05711
G1 X90.279 Y131.803 E0.04493
G1 X89.158 Y130.367 E0.05711
G1 X88.431 Y129.131 E0.04496
G1 X87.72 Y127.453 E0.05714
G1 X87.337 Y126.071 E0.04498
G1 X87.13 Y124.593 E0.04679
G1 X87.077 Y123.834 E0.02383
G1 X87.077 Y110.155 E0.42889
G1 X87.122 Y109.452 E0.02209
G1 X87.306 Y108.029 E0.045
G1 X87.661 Y106.675 E0.04389
G1 X88.338 Y105.002 E0.05659
G1 X88.347 Y104.986 E0.0006
G1 X87.72 Y103.505 E0.05043
G1 X87.337 Y102.122 E0.04498
G1 X87.13 Y100.644 E0.04679
G1 X87.077 Y99.886 E0.02383
G1 X87.077 Y86.207 E0.42889
G1 X87.122 Y85.504 E0.02209
G1 X87.306 Y84.081 E0.045
G1 X87.661 Y82.727 E0.04389
G1 X88.338 Y81.054 E0.05659
G1 X89.045 Y79.806 E0.04495
G1 X90.084 Y78.428 E0.05413
M204 P1500
G1 X90.235 Y78.542 F10800
M204 P1000
G1 X90.385 Y78.655
G1 F1200
G1 X90.428 Y78.599 E0.00221
G1 X91.398 Y77.612 E0.04339
G1 X92.795 Y76.522 E0.05556
G1 X93.498 Y76.108 E0.02556
G1 X93.678 Y75.911 E0.00837
G1 X96.271 Y74.309 E0.09558
G1 X99.1 Y73.505 E0.09222
G1 X104.901 Y73.505 E0.18189
G1 X107.73 Y74.309 E0.09222
G1 X108.048 Y74.505 E0.0117
G1 X120.833 Y74.505 E0.40087
G1 X121.511 Y74.549 E0.02131
G1 X122.899 Y74.728 E0.04386
G1 X124.206 Y75.071 E0.04238
G1 X124.708 Y75.274 E0.01697
G1 X126.27 Y74.309 E0.05759
G1 X129.099 Y73.505 E0.09222
G1 X134.901 Y73.505 E0.18189
G1 X137.73 Y74.309 E0.09222
G1 X138.047 Y74.505 E0.0117
G1 X150.832 Y74.505 E0.40087
G1 X151.511 Y74.549 E0.02131
G1 X152.898 Y74.728 E0.04386
G1 X154.206 Y75.071 E0.04238
G1 X155.833 Y75.73 E0.05505
G1 X157.037 Y76.412 E0.04338
G1 X158.452 Y77.479 E0.05557
G1 X159.439 Y78.45 E0.04341
G1 X160.53 Y79.847 E0.05556
G1 X161.231 Y81.038 E0.04336
G1 X161.923 Y82.67 E0.05558
G1 X162.293 Y84.006 E0.04345
G1 X162.494 Y85.447 E0.04562
G1 X162.545 Y86.179 E0.02301
G1 X162.546 Y99.832 E0.4281
G1 X162.503 Y100.511 E0.02132
G1 X162.323 Y101.899 E0.04387
G1 X161.98 Y103.207 E0.0424
G1 X161.321 Y104.834 E0.05505
G1 X161.233 Y104.99 E0.00563
G1 X161.923 Y106.619 E0.05545
G1 X162.293 Y107.954 E0.04345
G1 X162.494 Y109.395 E0.04562
G1 X162.545 Y110.127 E0.02301
G1 X162.546 Y123.781 E0.4281
G1 X162.503 Y124.459 E0.02132
G1 X162.323 Y125.847 E0.04387
G1 X161.98 Y127.155 E0.0424
G1 X161.321 Y128.782 E0.05505
G1 X160.64 Y129.986 E0.04336
G1 X159.573 Y131.401 E0.05556
G1 X158.602 Y132.388 E0.04341
G1 X157.205 Y133.478 E0.05557
G1 X156.013 Y134.18 E0.04338
G1 X154.38 Y134.872 E0.05558
G1 X153.045 Y135.242 E0.04344
G1 X151.604 Y135.443 E0.04562
G1 X150.872 Y135.494 E0.02301
G1 X138.048 Y135.495 E0.40211
G1 X137.73 Y135.691 E0.01172
G1 X134.901 Y136.495 E0.09222
G1 X129.099 Y136.495 E0.18189
G1 X126.27 Y135.691 E0.09222
G1 X124.715 Y134.73 E0.05732
G1 X124.381 Y134.872 E0.01138
G1 X123.046 Y135.242 E0.04344
G1 X121.605 Y135.443 E0.04562
G1 X120.873 Y135.494 E0.02301
G1 X108.048 Y135.495 E0.40211
G1 X107.73 Y135.691 E0.01172
G1 X104.901 Y136.495 E0.09222
G1 X99.1 Y136.495 E0.18189
G1 X96.271 Y135.691 E0.09222
G1 X93.678 Y134.089 E0.09558
G1 X93.497 Y133.891 E0.00841
G1 X92.962 Y133.588 E0.01925
G1 X91.548 Y132.521 E0.05556
G1 X90.561 Y131.551 E0.04338
G1 X89.471 Y130.154 E0.05556
G1 X88.769 Y128.961 E0.04341
G1 X88.076 Y127.329 E0.05559
G1 X87.707 Y125.994 E0.04342
G1 X87.506 Y124.553 E0.04561
G1 X87.455 Y123.821 E0.02301
G1 X87.454 Y110.168 E0.4281
G1 X87.497 Y109.489 E0.02132
G1 X87.677 Y108.102 E0.04386
G1 X88.02 Y106.794 E0.04237
G1 X88.678 Y105.167 E0.05506
G1 X88.767 Y105.01 E0.00565
G1 X88.076 Y103.38 E0.05549
G1 X87.707 Y102.046 E0.04342
G1 X87.506 Y100.605 E0.04561
G1 X87.455 Y99.873 E0.02301
G1 X87.454 Y86.219 E0.4281
G1 X87.497 Y85.541 E0.02132
G1 X87.677 Y84.153 E0.04386
G1 X88.02 Y82.846 E0.04237
G1 X88.678 Y81.218 E0.05506
G1 X89.361 Y80.014 E0.0434
G1 X90.349 Y78.703 E0.05148
M204 P1500
G1 X90.5 Y78.817 F10800
M204 P1000
G1 X90.65 Y78.93
G1 F1200
G1 X90.714 Y78.846 E0.00332
G1 X91.65 Y77.894 E0.04184
G1 X93.008 Y76.834 E0.05401
G1 X93.738 Y76.405 E0.02656
G1 X93.921 Y76.204 E0.0085
G1 X96.424 Y74.657 E0.09228
G1 X99.152 Y73.882 E0.08893
G1 X104.849 Y73.882 E0.1786
G1 X107.577 Y74.657 E0.08893
G1 X107.941 Y74.882 E0.01342
G1 X120.821 Y74.882 E0.40385
M73 P0 R98
G1 X121.475 Y74.924 E0.02055
G1 X122.826 Y75.099 E0.04272
G1 X124.087 Y75.43 E0.04087
G1 X124.744 Y75.695 E0.0222
G1 X126.424 Y74.657 E0.06193
G1 X129.152 Y73.882 E0.08893
G1 X134.848 Y73.882 E0.1786
G1 X137.576 Y74.657 E0.08893
G1 X137.94 Y74.882 E0.01342
G1 X150.82 Y74.882 E0.40385
G1 X151.474 Y74.924 E0.02055
G1 X152.826 Y75.099 E0.04272
G1 X154.087 Y75.43 E0.04087
G1 X155.669 Y76.07 E0.05352
G1 X156.83 Y76.728 E0.04183
G1 X158.205 Y77.765 E0.05402
G1 X159.157 Y78.701 E0.04186
G1 X160.217 Y80.059 E0.05401
G1 X160.894 Y81.208 E0.04181
G1 X161.566 Y82.795 E0.05403
G1 X161.923 Y84.083 E0.0419
G1 X162.119 Y85.486 E0.04443
G1 X162.168 Y86.192 E0.02219
G1 X162.169 Y99.82 E0.42731
G1 X162.127 Y100.475 E0.02056
G1 X161.952 Y101.826 E0.04273
G1 X161.621 Y103.088 E0.04088
G1 X160.981 Y104.67 E0.05352
G1 X160.798 Y104.994 E0.01167
G1 X160.894 Y105.157 E0.00593
G1 X161.566 Y106.743 E0.05403
G1 X161.923 Y108.031 E0.0419
G1 X162.119 Y109.434 E0.04443
G1 X162.168 Y110.14 E0.02219
G1 X162.169 Y123.769 E0.42731
G1 X162.127 Y124.423 E0.02056
G1 X161.952 Y125.775 E0.04273
G1 X161.621 Y127.036 E0.04088
G1 X160.981 Y128.618 E0.05352
G1 X160.324 Y129.779 E0.04181
G1 X159.287 Y131.154 E0.05401
G1 X158.35 Y132.106 E0.04186
G1 X156.992 Y133.166 E0.05402
G1 X155.843 Y133.842 E0.04183
G1 X154.256 Y134.515 E0.05403
G1 X152.968 Y134.872 E0.04189
G1 X151.565 Y135.068 E0.04443
G1 X150.859 Y135.117 E0.02219
G1 X137.941 Y135.118 E0.40506
G1 X137.576 Y135.343 E0.01343
G1 X134.848 Y136.118 E0.08892
G1 X129.152 Y136.118 E0.1786
G1 X126.424 Y135.343 E0.08892
G1 X124.748 Y134.307 E0.06178
G1 X124.257 Y134.515 E0.01672
G1 X122.969 Y134.872 E0.04189
G1 X121.566 Y135.068 E0.04443
G1 X120.86 Y135.117 E0.02219
G1 X107.941 Y135.118 E0.40506
G1 X107.577 Y135.343 E0.01343
G1 X104.849 Y136.118 E0.08892
G1 X99.152 Y136.118 E0.1786
G1 X96.424 Y135.343 E0.08892
G1 X93.921 Y133.796 E0.09228
G1 X93.735 Y133.592 E0.00864
G1 X93.17 Y133.272 E0.02036
G1 X91.795 Y132.235 E0.05401
G1 X90.843 Y131.3 E0.04183
G1 X89.783 Y129.942 E0.05402
G1 X89.106 Y128.791 E0.04186
G1 X88.433 Y127.204 E0.05404
G1 X88.077 Y125.917 E0.04187
G1 X87.881 Y124.514 E0.04442
G1 X87.832 Y123.808 E0.02219
G1 X87.831 Y110.18 E0.42731
G1 X87.873 Y109.525 E0.02056
G1 X88.048 Y108.174 E0.04272
G1 X88.379 Y106.913 E0.04086
G1 X89.019 Y105.331 E0.05353
G1 X89.202 Y105.006 E0.01169
G1 X89.106 Y104.843 E0.00596
G1 X88.433 Y103.256 E0.05404
G1 X88.077 Y101.969 E0.04187
G1 X87.881 Y100.566 E0.04442
G1 X87.832 Y99.86 E0.02219
G1 X87.831 Y86.231 E0.42731
G1 X87.873 Y85.577 E0.02056
G1 X88.048 Y84.226 E0.04272
G1 X88.379 Y82.965 E0.04086
G1 X89.019 Y81.383 E0.05353
G1 X89.676 Y80.221 E0.04185
G1 X90.614 Y78.978 E0.04882
M204 P1500
G1 X90.765 Y79.091 F10800
M204 P1000
G1 X90.915 Y79.205
G1 F1200
G1 X91. Y79.092 E0.00443
G1 X91.901 Y78.176 E0.04029
G1 X93.22 Y77.147 E0.05246
G1 X93.978 Y76.701 E0.02756
G1 X94.163 Y76.498 E0.00863
G1 X96.578 Y75.005 E0.08899
G1 X99.205 Y74.259 E0.08563
G1 X104.796 Y74.259 E0.1753
G1 X107.423 Y75.005 E0.08563
G1 X107.834 Y75.259 E0.01513
G1 X120.809 Y75.259 E0.40682
M73 P1 R98
G1 X121.439 Y75.3 E0.01979
G1 X122.754 Y75.47 E0.04158
M73 Q1 S100
G1 X123.968 Y75.788 E0.03936
G1 X124.779 Y76.117 E0.02744
G1 X126.577 Y75.005 E0.06628
G1 X129.204 Y74.259 E0.08563
G1 X134.796 Y74.259 E0.1753
G1 X137.423 Y75.005 E0.08563
G1 X137.833 Y75.259 E0.01513
G1 X150.808 Y75.259 E0.40682
G1 X151.438 Y75.3 E0.01979
G1 X152.753 Y75.47 E0.04158
G1 X153.968 Y75.788 E0.03936
G1 X155.505 Y76.41 E0.05199
G1 X156.623 Y77.044 E0.04028
G1 X157.959 Y78.051 E0.05247
G1 X158.875 Y78.953 E0.04031
G1 X159.905 Y80.272 E0.05246
G1 X160.556 Y81.378 E0.04026
G1 X161.21 Y82.919 E0.05248
G1 X161.553 Y84.159 E0.04035
G1 X161.744 Y85.525 E0.04325
G1 X161.791 Y86.205 E0.02136
G1 X161.792 Y99.808 E0.42652
G1 X161.752 Y100.438 E0.0198
G1 X161.581 Y101.754 E0.04159
G1 X161.263 Y102.968 E0.03937
G1 X160.641 Y104.505 E0.05199
G1 X160.362 Y104.997 E0.01772
G1 X160.556 Y105.327 E0.01199
G1 X161.21 Y106.867 E0.05248
G1 X161.553 Y108.108 E0.04035
G1 X161.744 Y109.474 E0.04325
G1 X161.791 Y110.153 E0.02136
G1 X161.792 Y123.756 E0.42652
M73 Q1 S99
G1 X161.752 Y124.387 E0.0198
G1 X161.581 Y125.702 E0.04159
G1 X161.263 Y126.917 E0.03937
