; generated by SuperSlicer 2.3.57 on 2022-03-10 at 12:01:57 UTC

; 

; external perimeters extrusion width = 0.45mm
; perimeters extrusion width = 0.45mm
; infill extrusion width = 0.45mm
; solid infill extrusion width = 0.45mm
; top infill extrusion width = 0.40mm
; first layer extrusion width = 0.42mm

; object:{"name":"Black - Gantry Belt Tensioner Idler_2","id":"Black - Gantry Belt Tensioner Idler_2.stl id:0 copy 0","object_center":[134.017974,105.000000,0.000000],"boundingbox_center":[134.017974,105.000000,17.738317],"boundingbox_size":[12.035950,27.663330,35.476633]}
; object:{"name":"Black - Gantry Belt Tensioner Idler_2","id":"Black - Gantry Belt Tensioner Idler_2.stl id:0 copy 1","object_center":[115.982026,105.000000,0.000000],"boundingbox_center":[115.982026,105.000000,17.738317],"boundingbox_size":[12.035950,27.663330,35.476633]}
; Total objects to print: 2
M486 T2
; plater:{"center":[125.000000,105.000000,0.000000],"boundingbox_center":[125.000000,105.000000,17.738317],"boundingbox_size":[30.071898,27.663330,35.476633]}

M73 P0 R76
M73 Q0 S76
;TYPE:Custom
M862.3 P "MK3S" ; printer model check
M862.1 P0.4 ; nozzle diameter check
M115 U3.10.0 ; tell printer latest fw version
G90 ; use absolute coordinates
M83 ; extruder relative mode
M104 S255 ; set extruder temp
M140 S100 ; set bed temp
M190 S100 ; wait for bed temp
M109 S255 ; wait for extruder temp
G28 W ; home all without mesh bed level
G80 ; mesh bed leveling
G1 Y-3.0 F1000.0 ; go outside print area
G92 E0.0
G1 X60.0 E9.0 F1000.0 ; intro line
G1 X100.0 E12.5 F1000.0 ; intro line
G92 E0.0
M221 S95

; Don't change E values below. Excessive value can damage the printer.
M907 E430 ; set extruder motor current
M107
G21 ; set units to millimeters
G90 ; use absolute coordinates
M83 ; use relative distances for extrusion
M900 K0.04 ; Filament gcode LA 1.5
M900 K20 ; Filament gcode LA 1.0
;LAYER_CHANGE
;Z:0.2
;HEIGHT:0.2
;BEFORE_LAYER_CHANGE
G92 E0.0
;0.2


G1 E-0.8 F2100
G1 Z0.4 F10800
;AFTER_LAYER_CHANGE
;0.2
G1 Z0.6
M204 P1500
G1 X101.521 Y85.836
M73 P0 R75
G1 Z0.2
G1 E0.8 F2100
;TYPE:Skirt
;WIDTH:0.42
G1 F1200
G1 X104.333 Y82.633 E0.13363
G1 X107.968 Y80.694 E0.12918
G1 X110.865 Y80.316 E0.09161
G1 X111.598 Y80.268 E0.02303
G1 X120.366 Y80.268 E0.27491
G1 X121.099 Y80.316 E0.02303
G1 X121.714 Y80.396 E0.01945
G1 X123.996 Y80.694 E0.07217
G1 X125. Y81.23 E0.03567
G1 X126.004 Y80.694 E0.03568
G1 X128.901 Y80.316 E0.09161
G1 X129.634 Y80.268 E0.02303
G1 X138.402 Y80.268 E0.27491
G1 X139.135 Y80.316 E0.02303
G1 X139.75 Y80.396 E0.01945
G1 X142.032 Y80.694 E0.07217
G1 X145.667 Y82.633 E0.12918
G1 X148.479 Y85.836 E0.13363
G1 X149.931 Y89.691 E0.12918
G1 X149.931 Y95.865 E0.19356
G1 X148.618 Y99.036 E0.10764
G1 X149.931 Y102.208 E0.10764
G1 X149.931 Y120.309 E0.56754
G1 X148.479 Y124.164 E0.12918
G1 X145.667 Y127.367 E0.13363
G1 X142.032 Y129.306 E0.12918
G1 X139.135 Y129.684 E0.09161
G1 X138.403 Y129.732 E0.02301
G1 X129.652 Y129.733 E0.27439
G1 X128.927 Y129.686 E0.02276
G1 X126.017 Y129.311 E0.09201
G1 X125.001 Y128.77 E0.03608
G1 X123.996 Y129.306 E0.0357
G1 X121.099 Y129.684 E0.09161
G1 X120.367 Y129.732 E0.02301
G1 X111.616 Y129.733 E0.27439
G1 X110.891 Y129.686 E0.02276
G1 X107.981 Y129.311 E0.09201
G1 X104.336 Y127.37 E0.12947
G1 X101.521 Y124.164 E0.13378
G1 X100.069 Y120.309 E0.12918
G1 X100.069 Y102.208 E0.56754
G1 X101.382 Y99.036 E0.10764
G1 X100.069 Y95.865 E0.10764
G1 X100.069 Y89.691 E0.19356
G1 X101.5 Y85.892 E0.1273
G1 X101.675 Y85.963 F10800
M204 P1000
G1 X101.85 Y86.033
G1 F1200
G1 X104.571 Y82.933 E0.12933
G1 X108.085 Y81.059 E0.12487
G1 X110.902 Y80.691 E0.08908
G1 X111.61 Y80.645 E0.02226
G1 X120.354 Y80.645 E0.27414
G1 X121.062 Y80.691 E0.02226
G1 X121.665 Y80.77 E0.01907
G1 X123.879 Y81.059 E0.07001
G1 X125. Y81.657 E0.03983
G1 X126.121 Y81.059 E0.03983
G1 X128.938 Y80.691 E0.08908
G1 X129.646 Y80.645 E0.02226
G1 X138.39 Y80.645 E0.27414
G1 X139.098 Y80.691 E0.02226
G1 X139.701 Y80.77 E0.01907
G1 X141.915 Y81.059 E0.07001
G1 X145.429 Y82.933 E0.12487
G1 X148.15 Y86.033 E0.12933
G1 X149.554 Y89.76 E0.12487
G1 X149.554 Y95.79 E0.18905
G1 X148.21 Y99.036 E0.11018
G1 X149.554 Y102.283 E0.11018
G1 X149.554 Y120.24 E0.56303
G1 X148.15 Y123.967 E0.12487
G1 X145.429 Y127.067 E0.12933
G1 X141.915 Y128.941 E0.12487
G1 X139.098 Y129.309 E0.08907
G1 X138.39 Y129.355 E0.02224
G1 X129.664 Y129.356 E0.27363
G1 X128.963 Y129.311 E0.02201
G1 X126.133 Y128.946 E0.08947
G1 X125.001 Y128.343 E0.04022
G1 X123.879 Y128.941 E0.03985
G1 X121.062 Y129.309 E0.08907
G1 X120.355 Y129.355 E0.02224
G1 X111.628 Y129.356 E0.27363
G1 X110.927 Y129.311 E0.02201
G1 X108.097 Y128.946 E0.08947
G1 X104.574 Y127.07 E0.12515
G1 X101.85 Y123.967 E0.12947
G1 X100.446 Y120.24 E0.12487
G1 X100.446 Y102.283 E0.56303
G1 X101.79 Y99.036 E0.11018
G1 X100.446 Y95.79 E0.11018
G1 X100.446 Y89.76 E0.18905
G1 X101.828 Y86.089 E0.12299
M204 P1500
G1 X102.003 Y86.16 F10800
M204 P1000
G1 X102.178 Y86.23
G1 F1200
G1 X104.809 Y83.234 E0.12502
G1 X108.202 Y81.424 E0.12057
G1 X110.939 Y81.067 E0.08654
G1 X111.623 Y81.022 E0.02149
G1 X120.341 Y81.022 E0.27338
G1 X121.025 Y81.067 E0.02149
G1 X121.616 Y81.144 E0.01868
G1 X123.762 Y81.424 E0.06786
G1 X125 Y82.084 E0.04398
G1 X126.238 Y81.424 E0.04398
G1 X128.975 Y81.067 E0.08654
G1 X129.659 Y81.022 E0.02149
G1 X138.377 Y81.022 E0.27338
G1 X139.061 Y81.067 E0.02149
G1 X139.652 Y81.144 E0.01868
G1 X141.798 Y81.424 E0.06786
G1 X145.191 Y83.234 E0.12057
G1 X147.822 Y86.23 E0.12502
G1 X149.177 Y89.829 E0.12057
G1 X149.177 Y95.715 E0.18455
G1 X147.801 Y99.036 E0.11273
G1 X149.177 Y102.358 E0.11273
G1 X149.177 Y120.171 E0.55853
G1 X147.822 Y123.77 E0.12057
G1 X145.191 Y126.766 E0.12502
G1 X141.798 Y128.576 E0.12057
G1 X139.062 Y128.933 E0.08653
G1 X138.378 Y128.978 E0.02147
G1 X129.676 Y128.978 E0.27286
G1 X128.999 Y128.935 E0.02125
G1 X126.249 Y128.581 E0.08694
G1 X125. Y127.916 E0.04437
G1 X123.762 Y128.576 E0.044
G1 X121.026 Y128.933 E0.08653
G1 X120.342 Y128.978 E0.02147
G1 X111.64 Y128.978 E0.27286
G1 X110.963 Y128.935 E0.02125
G1 X108.214 Y128.581 E0.08694
G1 X104.812 Y126.769 E0.12083
G1 X102.178 Y123.77 E0.12515
G1 X100.823 Y120.171 E0.12057
G1 X100.823 Y102.358 E0.55853
G1 X102.199 Y99.036 E0.11273
G1 X100.823 Y95.715 E0.11273
G1 X100.823 Y89.829 E0.18455
G1 X102.157 Y86.286 E0.11869
M204 P1500
G1 X102.332 Y86.357 F10800
M204 P1000
G1 X102.507 Y86.427
G1 F1200
G1 X105.047 Y83.534 E0.12071
G1 X108.319 Y81.789 E0.11626
G1 X110.975 Y81.442 E0.084
G1 X111.635 Y81.399 E0.02072
G1 X120.329 Y81.399 E0.27261
G1 X120.989 Y81.442 E0.02072
G1 X121.567 Y81.518 E0.0183
G1 X123.645 Y81.789 E0.06571
G1 X125 Y82.512 E0.04814
G1 X126.355 Y81.789 E0.04814
G1 X129.011 Y81.442 E0.084
G1 X129.671 Y81.399 E0.02072
G1 X138.365 Y81.399 E0.27261
G1 X139.025 Y81.442 E0.02072
G1 X139.603 Y81.518 E0.0183
G1 X141.681 Y81.789 E0.06571
G1 X144.953 Y83.534 E0.11626
G1 X147.493 Y86.427 E0.12071
G1 X148.8 Y89.897 E0.11626
G1 X148.8 Y95.64 E0.18004
G1 X147.393 Y99.036 E0.11527
G1 X148.8 Y102.433 E0.11527
G1 X148.8 Y120.103 E0.55402
G1 X147.493 Y123.573 E0.11626
G1 X144.953 Y126.466 E0.12071
G1 X141.681 Y128.211 E0.11626
G1 X139.025 Y128.558 E0.084
G1 X138.366 Y128.601 E0.02071
G1 X129.688 Y128.601 E0.2721
G1 X129.036 Y128.56 E0.02049
G1 X126.366 Y128.215 E0.0844
G1 X125. Y127.488 E0.04851
G1 X123.645 Y128.211 E0.04815
G1 X120.989 Y128.558 E0.084
G1 X120.33 Y128.601 E0.02071
G1 X111.652 Y128.601 E0.2721
G1 X111. Y128.56 E0.02049
G1 X108.33 Y128.215 E0.0844
G1 X105.05 Y126.469 E0.11652
G1 X102.507 Y123.573 E0.12084
G1 X101.2 Y120.103 E0.11626
G1 X101.2 Y102.433 E0.55402
G1 X102.607 Y99.036 E0.11527
G1 X101.2 Y95.64 E0.11527
G1 X101.2 Y89.897 E0.18004
G1 X102.486 Y86.484 E0.11438
M204 P1500
G1 X102.661 Y86.554 F10800
M204 P1000
G1 X102.836 Y86.625
G1 F1200
G1 X105.285 Y83.835 E0.11641
G1 X108.436 Y82.154 E0.11195
G1 X111.012 Y81.818 E0.08147
G1 X111.647 Y81.777 E0.01996
G1 X120.317 Y81.777 E0.27184
G1 X120.952 Y81.818 E0.01996
G1 X121.519 Y81.892 E0.01791
G1 X123.529 Y82.154 E0.06355
G1 X125. Y82.939 E0.05229
G1 X126.471 Y82.154 E0.05229
G1 X129.048 Y81.818 E0.08147
G1 X129.683 Y81.777 E0.01996
G1 X138.353 Y81.777 E0.27184
G1 X138.988 Y81.818 E0.01996
G1 X139.555 Y81.892 E0.01791
G1 X141.565 Y82.154 E0.06355
G1 X144.715 Y83.835 E0.11195
G1 X147.164 Y86.625 E0.11641
G1 X148.423 Y89.966 E0.11195
M73 P1 R75
G1 X148.423 Y95.565 E0.17554
M73 Q1 S76
G1 X146.985 Y99.036 E0.11782
G1 X148.423 Y102.508 E0.11782
G1 X148.423 Y120.034 E0.54952
G1 X147.164 Y123.375 E0.11195
G1 X144.715 Y126.165 E0.11641
G1 X141.565 Y127.846 E0.11195
G1 X138.988 Y128.182 E0.08146
G1 X138.354 Y128.223 E0.01994
G1 X129.7 Y128.224 E0.27134
G1 X129.072 Y128.184 E0.01973
G1 X126.482 Y127.85 E0.08186
G1 X125. Y127.061 E0.05265
G1 X123.529 Y127.846 E0.05229
G1 X120.952 Y128.182 E0.08146
G1 X120.318 Y128.223 E0.01994
G1 X111.664 Y128.224 E0.27134
G1 X111.036 Y128.184 E0.01973
G1 X108.446 Y127.85 E0.08186
G1 X105.288 Y126.168 E0.1122
G1 X102.836 Y123.375 E0.11653
G1 X101.577 Y120.034 E0.11196
G1 X101.577 Y102.508 E0.54952
M73 Q1 S75
G1 X103.015 Y99.036 E0.11782
G1 X101.577 Y95.565 E0.11782
G1 X101.577 Y89.966 E0.17554
G1 X102.814 Y86.681 E0.11007
M204 P1500
G1 X102.989 Y86.751 F10800
M204 P1000
G1 X103.164 Y86.822
G1 F1200
G1 X105.523 Y84.135 E0.1121
G1 X108.552 Y82.519 E0.10765
G1 X111.049 Y82.193 E0.07893
G1 X111.659 Y82.154 E0.01919
G1 X120.305 Y82.154 E0.27107
G1 X120.915 Y82.193 E0.01919
G1 X121.47 Y82.266 E0.01753
G1 X123.412 Y82.519 E0.0614
G1 X125. Y83.366 E0.05644
G1 X126.588 Y82.519 E0.05644
G1 X129.085 Y82.193 E0.07893
G1 X129.695 Y82.154 E0.01919
G1 X138.341 Y82.154 E0.27107
G1 X138.951 Y82.193 E0.01919
G1 X139.506 Y82.266 E0.01753
G1 X141.448 Y82.519 E0.0614
G1 X144.477 Y84.135 E0.10765
G1 X146.836 Y86.822 E0.1121
G1 X148.046 Y90.035 E0.10765
G1 X148.046 Y95.49 E0.17103
G1 X146.611 Y98.954 E0.11759
G1 X146.529 Y99.036 E0.00363
G1 X146.611 Y99.118 E0.00363
G1 X148.046 Y102.583 E0.11759
G1 X148.046 Y119.965 E0.54501
G1 X146.836 Y123.178 E0.10765
G1 X144.477 Y125.865 E0.1121
G1 X141.448 Y127.481 E0.10765
G1 X138.952 Y127.807 E0.07892
G1 X138.341 Y127.846 E0.01917
G1 X129.712 Y127.847 E0.27057
G1 X129.108 Y127.808 E0.01897
G1 X126.599 Y127.485 E0.07932
G1 X125. Y126.634 E0.0568
G1 X123.412 Y127.481 E0.05644
G1 X120.916 Y127.807 E0.07892
G1 X120.305 Y127.846 E0.01917
G1 X111.676 Y127.847 E0.27057
G1 X111.072 Y127.808 E0.01897
G1 X108.563 Y127.485 E0.07932
G1 X105.526 Y125.868 E0.10789
G1 X103.164 Y123.178 E0.11222
G1 X101.954 Y119.965 E0.10765
G1 X101.954 Y102.583 E0.54501
G1 X103.389 Y99.118 E0.11759
G1 X103.471 Y99.036 E0.00363
G1 X103.389 Y98.954 E0.00363
G1 X101.954 Y95.49 E0.11759
G1 X101.954 Y90.035 E0.17103
G1 X103.143 Y86.878 E0.10577
M204 P1500
G1 X103.318 Y86.948 F10800
M204 P1000
G1 X103.493 Y87.019
G1 F1200
G1 X105.761 Y84.435 E0.1078
G1 X108.669 Y82.884 E0.10334
G1 X111.085 Y82.569 E0.07639
G1 X111.672 Y82.531 E0.01842
G1 X120.293 Y82.531 E0.27031
G1 X120.879 Y82.569 E0.01842
G1 X121.421 Y82.64 E0.01715
G1 X123.295 Y82.884 E0.05925
G1 X125. Y83.794 E0.0606
G1 X126.705 Y82.884 E0.0606
G1 X129.121 Y82.569 E0.07639
G1 X129.707 Y82.531 E0.01842
G1 X138.328 Y82.531 E0.27031
G1 X138.915 Y82.569 E0.01842
G1 X139.457 Y82.64 E0.01715
G1 X141.331 Y82.884 E0.05925
G1 X144.239 Y84.435 E0.10334
G1 X146.507 Y87.019 E0.1078
G1 X147.669 Y90.103 E0.10334
G1 X147.669 Y95.415 E0.16653
G1 X146.291 Y98.741 E0.11288
G1 X145.996 Y99.036 E0.0131
G1 X146.291 Y99.332 E0.0131
G1 X147.669 Y102.658 E0.11288
G1 X147.669 Y119.897 E0.54051
G1 X146.507 Y122.981 E0.10334
G1 X144.239 Y125.565 E0.1078
G1 X141.331 Y127.116 E0.10334
G1 X138.915 Y127.431 E0.07639
G1 X138.329 Y127.469 E0.01841
G1 X129.724 Y127.47 E0.26981
G1 X129.144 Y127.433 E0.01821
G1 X126.715 Y127.12 E0.07679
G1 X125. Y126.206 E0.06094
G1 X123.295 Y127.116 E0.06059
G1 X120.879 Y127.431 E0.07639
G1 X120.293 Y127.469 E0.01841
G1 X111.688 Y127.47 E0.26981
G1 X111.108 Y127.433 E0.01821
G1 X108.679 Y127.12 E0.07679
G1 X105.764 Y125.567 E0.10357
G1 X103.493 Y122.981 E0.10791
G1 X102.331 Y119.897 E0.10334
M73 P1 R74
G1 X102.331 Y102.658 E0.54051
G1 X103.709 Y99.332 E0.11288
G1 X104.004 Y99.036 E0.0131
G1 X103.709 Y98.741 E0.0131
G1 X102.331 Y95.415 E0.11288
G1 X102.331 Y90.103 E0.16653
G1 X103.472 Y87.075 E0.10146
M204 P1500
G1 X103.647 Y87.146 F10800
M204 P1000
G1 X103.822 Y87.216
G1 F1200
G1 X105.999 Y84.736 E0.10349
G1 X108.786 Y83.249 E0.09904
G1 X111.122 Y82.944 E0.07386
G1 X111.684 Y82.908 E0.01765
G1 X120.28 Y82.908 E0.26954
G1 X120.842 Y82.944 E0.01765
G1 X121.372 Y83.013 E0.01676
G1 X123.178 Y83.249 E0.05709
G1 X125. Y84.221 E0.06475
G1 X126.822 Y83.249 E0.06475
G1 X129.158 Y82.944 E0.07386
G1 X129.72 Y82.908 E0.01765
G1 X138.316 Y82.908 E0.26954
G1 X138.878 Y82.944 E0.01765
G1 X139.408 Y83.013 E0.01676
G1 X141.214 Y83.249 E0.05709
G1 X144.001 Y84.736 E0.09904
G1 X146.178 Y87.216 E0.10349
G1 X147.292 Y90.172 E0.09904
G1 X147.292 Y95.34 E0.16202
G1 X145.971 Y98.527 E0.10818
G1 X145.462 Y99.036 E0.02257
G1 X145.972 Y99.545 E0.02257
G1 X147.292 Y102.733 E0.10818
G1 X147.292 Y119.828 E0.536
G1 X146.178 Y122.784 E0.09904
G1 X144.001 Y125.264 E0.10349
G1 X141.214 Y126.751 E0.09904
G1 X138.878 Y127.056 E0.07385
G1 X138.317 Y127.092 E0.01764
G1 X129.736 Y127.093 E0.26905
G1 X129.18 Y127.057 E0.01745
G1 X126.832 Y126.755 E0.07425
G1 X125. Y125.779 E0.06508
G1 X123.178 Y126.751 E0.06474
G1 X120.842 Y127.056 E0.07385
G1 X120.281 Y127.092 E0.01764
G1 X111.7 Y127.093 E0.26905
G1 X111.145 Y127.057 E0.01745
G1 X108.796 Y126.755 E0.07425
G1 X106.002 Y125.267 E0.09926
G1 X103.822 Y122.784 E0.1036
G1 X102.708 Y119.828 E0.09904
G1 X102.708 Y102.733 E0.53601
G1 X104.029 Y99.545 E0.10818
G1 X104.538 Y99.036 E0.02257
G1 X104.029 Y98.527 E0.02257
G1 X102.708 Y95.34 E0.10818
G1 X102.708 Y90.172 E0.16202
G1 X103.8 Y87.272 E0.09716
M204 P1500
G1 X103.975 Y87.343 F10800
M204 P1000
G1 X104.15 Y87.413
G1 F1200
G1 X106.237 Y85.036 E0.09918
G1 X108.903 Y83.614 E0.09473
G1 X111.159 Y83.32 E0.07132
G1 X111.696 Y83.285 E0.01689
G1 X120.268 Y83.285 E0.26877
G1 X120.805 Y83.32 E0.01689
G1 X121.323 Y83.387 E0.01638
G1 X123.061 Y83.614 E0.05494
G1 X125. Y84.649 E0.06891
G1 X126.939 Y83.614 E0.06891
G1 X129.195 Y83.32 E0.07132
G1 X129.732 Y83.285 E0.01689
G1 X138.304 Y83.285 E0.26877
G1 X138.841 Y83.32 E0.01689
G1 X139.359 Y83.387 E0.01638
G1 X141.097 Y83.614 E0.05494
G1 X143.763 Y85.036 E0.09473
G1 X145.85 Y87.413 E0.09918
G1 X146.915 Y90.241 E0.09473
G1 X146.915 Y95.265 E0.15752
G1 X145.652 Y98.314 E0.10348
G1 X144.929 Y99.036 E0.03204
G1 X145.652 Y99.759 E0.03204
G1 X146.915 Y102.808 E0.10348
G1 X146.915 Y119.759 E0.5315
G1 X145.85 Y122.587 E0.09473
G1 X143.763 Y124.964 E0.09918
G1 X141.097 Y126.386 E0.09473
G1 X138.842 Y126.68 E0.07131
G1 X138.305 Y126.715 E0.01687
G1 X129.748 Y126.716 E0.26829
G1 X129.217 Y126.682 E0.01669
G1 X126.948 Y126.389 E0.07171
G1 X124.999 Y125.352 E0.06923
G1 X123.061 Y126.386 E0.06888
G1 X120.806 Y126.68 E0.07131
G1 X120.269 Y126.715 E0.01687
G1 X111.712 Y126.716 E0.26829
G1 X111.181 Y126.682 E0.01669
G1 X108.912 Y126.389 E0.07171
G1 X106.24 Y124.966 E0.09494
G1 X104.15 Y122.587 E0.09929
G1 X103.085 Y119.759 E0.09473
G1 X103.085 Y102.808 E0.5315
G1 X104.348 Y99.759 E0.10348
G1 X105.071 Y99.036 E0.03204
G1 X104.348 Y98.314 E0.03204
G1 X103.085 Y95.265 E0.10348
G1 X103.085 Y90.241 E0.15752
G1 X104.129 Y87.469 E0.09285
M204 P1500
G1 X104.304 Y87.54 F10800
M204 P1000
G1 X104.479 Y87.611
G1 F1200
G1 X106.475 Y85.337 E0.09488
G1 X109.02 Y83.979 E0.09042
G1 X111.195 Y83.695 E0.06878
G1 X111.708 Y83.662 E0.01612
G1 X120.256 Y83.662 E0.268
G1 X120.769 Y83.695 E0.01612
G1 X121.275 Y83.761 E0.016
G1 X122.944 Y83.979 E0.05279
G1 X125. Y85.076 E0.07306
G1 X127.056 Y83.979 E0.07306
G1 X129.231 Y83.695 E0.06878
G1 X129.744 Y83.662 E0.01612
G1 X138.292 Y83.662 E0.268
G1 X138.805 Y83.695 E0.01612
G1 X139.311 Y83.761 E0.016
G1 X140.98 Y83.979 E0.05279
G1 X143.525 Y85.337 E0.09043
G1 X145.521 Y87.611 E0.09488
G1 X146.538 Y90.309 E0.09042
G1 X146.538 Y95.19 E0.15301
G1 X145.332 Y98.1 E0.09877
G1 X144.396 Y99.036 E0.04151
G1 X145.332 Y99.972 E0.04151
