; generated by SuperSlicer 2.3.57 on 2022-03-10 at 15:26:04 UTC

; 

; external perimeters extrusion width = 0.45mm
; perimeters extrusion width = 0.45mm
; infill extrusion width = 0.45mm
; solid infill extrusion width = 0.45mm
; top infill extrusion width = 0.40mm
; first layer extrusion width = 0.42mm

; object:{"name":"Black - Linear Bearing Box Top (A)_2","id":"Black - Linear Bearing Box Top (A)_2.stl id:0 copy 0","object_center":[125.000000,88.000010,0.000000],"boundingbox_center":[125.000000,88.000010,6.930323],"boundingbox_size":[28.000000,27.999977,13.860646]}
; object:{"name":"Black - Linear Bearing Box Top (B)_2","id":"Black - Linear Bearing Box Top (B)_2.stl id:1 copy 0","object_center":[125.000000,121.999988,0.000000],"boundingbox_center":[125.000000,121.999988,6.930323],"boundingbox_size":[28.000000,27.999981,13.860647]}
; Total objects to print: 2
M486 T2
; plater:{"center":[125.000000,105.000000,0.000000],"boundingbox_center":[125.000000,105.000000,6.930323],"boundingbox_size":[28.000000,61.999957,13.860647]}

M73 P0 R92
M73 Q0 S93
;TYPE:Custom
M862.3 P "MK3S" ; printer model check
M862.1 P0.4 ; nozzle diameter check
M115 U3.10.0 ; tell printer latest fw version
G90 ; use absolute coordinates
M83 ; extruder relative mode
M104 S255 ; set extruder temp
M140 S100 ; set bed temp
M190 S100 ; wait for bed temp
M109 S255 ; wait for extruder temp
G28 W ; home all without mesh bed level
G80 ; mesh bed leveling
G1 Y-3.0 F1000.0 ; go outside print area
G92 E0.0
G1 X60.0 E9.0 F1000.0 ; intro line
G1 X100.0 E12.5 F1000.0 ; intro line
G92 E0.0
M221 S95

; Don't change E values below. Excessive value can damage the printer.
M907 E430 ; set extruder motor current
M107
G21 ; set units to millimeters
G90 ; use absolute coordinates
M83 ; use relative distances for extrusion
M900 K0.04 ; Filament gcode LA 1.5
M900 K20 ; Filament gcode LA 1.0
M107
;LAYER_CHANGE
;Z:0.2
;HEIGHT:0.2
;BEFORE_LAYER_CHANGE
G92 E0.0
;0.2


M73 P0 R91
G1 E-0.8 F2100
G1 Z0.4 F10800
;AFTER_LAYER_CHANGE
;0.2
G1 Z0.6
M204 P1500
G1 X102.409 Y68.428
G1 Z0.2
G1 E0.8 F2100
;TYPE:Skirt
;WIDTH:0.42
G1 F1200
G1 X103.253 Y67.165 E0.04763
G1 X105.165 Y65.253 E0.08476
G1 X107.018 Y64.015 E0.06987
G1 X109.146 Y63.134 E0.07223
G1 X111.332 Y62.699 E0.06987
G1 X116.186 Y62.699 E0.15221
G1 X119.148 Y62.699 E0.09286
G1 X121.333 Y63.134 E0.06987
G1 X123.461 Y64.016 E0.07222
G1 X125.314 Y65.254 E0.06987
G1 X125.528 Y65.468 E0.0095
G1 X125.743 Y65.253 E0.00953
G1 X127.596 Y64.015 E0.06987
G1 X129.724 Y63.134 E0.07222
G1 X131.91 Y62.699 E0.06987
G1 X139.669 Y62.699 E0.24328
G1 X141.854 Y63.134 E0.06987
G1 X143.983 Y64.015 E0.07222
G1 X145.835 Y65.253 E0.06987
G1 X147.747 Y67.165 E0.08476
G1 X148.985 Y69.018 E0.06987
G1 X149.866 Y71.146 E0.07222
G1 X150.301 Y73.331 E0.06987
G1 X150.301 Y99.36 E0.81613
G1 X150.253 Y100.093 E0.02303
G1 X150.011 Y101.952 E0.05878
G1 X149.635 Y103.369 E0.04595
G1 X148.88 Y105.214 E0.0625
G1 X149.301 Y107.331 E0.06769
G1 X149.301 Y109.781 E0.07681
G1 X149.866 Y111.146 E0.04632
G1 X150.301 Y113.331 E0.06987
G1 X150.301 Y131.069 E0.55615
G1 X149.866 Y133.254 E0.06987
G1 X149.131 Y135.029 E0.06023
G1 X149.01 Y135.953 E0.0292
G1 X148.635 Y137.369 E0.04594
G1 X147.781 Y139.455 E0.07067
G1 X147.045 Y140.742 E0.04649
G1 X145.675 Y142.543 E0.07094
G1 X144.631 Y143.596 E0.0465
G1 X142.841 Y144.98 E0.07094
G1 X141.56 Y145.727 E0.0465
G1 X139.473 Y146.602 E0.07095
G1 X138.042 Y146.991 E0.0465
G1 X136.15 Y147.249 E0.05989
G1 X135.388 Y147.3 E0.02394
G1 X113.64 Y147.301 E0.68189
G1 X112.906 Y147.253 E0.02305
G1 X111.048 Y147.01 E0.05878
G1 X109.631 Y146.635 E0.04594
G1 X107.545 Y145.781 E0.07067
G1 X106.258 Y145.045 E0.04649
G1 X104.457 Y143.675 E0.07094
G1 X103.404 Y142.631 E0.0465
G1 X102.02 Y140.841 E0.07094
G1 X101.273 Y139.56 E0.04649
G1 X100.398 Y137.473 E0.07095
G1 X100.008 Y136.042 E0.04651
G1 X99.751 Y134.149 E0.05989
G1 X99.7 Y133.388 E0.02394
G1 X99.699 Y107.331 E0.81697
G1 X100.134 Y105.146 E0.06988
G1 X101.015 Y103.018 E0.07222
G1 X101.199 Y102.742 E0.01038
G1 X101.009 Y102.042 E0.02275
G1 X100.872 Y101.036 E0.03184
G1 X100.134 Y99.254 E0.06047
G1 X99.699 Y97.069 E0.06987
G1 X99.699 Y79.331 E0.55615
G1 X100.134 Y77.146 E0.06987
G1 X100.699 Y75.781 E0.04631
G1 X100.699 Y73.331 E0.07681
G1 X101.134 Y71.146 E0.06987
G1 X102.015 Y69.018 E0.07222
G1 X102.376 Y68.478 E0.02035
G1 X102.533 Y68.583 F10800
M204 P1000
G1 X102.689 Y68.687
G1 F1200
G1 X103.546 Y67.405 E0.04835
G1 X105.405 Y65.546 E0.08243
G1 X107.196 Y64.349 E0.06754
G1 X109.256 Y63.496 E0.0699
G1 X111.369 Y63.076 E0.06754
G1 X116.186 Y63.076 E0.15105
G1 X119.111 Y63.077 E0.0917
G1 X121.223 Y63.497 E0.06754
G1 X123.283 Y64.35 E0.06989
G1 X125.074 Y65.547 E0.06754
G1 X125.528 Y66.002 E0.02016
G1 X125.984 Y65.546 E0.02019
G1 X127.775 Y64.349 E0.06754
G1 X129.834 Y63.496 E0.06989
G1 X131.947 Y63.076 E0.06754
G1 X139.632 Y63.076 E0.24095
G1 X141.744 Y63.496 E0.06754
G1 X143.804 Y64.35 E0.06989
G1 X145.595 Y65.546 E0.06754
G1 X147.454 Y67.405 E0.08243
G1 X148.651 Y69.196 E0.06754
G1 X149.504 Y71.256 E0.06989
G1 X149.924 Y73.368 E0.06754
G1 X149.924 Y99.348 E0.81458
G1 X149.878 Y100.057 E0.02227
G1 X149.64 Y101.879 E0.05763
G1 X149.277 Y103.249 E0.04442
G1 X148.479 Y105.197 E0.066
G1 X148.504 Y105.256 E0.002
G1 X148.924 Y107.368 E0.06754
G1 X148.924 Y109.856 E0.078
G1 X149.504 Y111.256 E0.0475
G1 X149.924 Y113.368 E0.06754
G1 X149.924 Y131.032 E0.55382
G1 X149.504 Y133.144 E0.06754
G1 X148.764 Y134.931 E0.06063
G1 X148.64 Y135.88 E0.03
G1 X148.277 Y137.249 E0.04441
G1 X147.441 Y139.289 E0.06912
G1 X146.73 Y140.533 E0.04494
G1 X145.39 Y142.295 E0.06939
G1 X144.38 Y143.312 E0.04495
G1 X142.63 Y144.667 E0.06939
G1 X141.392 Y145.389 E0.04495
G1 X139.35 Y146.244 E0.0694
G1 X137.967 Y146.621 E0.04495
G1 X136.111 Y146.873 E0.05872
G1 X135.375 Y146.923 E0.02314
G1 X113.652 Y146.924 E0.6811
G1 X112.943 Y146.878 E0.02228
G1 X111.121 Y146.64 E0.05763
G1 X109.751 Y146.277 E0.04441
G1 X107.711 Y145.441 E0.06913
M73 Q0 S92
G1 X106.467 Y144.73 E0.04494
G1 X104.705 Y143.39 E0.06939
G1 X103.687 Y142.38 E0.04495
G1 X102.333 Y140.63 E0.06939
G1 X101.611 Y139.392 E0.04494
G1 X100.756 Y137.35 E0.0694
G1 X100.379 Y135.967 E0.04496
G1 X100.127 Y134.111 E0.05872
G1 X100.077 Y133.375 E0.02314
G1 X100.076 Y107.369 E0.81541
G1 X100.496 Y105.256 E0.06755
G1 X101.349 Y103.196 E0.06989
G1 X101.608 Y102.809 E0.0146
G1 X101.379 Y101.967 E0.02736
G1 X101.239 Y100.937 E0.0326
G1 X100.496 Y99.144 E0.06083
G1 X100.076 Y97.032 E0.06754
G1 X100.076 Y79.368 E0.55382
G1 X100.496 Y77.256 E0.06754
G1 X101.076 Y75.856 E0.0475
G1 X101.076 Y73.368 E0.078
G1 X101.496 Y71.256 E0.06754
G1 X102.349 Y69.196 E0.06989
G1 X102.656 Y68.737 E0.01731
M204 P1500
G1 X102.813 Y68.842 F10800
M204 P1000
G1 X102.97 Y68.947
G1 F1200
G1 X103.839 Y67.646 E0.04907
G1 X105.646 Y65.839 E0.08011
G1 X107.375 Y64.684 E0.06522
G1 X109.366 Y63.859 E0.06757
G1 X111.406 Y63.453 E0.06521
G1 X116.186 Y63.453 E0.14989
G1 X119.074 Y63.454 E0.09053
G1 X121.113 Y63.859 E0.06521
G1 X123.104 Y64.684 E0.06756
G1 X124.833 Y65.84 E0.06521
G1 X125.528 Y66.535 E0.03082
G1 X126.224 Y65.839 E0.03085
G1 X127.953 Y64.684 E0.06521
G1 X129.944 Y63.859 E0.06756
G1 X131.984 Y63.453 E0.06521
G1 X139.595 Y63.453 E0.23862
G1 X141.635 Y63.859 E0.06521
G1 X143.625 Y64.684 E0.06756
G1 X145.355 Y65.839 E0.06521
G1 X147.161 Y67.646 E0.0801
G1 X148.316 Y69.375 E0.06521
G1 X149.141 Y71.366 E0.06756
G1 X149.547 Y73.406 E0.06521
G1 X149.547 Y99.336 E0.81303
G1 X149.502 Y100.02 E0.0215
G1 X149.269 Y101.806 E0.05648
G1 X148.918 Y103.128 E0.04289
G1 X148.102 Y105.123 E0.06759
G1 X148.066 Y105.185 E0.00224
G1 X148.141 Y105.366 E0.00612
G1 X148.547 Y107.405 E0.06521
G1 X148.547 Y109.931 E0.07919
G1 X149.141 Y111.366 E0.04869
G1 X149.547 Y113.405 E0.06521
G1 X149.547 Y130.995 E0.55149
G1 X149.141 Y133.034 E0.06521
G1 X148.396 Y134.833 E0.06103
G1 X148.269 Y135.806 E0.0308
G1 X147.918 Y137.128 E0.04288
G1 X147.102 Y139.123 E0.06758
G1 X146.415 Y140.325 E0.04339
G1 X145.105 Y142.047 E0.06784
G1 X144.13 Y143.029 E0.0434
G1 X142.419 Y144.354 E0.06784
G1 X141.223 Y145.051 E0.0434
G1 X139.227 Y145.887 E0.06785
G1 X137.892 Y146.251 E0.0434
G1 X136.073 Y146.498 E0.05754
G1 X135.362 Y146.546 E0.02235
G1 X113.664 Y146.547 E0.68032
G1 X112.98 Y146.502 E0.02151
G1 X111.194 Y146.269 E0.05648
G1 X109.872 Y145.918 E0.04288
G1 X107.877 Y145.102 E0.06758
G1 X106.675 Y144.415 E0.04339
G1 X104.953 Y143.105 E0.06784
G1 X103.971 Y142.13 E0.0434
G1 X102.646 Y140.419 E0.06784
G1 X101.949 Y139.223 E0.04339
G1 X101.113 Y137.227 E0.06785
G1 X100.749 Y135.892 E0.04341
G1 X100.502 Y134.073 E0.05754
G1 X100.454 Y133.362 E0.02234
G1 X100.453 Y107.406 E0.81384
G1 X100.859 Y105.366 E0.06522
G1 X101.684 Y103.375 E0.06756
G1 X102.017 Y102.876 E0.01882
G1 X101.749 Y101.892 E0.03197
G1 X101.606 Y100.838 E0.03335
G1 X100.859 Y99.034 E0.0612
G1 X100.453 Y96.995 E0.06521
G1 X100.453 Y79.405 E0.5515
G1 X100.859 Y77.366 E0.06521
G1 X101.453 Y75.931 E0.04869
G1 X101.453 Y73.405 E0.07919
G1 X101.859 Y71.366 E0.06521
G1 X102.684 Y69.375 E0.06756
G1 X102.936 Y68.997 E0.01426
M204 P1500
G1 X103.093 Y69.101 F10800
M204 P1000
G1 X103.25 Y69.206
G1 F1200
G1 X104.132 Y67.886 E0.04978
G1 X105.886 Y66.132 E0.07778
G1 X107.554 Y65.018 E0.06289
G1 X109.476 Y64.221 E0.06524
G1 X111.443 Y63.83 E0.06289
G1 X116.186 Y63.831 E0.14872
G1 X119.037 Y63.831 E0.08937
G1 X121.003 Y64.222 E0.06288
G1 X122.926 Y65.018 E0.06523
G1 X124.593 Y66.133 E0.06288
G1 X125.528 Y67.068 E0.04148
G1 X126.465 Y66.132 E0.04151
G1 X128.132 Y65.018 E0.06288
G1 X130.054 Y64.222 E0.06523
G1 X132.021 Y63.83 E0.06288
G1 X139.557 Y63.83 E0.23629
G1 X141.525 Y64.222 E0.06288
G1 X143.447 Y65.018 E0.06523
G1 X145.114 Y66.132 E0.06288
G1 X146.868 Y67.886 E0.07778
G1 X147.982 Y69.554 E0.06288
G1 X148.778 Y71.476 E0.06523
G1 X149.17 Y73.443 E0.06288
G1 X149.17 Y99.324 E0.81148
G1 X149.127 Y99.983 E0.02073
G1 X148.898 Y101.733 E0.05533
G1 X148.56 Y103.008 E0.04136
G1 X147.762 Y104.958 E0.06605
G1 X147.647 Y105.159 E0.00727
G1 X147.778 Y105.476 E0.01075
G1 X148.17 Y107.443 E0.06288
G1 X148.17 Y110.006 E0.08037
G1 X148.778 Y111.476 E0.04988
G1 X149.17 Y113.443 E0.06288
G1 X149.17 Y130.957 E0.54916
G1 X148.778 Y132.924 E0.06288
G1 X148.029 Y134.734 E0.06143
G1 X147.898 Y135.733 E0.03159
G1 X147.56 Y137.008 E0.04135
G1 X146.762 Y138.958 E0.06604
G1 X146.1 Y140.116 E0.04184
G1 X144.82 Y141.799 E0.06629
G1 X143.88 Y142.746 E0.04185
G1 X142.208 Y144.04 E0.06629
G1 X141.055 Y144.712 E0.04185
G1 X139.105 Y145.53 E0.0663
G1 X137.817 Y145.881 E0.04185
G1 X136.035 Y146.122 E0.05637
G1 X135.349 Y146.169 E0.02155
G1 X113.677 Y146.17 E0.67954
G1 X113.016 Y146.127 E0.02074
G1 X111.267 Y145.898 E0.05533
G1 X109.992 Y145.56 E0.04135
G1 X108.043 Y144.762 E0.06604
G1 X106.884 Y144.1 E0.04184
G1 X105.201 Y142.82 E0.06629
G1 X104.254 Y141.88 E0.04185
G1 X102.96 Y140.208 E0.06629
G1 X102.288 Y139.055 E0.04184
G1 X101.47 Y137.105 E0.0663
G1 X101.119 Y135.816 E0.04186
G1 X100.877 Y134.035 E0.05637
G1 X100.831 Y133.349 E0.02155
G1 X100.83 Y107.443 E0.81228
G1 X101.222 Y105.476 E0.06289
G1 X102.018 Y103.553 E0.06524
G1 X102.426 Y102.942 E0.02304
G1 X102.12 Y101.817 E0.03658
G1 X101.973 Y100.739 E0.03411
G1 X101.222 Y98.924 E0.06157
G1 X100.83 Y96.957 E0.06288
G1 X100.83 Y79.443 E0.54917
M73 P1 R91
M73 Q1 S92
G1 X101.222 Y77.476 E0.06288
G1 X101.83 Y76.006 E0.04987
G1 X101.83 Y73.443 E0.08037
G1 X102.222 Y71.476 E0.06288
G1 X103.018 Y69.553 E0.06523
G1 X103.217 Y69.256 E0.01122
M204 P1500
G1 X103.373 Y69.361 F10800
M204 P1000
G1 X103.53 Y69.466
G1 F1200
G1 X104.425 Y68.126 E0.0505
G1 X106.126 Y66.425 E0.07545
G1 X107.732 Y65.352 E0.06056
G1 X109.586 Y64.584 E0.06291
G1 X111.48 Y64.207 E0.06056
G1 X116.186 Y64.208 E0.14756
G1 X118.999 Y64.208 E0.0882
G1 X120.893 Y64.585 E0.06055
G1 X122.747 Y65.352 E0.0629
G1 X124.353 Y66.425 E0.06055
G1 X125.528 Y67.601 E0.05214
G1 X126.705 Y66.425 E0.05217
G1 X128.311 Y65.352 E0.06055
G1 X130.164 Y64.584 E0.0629
G1 X132.058 Y64.207 E0.06055
G1 X139.52 Y64.207 E0.23397
G1 X141.415 Y64.584 E0.06055
G1 X143.268 Y65.352 E0.0629
G1 X144.874 Y66.425 E0.06055
G1 X146.575 Y68.126 E0.07545
G1 X147.648 Y69.732 E0.06055
G1 X148.416 Y71.586 E0.0629
G1 X148.793 Y73.48 E0.06055
G1 X148.793 Y99.311 E0.80993
G1 X148.751 Y99.947 E0.01996
G1 X148.528 Y101.66 E0.05418
G1 X148.202 Y102.888 E0.03982
G1 X147.423 Y104.792 E0.06451
G1 X147.228 Y105.132 E0.01229
G1 X147.416 Y105.586 E0.01539
G1 X147.793 Y107.48 E0.06055
G1 X147.793 Y110.081 E0.08156
G1 X148.416 Y111.586 E0.05106
G1 X148.793 Y113.48 E0.06055
G1 X148.793 Y130.92 E0.54684
G1 X148.416 Y132.814 E0.06055
G1 X147.661 Y134.636 E0.06182
G1 X147.527 Y135.66 E0.03239
G1 X147.202 Y136.888 E0.03982
G1 X146.423 Y138.792 E0.0645
G1 X145.785 Y139.907 E0.04029
G1 X144.534 Y141.551 E0.06474
G1 X143.629 Y142.463 E0.0403
G1 X141.996 Y143.727 E0.06474
G1 X140.886 Y144.374 E0.0403
G1 X138.982 Y145.172 E0.06475
G1 X137.741 Y145.51 E0.0403
G1 X135.997 Y145.747 E0.0552
G1 X135.337 Y145.792 E0.02075
G1 X113.689 Y145.793 E0.67875
G1 X113.053 Y145.751 E0.01997
G1 X111.34 Y145.528 E0.05418
G1 X110.112 Y145.202 E0.03982
G1 X108.208 Y144.423 E0.0645
G1 X107.093 Y143.785 E0.04029
G1 X105.449 Y142.534 E0.06475
G1 X104.537 Y141.629 E0.0403
G1 X103.273 Y139.996 E0.06474
G1 X102.626 Y138.886 E0.04029
G1 X101.828 Y136.982 E0.06475
G1 X101.49 Y135.741 E0.04031
G1 X101.253 Y133.997 E0.0552
G1 X101.208 Y133.337 E0.02075
G1 X101.207 Y107.48 E0.81072
M73 P1 R90
G1 X101.584 Y105.586 E0.06056
G1 X102.352 Y103.732 E0.06291
G1 X102.838 Y103.005 E0.02741
G1 X102.828 Y102.981 E0.00081
G1 X102.49 Y101.741 E0.0403
G1 X102.34 Y100.639 E0.03487
G1 X101.584 Y98.814 E0.06194
G1 X101.207 Y96.92 E0.06055
G1 X101.207 Y79.48 E0.54684
G1 X101.584 Y77.586 E0.06055
G1 X102.207 Y76.081 E0.05106
G1 X102.207 Y73.48 E0.08156
G1 X102.584 Y71.586 E0.06055
G1 X103.352 Y69.732 E0.0629
G1 X103.497 Y69.515 E0.00817
M204 P1500
G1 X103.653 Y69.62 F10800
M204 P1000
G1 X103.81 Y69.725
G1 F1200
G1 X104.718 Y68.367 E0.05122
G1 X106.367 Y66.718 E0.07312
G1 X107.911 Y65.686 E0.05823
G1 X109.696 Y64.947 E0.06058
G1 X111.517 Y64.584 E0.05823
G1 X116.186 Y64.585 E0.14639
G1 X118.962 Y64.585 E0.08704
G1 X120.783 Y64.947 E0.05822
G1 X122.568 Y65.687 E0.06057
G1 X124.112 Y66.718 E0.05822
G1 X125.528 Y68.135 E0.0628
G1 X126.945 Y66.718 E0.06282
G1 X128.489 Y65.686 E0.05822
G1 X130.274 Y64.947 E0.06058
G1 X132.095 Y64.584 E0.05822
G1 X139.483 Y64.584 E0.23164
G1 X141.305 Y64.947 E0.05823
G1 X143.089 Y65.686 E0.06058
G1 X144.633 Y66.718 E0.05822
G1 X146.282 Y68.367 E0.07312
G1 X147.314 Y69.911 E0.05822
G1 X148.053 Y71.696 E0.06057
G1 X148.416 Y73.517 E0.05822
G1 X148.416 Y99.299 E0.80838
G1 X148.376 Y99.91 E0.01919
G1 X148.157 Y101.587 E0.05303
G1 X147.844 Y102.768 E0.03829
G1 X147.083 Y104.626 E0.06297
G1 X146.809 Y105.105 E0.01732
G1 X147.053 Y105.696 E0.02003
G1 X147.416 Y107.517 E0.05822
G1 X147.416 Y110.156 E0.08275
G1 X148.053 Y111.696 E0.05225
G1 X148.416 Y113.517 E0.05822
G1 X148.416 Y130.883 E0.54451
G1 X148.053 Y132.704 E0.05822
G1 X147.314 Y134.489 E0.06058
G1 X147.297 Y134.515 E0.00097
G1 X147.157 Y135.587 E0.03391
G1 X146.844 Y136.768 E0.03829
G1 X146.083 Y138.626 E0.06296
G1 X145.47 Y139.699 E0.03874
G1 X144.249 Y141.303 E0.06319
G1 X143.379 Y142.18 E0.03875
G1 X141.785 Y143.414 E0.06319
G1 X140.718 Y144.036 E0.03875
G1 X138.859 Y144.815 E0.0632
G1 X137.666 Y145.14 E0.03875
G1 X135.959 Y145.372 E0.05402
G1 X135.324 Y145.415 E0.01995
G1 X113.701 Y145.416 E0.67797
G1 X113.09 Y145.376 E0.0192
G1 X111.413 Y145.157 E0.05303
G1 X110.232 Y144.844 E0.03829
G1 X108.374 Y144.083 E0.06296
G1 X107.301 Y143.47 E0.03874
G1 X105.697 Y142.249 E0.0632
G1 X104.82 Y141.379 E0.03875
G1 X103.586 Y139.785 E0.06319
G1 X102.964 Y138.718 E0.03874
G1 X102.185 Y136.859 E0.0632
G1 X101.86 Y135.666 E0.03876
G1 X101.628 Y133.959 E0.05402
G1 X101.585 Y133.324 E0.01995
G1 X101.584 Y107.517 E0.80915
G1 X101.947 Y105.696 E0.05823
G1 X102.686 Y103.911 E0.06058
G1 X103.264 Y103.046 E0.03259
G1 X103.185 Y102.858 E0.00639
G1 X102.86 Y101.666 E0.03875
G1 X102.704 Y100.516 E0.03639
G1 X102.686 Y100.489 E0.001
G1 X101.947 Y98.704 E0.06058
