; generated by SuperSlicer 2.3.57 on 2022-03-10 at 14:33:50 UTC

; 

; external perimeters extrusion width = 0.45mm
; perimeters extrusion width = 0.45mm
; infill extrusion width = 0.45mm
; solid infill extrusion width = 0.45mm
; top infill extrusion width = 0.40mm
; first layer extrusion width = 0.42mm

; object:{"name":"Blue - X Support Bracket Upper (L)_1","id":"Blue - X Support Bracket Upper (L)_1.stl id:0 copy 0","object_center":[142.832223,104.380794,0.000000],"boundingbox_center":[142.832223,104.380794,7.754941],"boundingbox_size":[29.702454,40.385223,15.509883]}
; object:{"name":"Blue - X Support Bracket Upper (R)_1","id":"Blue - X Support Bracket Upper (R)_1.stl id:1 copy 0","object_center":[107.167777,105.619207,0.000000],"boundingbox_center":[107.167777,105.619207,7.754941],"boundingbox_size":[29.702454,40.385223,15.509883]}
; Total objects to print: 2
M486 T2
; plater:{"center":[125.000000,105.000000,0.000000],"boundingbox_center":[125.000000,105.000000,7.754941],"boundingbox_size":[65.366900,41.623636,15.509883]}

M73 P0 R113
M73 Q0 S114
;TYPE:Custom
M862.3 P "MK3S" ; printer model check
M862.1 P0.4 ; nozzle diameter check
M115 U3.10.0 ; tell printer latest fw version
G90 ; use absolute coordinates
M83 ; extruder relative mode
M104 S255 ; set extruder temp
M140 S100 ; set bed temp
M190 S100 ; wait for bed temp
M109 S255 ; wait for extruder temp
G28 W ; home all without mesh bed level
G80 ; mesh bed leveling
G1 Y-3.0 F1000.0 ; go outside print area
G92 E0.0
G1 X60.0 E9.0 F1000.0 ; intro line
G1 X100.0 E12.5 F1000.0 ; intro line
G92 E0.0
M221 S95

; Don't change E values below. Excessive value can damage the printer.
M907 E430 ; set extruder motor current
M107
G21 ; set units to millimeters
G90 ; use absolute coordinates
M83 ; use relative distances for extrusion
M900 K0.04 ; Filament gcode LA 1.5
M900 K20 ; Filament gcode LA 1.0
;LAYER_CHANGE
;Z:0.2
;HEIGHT:0.2
;BEFORE_LAYER_CHANGE
G92 E0.0
;0.2


G1 E-0.8 F2100
G1 Z0.4 F10800
;AFTER_LAYER_CHANGE
;0.2
G1 Z0.6
M204 P1500
G1 X85.425 Y82.326
G1 Z0.2
G1 E0.8 F2100
;TYPE:Skirt
;WIDTH:0.42
G1 F1200
G1 X86.469 Y81.272 E0.04649
G1 X88.173 Y79.952 E0.06761
G1 X89.454 Y79.204 E0.0465
G1 X91.443 Y78.369 E0.06764
G1 X92.876 Y77.978 E0.04656
G1 X94.724 Y77.726 E0.05847
G1 X95.487 Y77.675 E0.02399
G1 X105.156 Y77.674 E0.30316
G1 X106.186 Y77.077 E0.03733
G1 X109.14 Y75.847 E0.10035
G1 X110.572 Y75.46 E0.04649
G1 X113.729 Y75.039 E0.09986
G1 X115.181 Y75.032 E0.04553
G1 X116.359 Y75.178 E0.03723
G1 X116.4 Y75.184 E0.0013
G1 X118.416 Y75.449 E0.06376
G1 X119.839 Y75.829 E0.04616
G1 X122.793 Y77.046 E0.10018
G1 X124.079 Y77.785 E0.0465
G1 X124.192 Y77.871 E0.00446
G1 X125.865 Y76.582 E0.06622
G1 X127.148 Y75.839 E0.0465
G1 X130.107 Y74.606 E0.10051
G1 X131.549 Y74.218 E0.04683
G1 X134.752 Y73.797 E0.10128
G1 X136.235 Y73.797 E0.0465
G1 X137.383 Y73.948 E0.0363
G1 X139.378 Y74.211 E0.06311
G1 X140.801 Y74.59 E0.04616
G1 X143.755 Y75.807 E0.10018
G1 X144.847 Y76.435 E0.03951
G1 X154.485 Y76.435 E0.30218
G1 X155.218 Y76.483 E0.02303
G1 X157.028 Y76.719 E0.05725
G1 X158.442 Y77.094 E0.04584
G1 X160.428 Y77.905 E0.06727
G1 X161.715 Y78.641 E0.04648
G1 X163.432 Y79.945 E0.0676
G1 X164.486 Y80.988 E0.0465
G1 X165.807 Y82.693 E0.06761
G1 X166.554 Y83.973 E0.04649
G1 X167.389 Y85.963 E0.06765
G1 X167.78 Y87.396 E0.04658
G1 X168.032 Y89.244 E0.05848
G1 X168.084 Y90.007 E0.02399
G1 X168.084 Y121.374 E0.9835
G1 X168.037 Y122.107 E0.02303
G1 X167.8 Y123.918 E0.05725
G1 X167.426 Y125.331 E0.04585
G1 X166.614 Y127.318 E0.06728
G1 X165.879 Y128.605 E0.04649
G1 X164.575 Y130.322 E0.06761
G1 X163.531 Y131.376 E0.0465
G1 X161.827 Y132.697 E0.0676
G1 X160.547 Y133.444 E0.04648
G1 X158.557 Y134.279 E0.06764
G1 X157.124 Y134.67 E0.04658
G1 X155.276 Y134.922 E0.05848
G1 X154.513 Y134.974 E0.02399
G1 X132.685 Y134.974 E0.68439
G1 X131.951 Y134.927 E0.02306
G1 X130.009 Y134.673 E0.06141
G1 X128.593 Y134.297 E0.04595
G1 X126.485 Y133.434 E0.07142
G1 X125.9 Y133.099 E0.02112
G1 X124.9 Y133.873 E0.03965
G1 X123.618 Y134.62 E0.04649
G1 X121.509 Y135.503 E0.07172
G1 X120.076 Y135.893 E0.04655
G1 X118.101 Y136.161 E0.0625
G1 X117.341 Y136.212 E0.02388
G1 X95.516 Y136.213 E0.68432
G1 X94.783 Y136.165 E0.02303
G1 X92.972 Y135.929 E0.05725
G1 X91.559 Y135.555 E0.04584
G1 X89.572 Y134.743 E0.06728
G1 X88.285 Y134.008 E0.0465
G1 X86.568 Y132.703 E0.0676
G1 X85.514 Y131.66 E0.04649
G1 X84.193 Y129.955 E0.06761
G1 X83.446 Y128.674 E0.04651
G1 X82.611 Y126.685 E0.06764
G1 X82.22 Y125.253 E0.04655
G1 X81.968 Y123.405 E0.05847
G1 X81.916 Y122.641 E0.024
G1 X81.916 Y91.274 E0.98351
G1 X81.963 Y90.54 E0.02304
G1 X82.2 Y88.73 E0.05725
G1 X82.574 Y87.317 E0.04582
G1 X83.385 Y85.331 E0.06727
G1 X84.121 Y84.043 E0.0465
G1 X85.389 Y82.374 E0.06573
G1 X85.539 Y82.488 F10800
M204 P1000
G1 X85.689 Y82.602
G1 F1200
G1 X85.71 Y82.574 E0.00111
G1 X86.719 Y81.555 E0.04494
G1 X88.384 Y80.265 E0.06606
G1 X89.623 Y79.542 E0.04495
G1 X91.566 Y78.726 E0.06609
G1 X92.951 Y78.348 E0.04501
G1 X94.762 Y78.102 E0.0573
G1 X95.5 Y78.052 E0.02319
G1 X105.257 Y78.051 E0.30594
G1 X106.354 Y77.416 E0.03973
G1 X109.262 Y76.204 E0.0988
G1 X110.646 Y75.831 E0.04494
G1 X113.755 Y75.416 E0.09833
G1 X115.158 Y75.409 E0.04401
G1 X116.312 Y75.552 E0.03645
G1 X116.352 Y75.558 E0.00125
G1 X118.343 Y75.82 E0.06297
G1 X119.718 Y76.187 E0.04462
G1 X122.626 Y77.385 E0.09864
G1 X123.869 Y78.1 E0.04495
G1 X124.193 Y78.347 E0.01276
G1 X126.075 Y76.896 E0.07452
G1 X127.315 Y76.177 E0.04495
G1 X130.229 Y74.964 E0.09896
G1 X131.623 Y74.589 E0.04527
G1 X134.777 Y74.174 E0.09973
G1 X136.21 Y74.174 E0.04495
G1 X137.333 Y74.322 E0.03552
G1 X139.305 Y74.581 E0.06234
G1 X140.68 Y74.948 E0.04462
G1 X143.588 Y76.147 E0.09863
G1 X144.747 Y76.813 E0.04189
G1 X154.473 Y76.813 E0.30495
G1 X155.181 Y76.859 E0.02226
G1 X156.955 Y77.09 E0.0561
G1 X158.322 Y77.452 E0.04432
G1 X160.262 Y78.245 E0.06573
G1 X161.507 Y78.956 E0.04493
G1 X163.184 Y80.23 E0.06605
G1 X164.203 Y81.239 E0.04495
G1 X165.493 Y82.904 E0.06606
G1 X166.216 Y84.142 E0.04494
G1 X167.032 Y86.086 E0.06609
G1 X167.41 Y87.471 E0.04503
G1 X167.656 Y89.282 E0.0573
G1 X167.706 Y90.02 E0.02319
G1 X167.707 Y121.362 E0.98271
G1 X167.661 Y122.071 E0.02226
G1 X167.43 Y123.845 E0.0561
G1 X167.068 Y125.211 E0.04432
G1 X166.275 Y127.152 E0.06574
G1 X165.564 Y128.397 E0.04494
G1 X164.29 Y130.074 E0.06606
G1 X163.281 Y131.093 E0.04495
G1 X161.615 Y132.383 E0.06605
G1 X160.378 Y133.106 E0.04493
G1 X158.434 Y133.922 E0.06609
G1 X157.049 Y134.3 E0.04503
G1 X155.238 Y134.546 E0.05731
G1 X154.5 Y134.596 E0.02319
G1 X132.697 Y134.597 E0.6836
G1 X131.988 Y134.551 E0.02229
G1 X130.082 Y134.302 E0.06026
G1 X128.713 Y133.939 E0.04442
G1 X126.65 Y133.094 E0.06988
G1 X125.868 Y132.647 E0.02825
G1 X124.688 Y133.56 E0.04677
G1 X123.45 Y134.281 E0.04494
G1 X121.386 Y135.146 E0.07017
G1 X120.001 Y135.523 E0.045
G1 X118.063 Y135.785 E0.06133
G1 X117.328 Y135.835 E0.02308
G1 X95.528 Y135.836 E0.68354
G1 X94.819 Y135.79 E0.02226
G1 X93.045 Y135.558 E0.0561
G1 X91.679 Y135.196 E0.04431
G1 X89.738 Y134.403 E0.06574
G1 X88.493 Y133.692 E0.04495
G1 X86.816 Y132.418 E0.06605
G1 X85.797 Y131.409 E0.04494
G1 X84.507 Y129.744 E0.06606
G1 X83.784 Y128.506 E0.04496
G1 X82.968 Y126.562 E0.06609
G1 X82.59 Y125.177 E0.045
G1 X82.344 Y123.367 E0.0573
G1 X82.294 Y122.628 E0.0232
G1 X82.293 Y91.286 E0.98273
G1 X82.339 Y90.577 E0.02227
G1 X82.57 Y88.803 E0.0561
G1 X82.932 Y87.437 E0.04429
G1 X83.725 Y85.497 E0.06573
G1 X84.436 Y84.251 E0.04495
G1 X85.653 Y82.65 E0.06307
M204 P1500
G1 X85.803 Y82.764 F10800
M204 P1000
G1 X85.953 Y82.878
G1 F1200
G1 X85.996 Y82.822 E0.00221
G1 X86.97 Y81.838 E0.0434
G1 X88.596 Y80.578 E0.06451
G1 X89.791 Y79.88 E0.0434
G1 X91.689 Y79.083 E0.06454
G1 X93.026 Y78.719 E0.04346
G1 X94.8 Y78.477 E0.05612
G1 X95.512 Y78.429 E0.02239
G1 X105.359 Y78.428 E0.30872
G1 X106.521 Y77.754 E0.04214
G1 X109.385 Y76.562 E0.09725
G1 X110.721 Y76.201 E0.04339
G1 X113.78 Y75.793 E0.09679
G1 X115.136 Y75.786 E0.04249
G1 X116.265 Y75.927 E0.03567
G1 X116.303 Y75.931 E0.00121
G1 X118.269 Y76.19 E0.06218
G1 X119.597 Y76.545 E0.04308
G1 X122.46 Y77.724 E0.09709
G1 X123.66 Y78.414 E0.0434
G1 X124.193 Y78.822 E0.02106
G1 X126.286 Y77.21 E0.08282
G1 X127.483 Y76.516 E0.0434
G1 X130.351 Y75.322 E0.0974
G1 X131.697 Y74.96 E0.04371
G1 X134.801 Y74.551 E0.09817
G1 X136.185 Y74.551 E0.0434
G1 X137.284 Y74.696 E0.03475
G1 X139.231 Y74.952 E0.06157
G1 X140.559 Y75.306 E0.04308
G1 X143.422 Y76.486 E0.09709
G1 X144.622 Y77.176 E0.0434
G1 X144.64 Y77.19 E0.00072
G1 X154.46 Y77.19 E0.30791
G1 X155.144 Y77.234 E0.02149
G1 X156.882 Y77.461 E0.05496
G1 X158.201 Y77.81 E0.04279
G1 X160.097 Y78.585 E0.0642
G1 X161.298 Y79.271 E0.04338
G1 X162.936 Y80.515 E0.0645
G1 X163.92 Y81.489 E0.0434
G1 X165.18 Y83.116 E0.06451
G1 X165.878 Y84.311 E0.04339
G1 X166.675 Y86.209 E0.06454
G1 X167.04 Y87.546 E0.04347
G1 X167.281 Y89.32 E0.05613
G1 X167.329 Y90.033 E0.02239
G1 X167.33 Y121.35 E0.98193
G1 X167.286 Y122.034 E0.02149
G1 X167.059 Y123.772 E0.05496
G1 X166.71 Y125.091 E0.04279
G1 X165.935 Y126.987 E0.0642
G1 X165.249 Y128.188 E0.04339
G1 X164.004 Y129.827 E0.06451
G1 X163.03 Y130.81 E0.0434
G1 X161.404 Y132.07 E0.0645
G1 X160.209 Y132.768 E0.04339
G1 X158.311 Y133.565 E0.06454
G1 X156.973 Y133.93 E0.04348
G1 X155.2 Y134.171 E0.05613
G1 X154.487 Y134.219 E0.02239
G1 X132.71 Y134.22 E0.68282
G1 X132.025 Y134.176 E0.02152
G1 X130.155 Y133.931 E0.05911
G1 X128.833 Y133.581 E0.04289
G1 X126.816 Y132.755 E0.06834
G1 X125.837 Y132.194 E0.03537
G1 X124.477 Y133.246 E0.0539
G1 X123.281 Y133.943 E0.04339
G1 X121.263 Y134.789 E0.06862
G1 X119.926 Y135.152 E0.04345
G1 X118.025 Y135.41 E0.06015
G1 X117.316 Y135.458 E0.02228
G1 X95.54 Y135.459 E0.68275
G1 X94.856 Y135.414 E0.0215
G1 X93.118 Y135.187 E0.05495
G1 X91.799 Y134.838 E0.04279
G1 X89.903 Y134.064 E0.0642
G1 X88.702 Y133.377 E0.0434
G1 X87.063 Y132.133 E0.0645
G1 X86.08 Y131.159 E0.04339
G1 X84.82 Y129.533 E0.06451
G1 X84.122 Y128.337 E0.04341
G1 X83.325 Y126.439 E0.06454
G1 X82.96 Y125.102 E0.04345
G1 X82.719 Y123.329 E0.05612
G1 X82.671 Y122.616 E0.0224
G1 X82.67 Y91.298 E0.98194
M73 P0 R112
G1 X82.714 Y90.614 E0.0215
G1 X82.941 Y88.876 E0.05495
G1 X83.29 Y87.557 E0.04277
G1 X84.065 Y85.662 E0.06419
G1 X84.751 Y84.46 E0.0434
G1 X85.917 Y82.926 E0.06042
M204 P1500
G1 X86.067 Y83.04 F10800
M204 P1000
G1 X86.217 Y83.154
G1 F1200
G1 X86.281 Y83.069 E0.00332
G1 X87.22 Y82.121 E0.04185
G1 X88.807 Y80.891 E0.06296
G1 X89.96 Y80.218 E0.04185
G1 X91.812 Y79.441 E0.06299
G1 X93.102 Y79.089 E0.04191
G1 X94.838 Y78.853 E0.05494
G1 X95.525 Y78.806 E0.02159
G1 X105.479 Y78.805 E0.31208
G1 X105.534 Y78.762 E0.00221
G1 X106.689 Y78.093 E0.04185
G1 X109.507 Y76.92 E0.0957
G1 X110.795 Y76.572 E0.04184
G1 X113.806 Y76.17 E0.09526
G1 X115.113 Y76.164 E0.04097
G1 X116.218 Y76.301 E0.03489
G1 X116.254 Y76.305 E0.00117
G1 X118.196 Y76.561 E0.06139
G1 X119.476 Y76.903 E0.04154
G1 X122.293 Y78.064 E0.09555
G1 X123.45 Y78.729 E0.04185
G1 X124.194 Y79.297 E0.02935
G1 X126.496 Y77.524 E0.09111
G1 X127.651 Y76.854 E0.04185
G1 X130.473 Y75.679 E0.09585
G1 X131.771 Y75.33 E0.04215
G1 X134.826 Y74.928 E0.09662
G1 X136.161 Y74.928 E0.04185
G1 X137.235 Y75.069 E0.03397
G1 X139.158 Y75.323 E0.0608
G1 X140.438 Y75.664 E0.04154
G1 X143.255 Y76.825 E0.09554
G1 X144.412 Y77.49 E0.04185
G1 X144.512 Y77.567 E0.00395
G1 X154.448 Y77.567 E0.31153
G1 X155.108 Y77.61 E0.02073
G1 X156.809 Y77.832 E0.05381
G1 X158.081 Y78.169 E0.04126
G1 X159.931 Y78.925 E0.06266
G1 X161.09 Y79.586 E0.04184
G1 X162.689 Y80.801 E0.06295
G1 X163.637 Y81.74 E0.04185
G1 X164.867 Y83.327 E0.06296
G1 X165.54 Y84.48 E0.04184
G1 X166.318 Y86.332 E0.06299
G1 X166.669 Y87.622 E0.04192
G1 X166.906 Y89.358 E0.05495
G1 X166.952 Y90.045 E0.02159
G1 X166.953 Y121.338 E0.98115
G1 X166.91 Y121.997 E0.02072
G1 X166.688 Y123.699 E0.05381
G1 X166.351 Y124.971 E0.04126
G1 X165.595 Y126.821 E0.06266
G1 X164.934 Y127.98 E0.04184
G1 X163.719 Y129.579 E0.06296
G1 X162.78 Y130.527 E0.04185
G1 X161.193 Y131.757 E0.06295
G1 X160.04 Y132.43 E0.04184
G1 X158.188 Y133.207 E0.06299
G1 X156.898 Y133.559 E0.04192
G1 X155.161 Y133.796 E0.05495
G1 X154.474 Y133.842 E0.02159
G1 X132.722 Y133.843 E0.68204
G1 X132.061 Y133.8 E0.02075
G1 X130.228 Y133.561 E0.05796
G1 X128.954 Y133.222 E0.04136
G1 X126.982 Y132.415 E0.0668
G1 X125.824 Y131.752 E0.04184
G1 X125.808 Y131.74 E0.00063
G1 X124.266 Y132.933 E0.06111
G1 X123.113 Y133.605 E0.04184
G1 X121.14 Y134.431 E0.06707
G1 X119.851 Y134.782 E0.04189
G1 X117.987 Y135.035 E0.05898
G1 X117.303 Y135.081 E0.02149
G1 X95.552 Y135.082 E0.68197
G1 X94.893 Y135.039 E0.02073
G1 X93.191 Y134.817 E0.05381
G1 X91.919 Y134.48 E0.04126
G1 X90.069 Y133.724 E0.06266
G1 X88.91 Y133.062 E0.04185
G1 X87.311 Y131.847 E0.06295
G1 X86.363 Y130.908 E0.04184
G1 X85.133 Y129.321 E0.06296
G1 X84.46 Y128.168 E0.04186
G1 X83.682 Y126.316 E0.06299
G1 X83.331 Y125.027 E0.0419
G1 X83.094 Y123.29 E0.05495
G1 X83.048 Y122.603 E0.0216
G1 X83.047 Y91.31 E0.98116
M73 Q0 S113
G1 X83.09 Y90.65 E0.02074
G1 X83.312 Y88.949 E0.0538
G1 X83.649 Y87.677 E0.04124
G1 X84.404 Y85.828 E0.06266
G1 X85.066 Y84.668 E0.04185
G1 X86.181 Y83.201 E0.05776
M204 P1500
G1 X86.331 Y83.316 F10800
M204 P1000
G1 X86.481 Y83.43
G1 F1200
G1 X86.566 Y83.317 E0.00443
G1 X87.471 Y82.404 E0.0403
G1 X89.019 Y81.204 E0.06141
G1 X90.129 Y80.556 E0.0403
G1 X91.936 Y79.798 E0.06144
G1 X93.177 Y79.459 E0.04035
G1 X94.876 Y79.228 E0.05377
G1 X95.538 Y79.183 E0.02079
G1 X105.607 Y79.182 E0.3157
G1 X105.745 Y79.076 E0.00546
G1 X106.857 Y78.431 E0.0403
G1 X109.629 Y77.277 E0.09415
G1 X110.869 Y76.942 E0.04029
G1 X113.832 Y76.546 E0.09372
G1 X115.091 Y76.541 E0.03946
G1 X116.17 Y76.675 E0.03411
G1 X116.206 Y76.679 E0.00112
G1 X118.122 Y76.932 E0.0606
G1 X119.355 Y77.261 E0.04
G1 X122.127 Y78.403 E0.094
G1 X123.241 Y79.043 E0.0403
G1 X124.213 Y79.786 E0.03834
G1 X124.328 Y79.67 E0.00513
G1 X126.707 Y77.838 E0.09415
G1 X127.819 Y77.193 E0.0403
G1 X130.595 Y76.037 E0.09429
G1 X131.845 Y75.701 E0.04059
G1 X134.851 Y75.305 E0.09506
G1 X136.136 Y75.305 E0.0403
G1 X137.186 Y75.443 E0.0332
G1 X139.084 Y75.693 E0.06003
G1 X140.317 Y76.022 E0.04001
G1 X143.089 Y77.164 E0.094
G1 X144.203 Y77.805 E0.0403
G1 X144.385 Y77.944 E0.00717
G1 X154.436 Y77.944 E0.31514
G1 X155.071 Y77.985 E0.01996
G1 X156.736 Y78.202 E0.05266
G1 X157.961 Y78.527 E0.03973
G1 X159.766 Y79.264 E0.06112
G1 X160.881 Y79.901 E0.04029
G1 X162.441 Y81.086 E0.0614
G1 X163.354 Y81.99 E0.0403
G1 X164.554 Y83.539 E0.06141
G1 X165.202 Y84.648 E0.04029
G1 X165.96 Y86.455 E0.06144
G1 X166.299 Y87.697 E0.04037
G1 X166.53 Y89.397 E0.05378
G1 X166.575 Y90.058 E0.02079
G1 X166.576 Y121.325 E0.98036
G1 X166.535 Y121.961 E0.01996
G1 X166.317 Y123.626 E0.05266
G1 X165.993 Y124.851 E0.03973
G1 X165.256 Y126.656 E0.06112
G1 X164.618 Y127.772 E0.04029
G1 X163.434 Y129.331 E0.06141
G1 X162.529 Y130.244 E0.0403
G1 X160.981 Y131.444 E0.0614
G1 X159.872 Y132.092 E0.04029
G1 X158.065 Y132.85 E0.06144
G1 X156.823 Y133.189 E0.04037
G1 X155.123 Y133.42 E0.05378
G1 X154.462 Y133.465 E0.02079
G1 X132.734 Y133.466 E0.68125
M73 P1 R112
M73 Q1 S113
G1 X132.098 Y133.425 E0.01998
G1 X130.302 Y133.19 E0.05681
G1 X129.074 Y132.864 E0.03983
G1 X127.148 Y132.075 E0.06526
G1 X126.032 Y131.437 E0.04029
G1 X125.793 Y131.255 E0.00944
G1 X125.707 Y131.341 E0.00381
G1 X124.055 Y132.62 E0.0655
G1 X122.944 Y133.267 E0.04029
G1 X121.017 Y134.074 E0.06552
G1 X119.776 Y134.412 E0.04034
G1 X117.949 Y134.659 E0.05781
G1 X117.29 Y134.704 E0.02069
G1 X95.565 Y134.704 E0.68119
G1 X94.929 Y134.663 E0.01996
G1 X93.264 Y134.446 E0.05266
G1 X92.039 Y134.121 E0.03973
G1 X90.234 Y133.384 E0.06112
G1 X89.118 Y132.747 E0.0403
G1 X87.559 Y131.562 E0.0614
G1 X86.646 Y130.658 E0.04029
G1 X85.446 Y129.11 E0.06141
G1 X84.798 Y127.999 E0.04031
G1 X84.04 Y126.193 E0.06144
G1 X83.701 Y124.951 E0.04035
G1 X83.47 Y123.252 E0.05377
G1 X83.425 Y122.59 E0.0208
G1 X83.424 Y91.323 E0.98037
G1 X83.465 Y90.687 E0.01997
G1 X83.683 Y89.022 E0.05265
G1 X84.007 Y87.798 E0.03971
G1 X84.744 Y85.993 E0.06112
G1 X85.381 Y84.877 E0.0403
G1 X86.445 Y83.477 E0.0551
