; generated by SuperSlicer 2.3.57 on 2022-03-10 at 15:00:56 UTC

; 

; external perimeters extrusion width = 0.45mm
; perimeters extrusion width = 0.45mm
; infill extrusion width = 0.45mm
; solid infill extrusion width = 0.45mm
; top infill extrusion width = 0.40mm
; first layer extrusion width = 0.42mm

; object:{"name":"Black - Carbon Filter Box_1","id":"Black - Carbon Filter Box_1.stl id:0 copy 0","object_center":[125.000000,105.000007,0.000000],"boundingbox_center":[125.000000,105.000007,15.000460],"boundingbox_size":[110.000061,68.500023,30.000919]}
; Total objects to print: 1
M486 T1
; plater:{"center":[125.000000,105.000007,0.000000],"boundingbox_center":[125.000000,105.000007,15.000460],"boundingbox_size":[110.000061,68.500023,30.000919]}

M73 P0 R208
M73 Q0 S211
;TYPE:Custom
M862.3 P "MK3S" ; printer model check
M862.1 P0.4 ; nozzle diameter check
M115 U3.10.0 ; tell printer latest fw version
G90 ; use absolute coordinates
M83 ; extruder relative mode
M104 S255 ; set extruder temp
M140 S100 ; set bed temp
M190 S100 ; wait for bed temp
M109 S255 ; wait for extruder temp
G28 W ; home all without mesh bed level
G80 ; mesh bed leveling
G1 Y-3.0 F1000.0 ; go outside print area
G92 E0.0
G1 X60.0 E9.0 F1000.0 ; intro line
G1 X100.0 E12.5 F1000.0 ; intro line
G92 E0.0
M221 S95

; Don't change E values below. Excessive value can damage the printer.
M907 E430 ; set extruder motor current
M107
G21 ; set units to millimeters
G90 ; use absolute coordinates
M83 ; use relative distances for extrusion
M900 K0.04 ; Filament gcode LA 1.5
M900 K20 ; Filament gcode LA 1.0
M107
;LAYER_CHANGE
;Z:0.2
;HEIGHT:0.2
;BEFORE_LAYER_CHANGE
G92 E0.0
;0.2


G1 E-0.8 F2100
G1 Z0.4 F10800
;AFTER_LAYER_CHANGE
;0.2
G1 Z0.6
M204 P1500
G1 X65.421 Y64.464
G1 Z0.2
G1 E0.8 F2100
;TYPE:Skirt
;WIDTH:0.42
G1 F1200
G1 X68.714 Y61.171 E0.146
G1 X72.872 Y59.449 E0.1411
G1 X177.128 Y59.449 E3.26889
G1 X181.286 Y61.171 E0.14111
G1 X184.579 Y64.464 E0.146
G1 X186.301 Y68.622 E0.1411
G1 X186.301 Y141.378 E2.28123
G1 X184.579 Y145.536 E0.14111
G1 X181.286 Y148.829 E0.146
M73 Q0 S210
G1 X177.128 Y150.551 E0.1411
G1 X72.872 Y150.551 E3.26889
G1 X68.714 Y148.829 E0.14111
G1 X65.421 Y145.536 E0.146
G1 X63.699 Y141.378 E0.14111
G1 X63.699 Y68.622 E2.28123
G1 X65.398 Y64.519 E0.13922
G1 X65.57 Y64.598 F10800
M204 P1000
G1 X65.741 Y64.678
G1 F1200
G1 X68.928 Y61.491 E0.1413
G1 X72.947 Y59.826 E0.1364
G1 X177.053 Y59.826 E3.26419
G1 X181.072 Y61.491 E0.1364
G1 X184.259 Y64.678 E0.1413
G1 X185.924 Y68.697 E0.1364
G1 X185.924 Y141.303 E2.27653
G1 X184.259 Y145.322 E0.1364
G1 X181.072 Y148.509 E0.1413
G1 X177.053 Y150.174 E0.1364
G1 X72.947 Y150.174 E3.26419
M73 P0 R207
G1 X68.928 Y148.509 E0.1364
G1 X65.741 Y145.322 E0.1413
G1 X64.076 Y141.303 E0.1364
G1 X64.076 Y68.697 E2.27653
G1 X65.718 Y64.733 E0.13452
M204 P1500
G1 X65.889 Y64.812 F10800
M204 P1000
G1 X66.061 Y64.891
G1 F1200
G1 X69.141 Y61.811 E0.1366
G1 X73.022 Y60.203 E0.1317
G1 X176.978 Y60.203 E3.25948
G1 X180.859 Y61.811 E0.1317
G1 X183.939 Y64.891 E0.1366
G1 X185.547 Y68.772 E0.1317
G1 X185.547 Y141.228 E2.27182
G1 X183.939 Y145.109 E0.1317
G1 X180.859 Y148.189 E0.1366
G1 X176.978 Y149.797 E0.1317
G1 X73.022 Y149.797 E3.25948
G1 X69.141 Y148.189 E0.1317
G1 X66.061 Y145.109 E0.1366
G1 X64.453 Y141.228 E0.1317
G1 X64.453 Y68.772 E2.27182
G1 X66.038 Y64.947 E0.12982
M204 P1500
G1 X66.209 Y65.026 F10800
M204 P1000
G1 X66.38 Y65.105
G1 F1200
G1 X69.355 Y62.13 E0.13189
G1 X73.097 Y60.58 E0.12699
G1 X176.903 Y60.58 E3.25478
G1 X180.645 Y62.13 E0.127
G1 X183.62 Y65.105 E0.13189
G1 X185.17 Y68.847 E0.12699
G1 X185.17 Y141.153 E2.26712
M73 Q0 S209
G1 X183.62 Y144.895 E0.12699
G1 X180.645 Y147.87 E0.13189
G1 X176.903 Y149.42 E0.12699
G1 X73.097 Y149.42 E3.25478
G1 X69.355 Y147.87 E0.12699
G1 X66.38 Y144.895 E0.13189
G1 X64.83 Y141.153 E0.12699
G1 X64.83 Y68.847 E2.26712
G1 X66.357 Y65.16 E0.12511
M204 P1500
G1 X66.529 Y65.239 F10800
M204 P1000
G1 X66.7 Y65.318
G1 F1200
G1 X69.568 Y62.45 E0.12719
G1 X73.172 Y60.957 E0.12229
G1 X176.828 Y60.957 E3.25008
G1 X180.432 Y62.45 E0.12229
G1 X183.3 Y65.318 E0.12719
G1 X184.793 Y68.922 E0.12229
G1 X184.793 Y141.078 E2.26242
G1 X183.3 Y144.682 E0.12229
G1 X180.432 Y147.55 E0.12719
G1 X176.828 Y149.043 E0.12229
G1 X73.172 Y149.043 E3.25008
M73 P0 R206
G1 X69.568 Y147.55 E0.12229
G1 X66.7 Y144.682 E0.12719
G1 X65.207 Y141.078 E0.12229
G1 X65.207 Y68.922 E2.26242
G1 X66.677 Y65.374 E0.12041
M204 P1500
G1 X66.848 Y65.453 F10800
M204 P1000
G1 X67.02 Y65.532
G1 F1200
G1 X69.782 Y62.77 E0.12248
G1 X73.247 Y61.334 E0.11759
G1 X176.753 Y61.334 E3.24537
G1 X180.218 Y62.77 E0.11759
G1 X182.98 Y65.532 E0.12248
G1 X184.415 Y68.997 E0.11759
G1 X184.415 Y141.003 E2.25771
G1 X182.98 Y144.468 E0.11759
G1 X180.218 Y147.23 E0.12248
G1 X176.753 Y148.666 E0.11759
G1 X73.247 Y148.666 E3.24537
G1 X69.782 Y147.23 E0.11759
G1 X67.02 Y144.468 E0.12248
G1 X65.584 Y141.003 E0.11759
G1 X65.584 Y68.997 E2.25771
M73 P1 R206
M73 Q1 S209
G1 X66.997 Y65.587 E0.11571
M204 P1500
G1 X67.168 Y65.666 F10800
M204 P1000
G1 X67.339 Y65.746
G1 F1200
G1 X69.996 Y63.089 E0.11778
G1 X73.322 Y61.712 E0.11288
G1 X176.678 Y61.712 E3.24067
G1 X180.004 Y63.089 E0.11288
G1 X182.661 Y65.746 E0.11778
G1 X184.038 Y69.072 E0.11288
G1 X184.038 Y140.928 E2.25301
M73 Q1 S208
G1 X182.661 Y144.254 E0.11288
G1 X180.004 Y146.911 E0.11778
G1 X176.678 Y148.288 E0.11288
G1 X73.322 Y148.288 E3.24067
G1 X69.996 Y146.911 E0.11288
G1 X67.339 Y144.254 E0.11778
G1 X65.962 Y140.928 E0.11288
G1 X65.962 Y69.072 E2.25301
G1 X67.316 Y65.801 E0.111
M204 P1500
G1 X67.488 Y65.88 F10800
M204 P1000
G1 X67.659 Y65.959
G1 F1200
G1 X70.209 Y63.409 E0.11308
G1 X73.397 Y62.089 E0.10818
G1 X176.603 Y62.089 E3.23597
G1 X179.791 Y63.409 E0.10818
G1 X182.341 Y65.959 E0.11308
G1 X183.661 Y69.147 E0.10818
G1 X183.661 Y140.853 E2.24831
G1 X182.341 Y144.041 E0.10818
G1 X179.791 Y146.591 E0.11308
G1 X176.603 Y147.911 E0.10818
G1 X73.397 Y147.911 E3.23597
M73 P1 R205
G1 X70.209 Y146.591 E0.10818
G1 X67.659 Y144.041 E0.11308
G1 X66.339 Y140.853 E0.10818
G1 X66.339 Y69.147 E2.24831
G1 X67.636 Y66.015 E0.1063
M204 P1500
G1 X67.807 Y66.094 F10800
M204 P1000
G1 X67.979 Y66.173
G1 F1200
G1 X70.423 Y63.729 E0.10837
G1 X73.472 Y62.466 E0.10348
G1 X176.528 Y62.466 E3.23126
G1 X179.577 Y63.729 E0.10348
G1 X182.021 Y66.173 E0.10837
G1 X183.284 Y69.222 E0.10348
G1 X183.284 Y140.778 E2.2436
G1 X182.021 Y143.827 E0.10348
G1 X179.577 Y146.271 E0.10837
G1 X176.528 Y147.534 E0.10348
G1 X73.472 Y147.534 E3.23126
G1 X70.423 Y146.271 E0.10348
G1 X67.979 Y143.827 E0.10837
G1 X66.716 Y140.778 E0.10348
G1 X66.716 Y69.222 E2.2436
G1 X67.956 Y66.228 E0.1016
M204 P1500
G1 X68.127 Y66.307 F10800
M204 P1000
G1 X68.298 Y66.386
G1 F1200
G1 X70.636 Y64.048 E0.10367
G1 X73.547 Y62.843 E0.09877
G1 X176.453 Y62.843 E3.22656
G1 X179.364 Y64.048 E0.09877
G1 X181.702 Y66.386 E0.10367
G1 X182.907 Y69.297 E0.09877
G1 X182.907 Y140.703 E2.2389
G1 X181.702 Y143.614 E0.09877
G1 X179.364 Y145.952 E0.10367
G1 X176.453 Y147.157 E0.09877
G1 X73.547 Y147.157 E3.22656
M73 Q1 S207
G1 X70.636 Y145.952 E0.09877
G1 X68.298 Y143.614 E0.10367
G1 X67.093 Y140.703 E0.09877
G1 X67.093 Y69.297 E2.2389
G1 X68.275 Y66.442 E0.09689
M204 P1500
G1 X68.447 Y66.521 F10800
M204 P1000
G1 X68.618 Y66.6
G1 F1200
G1 X70.85 Y64.368 E0.09897
G1 X73.622 Y63.22 E0.09407
G1 X176.378 Y63.22 E3.22186
G1 X179.15 Y64.368 E0.09407
G1 X181.382 Y66.6 E0.09897
G1 X182.53 Y69.372 E0.09407
G1 X182.53 Y140.628 E2.2342
G1 X181.382 Y143.4 E0.09407
G1 X179.15 Y145.632 E0.09897
G1 X176.378 Y146.78 E0.09407
G1 X73.622 Y146.78 E3.22186
M73 P1 R204
G1 X70.85 Y145.632 E0.09407
G1 X68.618 Y143.4 E0.09897
G1 X67.47 Y140.628 E0.09407
G1 X67.47 Y69.372 E2.2342
G1 X68.595 Y66.655 E0.09219
M204 P1500
G1 X68.766 Y66.734 F10800
M204 P1000
G1 X68.938 Y66.814
G1 F1200
G1 X71.064 Y64.688 E0.09426
G1 X73.697 Y63.597 E0.08937
G1 X176.303 Y63.597 E3.21715
G1 X178.936 Y64.688 E0.08937
G1 X181.062 Y66.814 E0.09426
G1 X182.153 Y69.447 E0.08937
G1 X182.153 Y140.553 E2.22949
G1 X181.062 Y143.186 E0.08937
G1 X178.936 Y145.312 E0.09426
G1 X176.303 Y146.403 E0.08937
G1 X73.697 Y146.403 E3.21715
G1 X71.063 Y145.312 E0.08937
G1 X68.938 Y143.186 E0.09426
G1 X67.847 Y140.553 E0.08937
G1 X67.847 Y69.447 E2.22949
G1 X68.915 Y66.869 E0.08749
M204 P1500
G1 X69.086 Y66.948 F10800
M204 P1000
G1 X69.257 Y67.027
G1 F1200
G1 X71.277 Y65.007 E0.08956
G1 X73.772 Y63.974 E0.08466
G1 X176.228 Y63.974 E3.21245
M73 P2 R204
G1 X178.723 Y65.007 E0.08466
G1 X180.743 Y67.027 E0.08956
G1 X181.776 Y69.522 E0.08466
G1 X181.776 Y140.478 E2.22479
M73 Q2 S207
G1 X180.743 Y142.973 E0.08466
G1 X178.723 Y144.993 E0.08956
G1 X176.228 Y146.026 E0.08466
G1 X73.772 Y146.026 E3.21245
M73 Q2 S206
G1 X71.277 Y144.993 E0.08466
G1 X69.257 Y142.973 E0.08956
G1 X68.224 Y140.478 E0.08466
G1 X68.224 Y69.522 E2.22479
G1 X69.234 Y67.083 E0.08278
M204 P1500
G1 X69.406 Y67.162 F10800
M204 P1000
G1 X69.577 Y67.241
G1 F1200
G1 X71.491 Y65.327 E0.08486
G1 X73.847 Y64.351 E0.07996
G1 X176.153 Y64.351 E3.20775
G1 X178.509 Y65.327 E0.07996
G1 X180.423 Y67.241 E0.08486
G1 X181.399 Y69.597 E0.07996
G1 X181.399 Y140.403 E2.22008
G1 X180.423 Y142.759 E0.07996
G1 X178.509 Y144.673 E0.08486
G1 X176.153 Y145.649 E0.07996
G1 X73.847 Y145.649 E3.20775
G1 X71.491 Y144.673 E0.07996
G1 X69.577 Y142.759 E0.08486
G1 X68.601 Y140.403 E0.07996
G1 X68.601 Y69.597 E2.22009
M73 P2 R203
G1 X69.554 Y67.296 E0.07808
M204 P1500
G1 X69.725 Y67.375 F10800
M204 P1000
G1 X69.897 Y67.454
G1 F1200
G1 X71.704 Y65.647 E0.08015
G1 X73.922 Y64.728 E0.07526
G1 X176.078 Y64.728 E3.20304
G1 X178.296 Y65.647 E0.07526
G1 X180.103 Y67.454 E0.08015
G1 X181.022 Y69.672 E0.07526
G1 X181.022 Y140.328 E2.21538
G1 X180.103 Y142.546 E0.07526
G1 X178.296 Y144.353 E0.08015
G1 X176.078 Y145.272 E0.07526
G1 X73.922 Y145.272 E3.20304
G1 X71.704 Y144.353 E0.07526
G1 X69.897 Y142.546 E0.08015
G1 X68.978 Y140.328 E0.07526
G1 X68.978 Y69.672 E2.21538
G1 X69.874 Y67.51 E0.07338
M204 P1500
G1 X70.045 Y67.589 F10800
M204 P1000
G1 X70.216 Y67.668
G1 F1200
G1 X71.918 Y65.966 E0.07545
G1 X73.997 Y65.105 E0.07055
G1 X176.003 Y65.105 E3.19834
G1 X178.082 Y65.966 E0.07055
G1 X179.784 Y67.668 E0.07545
G1 X180.645 Y69.747 E0.07055
G1 X180.645 Y140.253 E2.21068
G1 X179.784 Y142.332 E0.07055
G1 X178.082 Y144.034 E0.07545
G1 X176.003 Y144.895 E0.07055
G1 X73.997 Y144.895 E3.19834
G1 X71.918 Y144.034 E0.07055
G1 X70.216 Y142.332 E0.07545
G1 X69.355 Y140.253 E0.07055
G1 X69.355 Y69.747 E2.21068
M73 Q2 S205
G1 X70.193 Y67.723 E0.06867
M204 P1500
G1 X70.365 Y67.802 F10800
M204 P1000
G1 X70.536 Y67.882
G1 F1200
G1 X72.132 Y66.286 E0.07075
G1 X74.072 Y65.482 E0.06585
G1 X175.928 Y65.482 E3.19363
G1 X177.868 Y66.286 E0.06585
G1 X179.464 Y67.882 E0.07075
G1 X180.268 Y69.822 E0.06585
G1 X180.268 Y140.178 E2.20597
G1 X179.464 Y142.118 E0.06585
G1 X177.868 Y143.714 E0.07075
G1 X175.928 Y144.518 E0.06585
G1 X74.072 Y144.518 E3.19363
G1 X72.131 Y143.714 E0.06585
G1 X70.536 Y142.118 E0.07075
G1 X69.732 Y140.178 E0.06585
G1 X69.732 Y69.822 E2.20597
G1 X70.513 Y67.937 E0.06397
M204 P1500
G1 X70.684 Y68.016 F10800
M204 P1000
G1 X70.856 Y68.095
G1 F1200
G1 X72.345 Y66.606 E0.06604
G1 X74.147 Y65.859 E0.06115
G1 X175.853 Y65.859 E3.18893
M73 P2 R202
G1 X177.655 Y66.606 E0.06115
G1 X179.144 Y68.095 E0.06604
G1 X179.891 Y69.897 E0.06115
G1 X179.891 Y140.103 E2.20127
G1 X179.144 Y141.905 E0.06115
G1 X177.655 Y143.394 E0.06604
G1 X175.853 Y144.141 E0.06115
G1 X74.147 Y144.141 E3.18893
G1 X72.345 Y143.394 E0.06115
G1 X70.856 Y141.905 E0.06604
G1 X70.109 Y140.103 E0.06115
G1 X70.109 Y69.897 E2.20127
G1 X70.833 Y68.151 E0.05926
M204 P1500
G1 X71.004 Y68.23 F10800
M204 P1000
G1 X71.175 Y68.309
G1 F1200
G1 X72.559 Y66.925 E0.06134
G1 X74.222 Y66.237 E0.05644
G1 X175.778 Y66.236 E3.18423
G1 X177.441 Y66.925 E0.05644
G1 X178.825 Y68.309 E0.06134
G1 X179.513 Y69.972 E0.05644
G1 X179.513 Y140.028 E2.19657
G1 X178.825 Y141.691 E0.05644
G1 X177.441 Y143.075 E0.06134
G1 X175.778 Y143.763 E0.05644
G1 X74.222 Y143.764 E3.18423
G1 X72.559 Y143.075 E0.05644
G1 X71.175 Y141.691 E0.06134
G1 X70.486 Y140.028 E0.05644
G1 X70.486 Y69.972 E2.19657
M73 P3 R202
G1 X71.152 Y68.364 E0.05456
M204 P1500
G1 X71.324 Y68.443 F10800
M204 P1000
G1 X71.495 Y68.522
G1 F1200
G1 X72.772 Y67.245 E0.05664
G1 X74.297 Y66.614 E0.05174
G1 X175.703 Y66.614 E3.17952
M73 Q3 S204
G1 X177.228 Y67.245 E0.05174
G1 X178.505 Y68.522 E0.05664
G1 X179.136 Y70.047 E0.05174
G1 X179.136 Y139.953 E2.19186
G1 X178.505 Y141.478 E0.05174
G1 X177.228 Y142.755 E0.05664
G1 X175.703 Y143.386 E0.05174
G1 X74.297 Y143.386 E3.17952
G1 X72.772 Y142.755 E0.05174
G1 X71.495 Y141.478 E0.05664
G1 X70.864 Y139.953 E0.05174
G1 X70.864 Y70.047 E2.19186
G1 X71.472 Y68.578 E0.04986
M204 P1500
G1 X71.643 Y68.657 F10800
M204 P1000
G1 X71.815 Y68.736
G1 F1200
G1 X72.986 Y67.565 E0.05193
G1 X74.372 Y66.991 E0.04703
G1 X175.628 Y66.991 E3.17482
G1 X177.014 Y67.565 E0.04704
G1 X178.185 Y68.736 E0.05193
G1 X178.759 Y70.122 E0.04703
G1 X178.759 Y139.878 E2.18716
M73 P3 R201
G1 X178.185 Y141.264 E0.04704
G1 X177.014 Y142.435 E0.05193
G1 X175.628 Y143.009 E0.04704
G1 X74.372 Y143.009 E3.17482
G1 X72.986 Y142.435 E0.04704
G1 X71.815 Y141.264 E0.05193
G1 X71.241 Y139.878 E0.04704
G1 X71.241 Y70.122 E2.18716
G1 X71.792 Y68.791 E0.04515
M204 P1500
G1 X71.963 Y68.87 F10800
M204 P1000
G1 X72.134 Y68.95
G1 F1200
G1 X73.199 Y67.884 E0.04723
G1 X74.447 Y67.368 E0.04233
G1 X175.553 Y67.368 E3.17012
G1 X176.8 Y67.884 E0.04233
G1 X177.866 Y68.95 E0.04723
G1 X178.382 Y70.197 E0.04233
G1 X178.382 Y139.803 E2.18246
G1 X177.866 Y141.05 E0.04233
G1 X176.8 Y142.116 E0.04723
G1 X175.553 Y142.632 E0.04233
G1 X74.447 Y142.632 E3.17012
G1 X73.199 Y142.116 E0.04233
G1 X72.134 Y141.051 E0.04723
G1 X71.618 Y139.803 E0.04233
G1 X71.618 Y70.197 E2.18246
G1 X72.111 Y69.005 E0.04045
M204 P1500
G1 X72.283 Y69.084 F10800
M204 P1000
G1 X72.454 Y69.163
G1 F1200
G1 X73.413 Y68.204 E0.04253
G1 X74.522 Y67.745 E0.03763
G1 X175.478 Y67.745 E3.16541
G1 X176.587 Y68.204 E0.03763
G1 X177.546 Y69.163 E0.04253
G1 X178.005 Y70.272 E0.03763
G1 X178.005 Y139.728 E2.17775
M73 Q3 S203
G1 X177.546 Y140.837 E0.03763
G1 X176.587 Y141.796 E0.04253
G1 X175.478 Y142.255 E0.03763
G1 X74.522 Y142.255 E3.16541
G1 X73.413 Y141.796 E0.03763
G1 X72.454 Y140.837 E0.04253
G1 X71.995 Y139.728 E0.03763
G1 X71.995 Y70.272 E2.17775
G1 X72.431 Y69.219 E0.03575
M204 P1500
G1 X72.602 Y69.298 F10800
M204 P1000
G1 X72.774 Y69.377
G1 F1200
G1 X73.627 Y68.524 E0.03782
G1 X74.597 Y68.122 E0.03292
G1 X175.403 Y68.122 E3.16071
G1 X176.373 Y68.524 E0.03292
G1 X177.226 Y69.377 E0.03782
G1 X177.628 Y70.347 E0.03292
G1 X177.628 Y139.653 E2.17305
G1 X177.226 Y140.623 E0.03292
G1 X176.373 Y141.476 E0.03782
G1 X175.403 Y141.878 E0.03292
G1 X74.597 Y141.878 E3.16071
M73 P3 R200
G1 X73.627 Y141.476 E0.03292
G1 X72.774 Y140.623 E0.03782
G1 X72.372 Y139.653 E0.03292
G1 X72.372 Y70.347 E2.17305
G1 X72.751 Y69.432 E0.03104
M204 P1500
G1 X72.922 Y69.511 F10800
M204 P1000
G1 X73.093 Y69.59
G1 F1200
G1 X73.84 Y68.843 E0.03312
G1 X74.672 Y68.499 E0.02822
G1 X175.328 Y68.499 E3.15601
G1 X176.16 Y68.843 E0.02822
G1 X176.907 Y69.59 E0.03312
G1 X177.251 Y70.422 E0.02822
G1 X177.251 Y139.578 E2.16835
G1 X176.907 Y140.41 E0.02822
G1 X176.16 Y141.157 E0.03312
G1 X175.328 Y141.501 E0.02822
G1 X74.672 Y141.501 E3.15601
G1 X73.84 Y141.157 E0.02822
G1 X73.093 Y140.41 E0.03312
G1 X72.749 Y139.578 E0.02822
G1 X72.749 Y70.422 E2.16835
G1 X73.07 Y69.646 E0.02634
M204 P1500
G1 X73.242 Y69.725 F10800
M204 P1000
G1 X73.413 Y69.804
G1 F1200
G1 X74.054 Y69.163 E0.02841
G1 X74.747 Y68.876 E0.02352
G1 X175.253 Y68.876 E3.1513
G1 X175.946 Y69.163 E0.02352
G1 X176.587 Y69.804 E0.02841
G1 X176.874 Y70.497 E0.02352
G1 X176.874 Y139.503 E2.16364
G1 X176.587 Y140.196 E0.02352
G1 X175.946 Y140.837 E0.02841
G1 X175.253 Y141.124 E0.02352
G1 X74.747 Y141.124 E3.1513
G1 X74.054 Y140.837 E0.02352
G1 X73.413 Y140.196 E0.02841
G1 X73.126 Y139.503 E0.02352
G1 X73.126 Y70.497 E2.16364
M73 P4 R200
M73 Q3 S202
G1 X73.39 Y69.859 E0.02164
M204 P1500
G1 X73.561 Y69.938 F10800
M204 P1000
G1 X73.733 Y70.018
G1 F1200
