; generated by SuperSlicer 2.3.57 on 2022-03-07 at 14:35:57 UTC

; 

; external perimeters extrusion width = 0.45mm
; perimeters extrusion width = 0.45mm
; infill extrusion width = 0.45mm
; solid infill extrusion width = 0.45mm
; top infill extrusion width = 0.40mm
; first layer extrusion width = 0.42mm

; object:{"name":"Black - Filament Insert Guide Lid_1","id":"Black - Filament Insert Guide Lid_1.stl id:0 copy 0","object_center":[125.000000,105.000000,0.000000],"boundingbox_center":[125.000000,105.000000,3.750003],"boundingbox_size":[48.000000,29.000031,7.500007]}
; Total objects to print: 1
M486 T1
; plater:{"center":[125.000000,105.000000,0.000000],"boundingbox_center":[125.000000,105.000000,3.750003],"boundingbox_size":[48.000000,29.000031,7.500007]}

M73 P0 R33
M73 Q0 S33
;TYPE:Custom
M862.3 P "MK3S" ; printer model check
M862.1 P0.4 ; nozzle diameter check
M115 U3.10.0 ; tell printer latest fw version
G90 ; use absolute coordinates
M83 ; extruder relative mode
M104 S255 ; set extruder temp
M140 S100 ; set bed temp
M190 S100 ; wait for bed temp
M109 S255 ; wait for extruder temp
G28 W ; home all without mesh bed level
G80 ; mesh bed leveling
G1 Y-3.0 F1000.0 ; go outside print area
G92 E0.0
G1 X60.0 E9.0 F1000.0 ; intro line
G1 X100.0 E12.5 F1000.0 ; intro line
G92 E0.0
M221 S95

; Don't change E values below. Excessive value can damage the printer.
M907 E430 ; set extruder motor current
M107
G21 ; set units to millimeters
G90 ; use absolute coordinates
M83 ; use relative distances for extrusion
M900 K0.04 ; Filament gcode LA 1.5
M900 K20 ; Filament gcode LA 1.0
;LAYER_CHANGE
;Z:0.2
;HEIGHT:0.2
;BEFORE_LAYER_CHANGE
G92 E0.0
;0.2


G1 E-0.8 F2100
G1 Z0.4 F10800
;AFTER_LAYER_CHANGE
;0.2
G1 Z0.6
M204 P1500
G1 X94.618 Y87.75
G1 Z0.2
G1 E0.8 F2100
;TYPE:Skirt
;WIDTH:0.42
G1 F1200
G1 X96.85 Y85.518 E0.09897
G1 X99.622 Y84.37 E0.09407
G1 X150.378 Y84.37 E1.59143
G1 X153.15 Y85.518 E0.09407
G1 X155.382 Y87.75 E0.09897
G1 X156.53 Y90.522 E0.09407
G1 X156.53 Y116.978 E0.82952
G1 X155.382 Y119.75 E0.09407
G1 X153.15 Y121.982 E0.09897
G1 X150.378 Y123.13 E0.09407
G1 X99.622 Y123.13 E1.59143
G1 X96.85 Y121.982 E0.09407
G1 X94.618 Y119.75 E0.09897
G1 X93.47 Y116.978 E0.09407
G1 X93.47 Y90.522 E0.82952
G1 X94.595 Y87.805 E0.09219
G1 X94.766 Y87.884 F10800
M204 P1000
G1 X94.938 Y87.964
G1 F1200
G1 X97.064 Y85.838 E0.09426
G1 X99.697 Y84.747 E0.08937
G1 X150.303 Y84.747 E1.58673
G1 X152.936 Y85.838 E0.08937
M73 Q1 S33
G1 X155.062 Y87.964 E0.09426
M73 P1 R33
G1 X156.153 Y90.597 E0.08937
G1 X156.153 Y116.903 E0.82482
G1 X155.062 Y119.536 E0.08937
G1 X152.936 Y121.662 E0.09426
G1 X150.303 Y122.753 E0.08937
G1 X99.697 Y122.753 E1.58673
G1 X97.064 Y121.662 E0.08937
G1 X94.938 Y119.537 E0.09426
G1 X93.847 Y116.903 E0.08937
G1 X93.847 Y90.597 E0.82482
G1 X94.915 Y88.019 E0.08749
M204 P1500
G1 X95.086 Y88.098 F10800
M204 P1000
G1 X95.257 Y88.177
G1 F1200
G1 X97.277 Y86.157 E0.08956
G1 X99.772 Y85.124 E0.08466
G1 X150.228 Y85.124 E1.58203
G1 X152.723 Y86.157 E0.08466
G1 X154.743 Y88.177 E0.08956
G1 X155.776 Y90.672 E0.08466
G1 X155.776 Y116.828 E0.82012
G1 X154.743 Y119.323 E0.08466
G1 X152.723 Y121.343 E0.08956
G1 X150.228 Y122.376 E0.08466
G1 X99.772 Y122.376 E1.58203
G1 X97.277 Y121.343 E0.08466
G1 X95.257 Y119.323 E0.08956
G1 X94.224 Y116.828 E0.08466
G1 X94.224 Y90.672 E0.82012
G1 X95.234 Y88.233 E0.08278
M204 P1500
M73 P1 R32
G1 X95.406 Y88.312 F10800
M204 P1000
G1 X95.577 Y88.391
G1 F1200
G1 X97.491 Y86.477 E0.08486
G1 X99.847 Y85.501 E0.07996
G1 X150.153 Y85.501 E1.57732
G1 X152.509 Y86.477 E0.07996
G1 X154.423 Y88.391 E0.08486
G1 X155.399 Y90.747 E0.07996
G1 X155.399 Y116.753 E0.81541
M73 P2 R32
M73 Q2 S33
G1 X154.423 Y119.109 E0.07996
G1 X152.509 Y121.023 E0.08486
G1 X150.153 Y121.999 E0.07996
G1 X99.847 Y121.999 E1.57732
G1 X97.491 Y121.023 E0.07996
G1 X95.577 Y119.109 E0.08486
G1 X94.601 Y116.753 E0.07996
G1 X94.601 Y90.747 E0.81541
G1 X95.554 Y88.446 E0.07808
M204 P1500
G1 X95.725 Y88.525 F10800
M204 P1000
G1 X95.897 Y88.604
G1 F1200
G1 X97.704 Y86.797 E0.08015
G1 X99.922 Y85.878 E0.07526
G1 X150.078 Y85.878 E1.57262
G1 X152.296 Y86.797 E0.07526
G1 X154.103 Y88.604 E0.08015
G1 X155.022 Y90.822 E0.07526
G1 X155.022 Y116.678 E0.81071
M73 Q2 S32
G1 X154.103 Y118.896 E0.07526
G1 X152.296 Y120.703 E0.08015
G1 X150.078 Y121.622 E0.07526
G1 X99.922 Y121.622 E1.57262
G1 X97.704 Y120.703 E0.07526
G1 X95.897 Y118.896 E0.08015
G1 X94.978 Y116.678 E0.07526
G1 X94.978 Y90.822 E0.81071
G1 X95.874 Y88.66 E0.07337
M204 P1500
G1 X96.045 Y88.739 F10800
M204 P1000
G1 X96.216 Y88.818
G1 F1200
G1 X97.918 Y87.116 E0.07545
G1 X99.997 Y86.255 E0.07055
G1 X150.003 Y86.255 E1.56792
G1 X152.082 Y87.116 E0.07055
G1 X153.784 Y88.818 E0.07545
G1 X154.645 Y90.897 E0.07055
G1 X154.645 Y116.603 E0.80601
G1 X153.784 Y118.682 E0.07055
G1 X152.082 Y120.384 E0.07545
G1 X150.003 Y121.245 E0.07055
G1 X99.997 Y121.245 E1.56791
M73 P3 R32
M73 Q3 S32
G1 X97.918 Y120.384 E0.07055
G1 X96.216 Y118.682 E0.07545
G1 X95.355 Y116.603 E0.07055
G1 X95.355 Y90.897 E0.80601
G1 X96.193 Y88.873 E0.06867
M204 P1500
G1 X96.365 Y88.952 F10800
M204 P1000
G1 X96.536 Y89.032
G1 F1200
G1 X98.132 Y87.436 E0.07075
G1 X100.072 Y86.632 E0.06585
G1 X149.928 Y86.632 E1.56321
G1 X151.868 Y87.436 E0.06585
G1 X153.464 Y89.032 E0.07075
G1 X154.268 Y90.972 E0.06585
G1 X154.268 Y116.528 E0.8013
G1 X153.464 Y118.468 E0.06585
G1 X151.868 Y120.064 E0.07075
G1 X149.928 Y120.868 E0.06585
G1 X100.072 Y120.868 E1.56321
G1 X98.132 Y120.064 E0.06585
G1 X96.536 Y118.469 E0.07075
G1 X95.732 Y116.528 E0.06585
G1 X95.732 Y90.972 E0.8013
G1 X96.513 Y89.087 E0.06397
M204 P1500
G1 X96.684 Y89.166 F10800
M204 P1000
G1 X96.856 Y89.245
G1 F1200
G1 X98.345 Y87.756 E0.06604
G1 X100.147 Y87.009 E0.06115
G1 X149.853 Y87.009 E1.55851
G1 X151.655 Y87.756 E0.06115
G1 X153.144 Y89.245 E0.06604
G1 X153.891 Y91.047 E0.06115
G1 X153.891 Y116.453 E0.7966
G1 X153.144 Y118.255 E0.06115
G1 X151.655 Y119.744 E0.06604
G1 X149.853 Y120.491 E0.06115
G1 X100.147 Y120.491 E1.55851
G1 X98.345 Y119.744 E0.06115
G1 X96.856 Y118.255 E0.06604
G1 X96.109 Y116.453 E0.06115
G1 X96.109 Y91.047 E0.7966
M73 P4 R32
M73 Q4 S32
G1 X96.833 Y89.301 E0.05926
M204 P1500
G1 X97.004 Y89.38 F10800
M204 P1000
G1 X97.175 Y89.459
G1 F1200
G1 X98.559 Y88.075 E0.06134
G1 X100.222 Y87.386 E0.05644
G1 X149.778 Y87.386 E1.5538
G1 X151.441 Y88.075 E0.05644
G1 X152.825 Y89.459 E0.06134
G1 X153.513 Y91.122 E0.05644
G1 X153.513 Y116.378 E0.7919
G1 X152.825 Y118.041 E0.05644
G1 X151.441 Y119.425 E0.06134
G1 X149.778 Y120.114 E0.05644
G1 X100.222 Y120.114 E1.5538
G1 X98.559 Y119.425 E0.05644
G1 X97.175 Y118.041 E0.06134
G1 X96.487 Y116.378 E0.05644
G1 X96.487 Y91.122 E0.7919
G1 X97.152 Y89.514 E0.05456
M204 P1500
G1 X97.324 Y89.593 F10800
M204 P1000
G1 X97.495 Y89.672
G1 F1200
G1 X98.772 Y88.395 E0.05664
G1 X100.297 Y87.764 E0.05174
G1 X149.703 Y87.764 E1.5491
G1 X151.228 Y88.395 E0.05174
G1 X152.505 Y89.672 E0.05664
G1 X153.136 Y91.197 E0.05174
G1 X153.136 Y116.303 E0.78719
G1 X152.505 Y117.828 E0.05174
G1 X151.228 Y119.105 E0.05664
G1 X149.703 Y119.736 E0.05174
G1 X100.297 Y119.736 E1.5491
M73 P4 R31
G1 X98.772 Y119.105 E0.05174
G1 X97.495 Y117.828 E0.05664
G1 X96.864 Y116.303 E0.05174
G1 X96.864 Y91.197 E0.78719
G1 X97.472 Y89.728 E0.04986
M204 P1500
G1 X97.643 Y89.807 F10800
M204 P1000
G1 X97.815 Y89.886
G1 F1200
G1 X98.986 Y88.715 E0.05193
G1 X100.372 Y88.141 E0.04704
G1 X149.628 Y88.141 E1.5444
M73 P5 R31
M73 Q5 S32
G1 X151.014 Y88.715 E0.04704
G1 X152.185 Y89.886 E0.05193
G1 X152.759 Y91.272 E0.04703
G1 X152.759 Y116.228 E0.78249
G1 X152.185 Y117.614 E0.04704
G1 X151.014 Y118.785 E0.05193
G1 X149.628 Y119.359 E0.04704
G1 X100.372 Y119.359 E1.5444
G1 X98.986 Y118.785 E0.04703
G1 X97.815 Y117.614 E0.05193
G1 X97.241 Y116.228 E0.04704
G1 X97.241 Y91.272 E0.78249
G1 X97.792 Y89.941 E0.04515
M204 P1500
G1 X97.963 Y90.02 F10800
M204 P1000
G1 X98.134 Y90.1
G1 F1200
G1 X99.2 Y89.034 E0.04723
G1 X100.447 Y88.518 E0.04233
G1 X149.553 Y88.518 E1.53969
G1 X150.8 Y89.034 E0.04233
G1 X151.866 Y90.1 E0.04723
G1 X152.382 Y91.347 E0.04233
G1 X152.382 Y116.153 E0.77779
M73 Q5 S31
G1 X151.866 Y117.401 E0.04233
G1 X150.8 Y118.466 E0.04723
G1 X149.553 Y118.982 E0.04233
G1 X100.447 Y118.982 E1.53969
G1 X99.2 Y118.466 E0.04233
G1 X98.134 Y117.401 E0.04723
G1 X97.618 Y116.153 E0.04233
G1 X97.618 Y91.347 E0.77779
G1 X98.111 Y90.155 E0.04045
M204 P1500
G1 X98.283 Y90.234 F10800
M204 P1000
G1 X98.454 Y90.313
G1 F1200
G1 X99.413 Y89.354 E0.04253
G1 X100.522 Y88.895 E0.03763
G1 X149.478 Y88.895 E1.53499
G1 X150.587 Y89.354 E0.03763
G1 X151.546 Y90.313 E0.04253
G1 X152.005 Y91.422 E0.03763
G1 X152.005 Y116.078 E0.77308
G1 X151.546 Y117.187 E0.03763
G1 X150.587 Y118.146 E0.04253
G1 X149.478 Y118.605 E0.03763
G1 X100.522 Y118.605 E1.53499
M73 P6 R31
M73 Q6 S31
G1 X99.413 Y118.146 E0.03763
G1 X98.454 Y117.187 E0.04253
G1 X97.995 Y116.078 E0.03763
G1 X97.995 Y91.422 E0.77308
G1 X98.431 Y90.369 E0.03575
M204 P1500
G1 X98.602 Y90.448 F10800
M204 P1000
G1 X98.774 Y90.527
G1 F1200
G1 X99.627 Y89.674 E0.03782
G1 X100.597 Y89.272 E0.03292
G1 X149.403 Y89.272 E1.53029
G1 X150.373 Y89.674 E0.03292
G1 X151.226 Y90.527 E0.03782
G1 X151.628 Y91.497 E0.03292
G1 X151.628 Y116.003 E0.76838
G1 X151.226 Y116.973 E0.03292
G1 X150.373 Y117.826 E0.03782
G1 X149.403 Y118.228 E0.03292
G1 X100.597 Y118.228 E1.53029
G1 X99.627 Y117.826 E0.03292
G1 X98.774 Y116.973 E0.03782
G1 X98.372 Y116.003 E0.03292
G1 X98.372 Y91.497 E0.76838
G1 X98.751 Y90.582 E0.03104
M204 P1500
G1 X98.922 Y90.661 F10800
M204 P1000
G1 X99.093 Y90.74
G1 F1200
G1 X99.84 Y89.993 E0.03312
G1 X100.672 Y89.649 E0.02822
G1 X149.328 Y89.649 E1.52558
G1 X150.16 Y89.993 E0.02822
G1 X150.907 Y90.74 E0.03312
G1 X151.251 Y91.572 E0.02822
G1 X151.251 Y115.928 E0.76367
G1 X150.907 Y116.76 E0.02822
G1 X150.16 Y117.507 E0.03312
G1 X149.328 Y117.851 E0.02822
G1 X100.672 Y117.851 E1.52558
G1 X99.84 Y117.507 E0.02822
G1 X99.093 Y116.76 E0.03312
G1 X98.749 Y115.928 E0.02822
G1 X98.749 Y91.572 E0.76367
G1 X99.07 Y90.796 E0.02634
M204 P1500
G1 X99.242 Y90.875 F10800
M204 P1000
G1 X99.413 Y90.954
G1 F1200
G1 X100.054 Y90.313 E0.02841
G1 X100.747 Y90.026 E0.02352
G1 X149.253 Y90.026 E1.52088
M73 P7 R31
M73 Q7 S31
G1 X149.946 Y90.313 E0.02352
G1 X150.587 Y90.954 E0.02841
G1 X150.874 Y91.647 E0.02352
G1 X150.874 Y115.853 E0.75897
G1 X150.587 Y116.546 E0.02352
G1 X149.946 Y117.187 E0.02841
G1 X149.253 Y117.474 E0.02352
G1 X100.747 Y117.474 E1.52088
G1 X100.054 Y117.187 E0.02352
G1 X99.413 Y116.546 E0.02841
G1 X99.126 Y115.853 E0.02352
G1 X99.126 Y91.647 E0.75897
G1 X99.39 Y91.009 E0.02164
M204 P1500
G1 X99.561 Y91.088 F10800
M204 P1000
G1 X99.733 Y91.167
G1 F1200
G1 X100.268 Y90.633 E0.02371
G1 X100.822 Y90.403 E0.01881
G1 X149.178 Y90.403 E1.51618
G1 X149.733 Y90.633 E0.01881
G1 X150.267 Y91.167 E0.02371
G1 X150.497 Y91.722 E0.01881
G1 X150.497 Y115.778 E0.75427
G1 X150.267 Y116.333 E0.01881
G1 X149.732 Y116.867 E0.02371
G1 X149.178 Y117.097 E0.01881
G1 X100.822 Y117.097 E1.51618
G1 X100.268 Y116.867 E0.01881
G1 X99.733 Y116.333 E0.02371
G1 X99.503 Y115.778 E0.01881
G1 X99.503 Y91.722 E0.75427
G1 X99.71 Y91.223 E0.01693
M204 P1500
G1 X99.881 Y91.302 F10800
M204 P1000
G1 X100.052 Y91.381
G1 F1200
G1 X100.481 Y90.952 E0.01901
G1 X100.897 Y90.78 E0.01411
G1 X149.103 Y90.78 E1.51147
M73 P7 R30
G1 X149.519 Y90.952 E0.01411
G1 X149.948 Y91.381 E0.01901
G1 X150.12 Y91.797 E0.01411
G1 X150.12 Y115.703 E0.74956
G1 X149.948 Y116.119 E0.01411
G1 X149.519 Y116.548 E0.01901
G1 X149.103 Y116.72 E0.01411
G1 X100.897 Y116.72 E1.51147
M73 P8 R30
M73 Q8 S31
G1 X100.481 Y116.548 E0.01411
G1 X100.052 Y116.119 E0.01901
G1 X99.88 Y115.703 E0.01411
G1 X99.88 Y91.797 E0.74956
G1 X100.029 Y91.437 E0.01223
M204 P1500
G1 X100.201 Y91.516 F10800
M204 P1000
G1 X100.372 Y91.595
G1 F1200
G1 X100.695 Y91.272 E0.0143
G1 X100.972 Y91.157 E0.00941
G1 X149.028 Y91.157 E1.50677
G1 X149.305 Y91.272 E0.00941
G1 X149.628 Y91.595 E0.0143
G1 X149.743 Y91.872 E0.00941
G1 X149.743 Y115.628 E0.74486
G1 X149.628 Y115.905 E0.00941
G1 X149.305 Y116.228 E0.0143
G1 X149.028 Y116.343 E0.00941
G1 X100.972 Y116.343 E1.50677
G1 X100.695 Y116.228 E0.00941
G1 X100.372 Y115.905 E0.0143
G1 X100.257 Y115.628 E0.00941
G1 X100.257 Y91.872 E0.74486
G1 X100.349 Y91.65 E0.00753
M204 P1500
G1 X100.52 Y91.729 F10800
M204 P1000
G1 X100.692 Y91.808
G1 F1200
G1 X100.908 Y91.592 E0.0096
G1 X101.047 Y91.534 E0.0047
G1 X148.953 Y91.534 E1.50207
M73 Q8 S30
G1 X149.092 Y91.592 E0.0047
G1 X149.308 Y91.808 E0.0096
G1 X149.366 Y91.947 E0.0047
G1 X149.366 Y115.553 E0.74016
G1 X149.308 Y115.692 E0.0047
G1 X149.092 Y115.908 E0.0096
G1 X148.953 Y115.966 E0.0047
G1 X101.047 Y115.966 E1.50207
G1 X100.908 Y115.908 E0.0047
G1 X100.692 Y115.692 E0.0096
G1 X100.634 Y115.553 E0.0047
G1 X100.634 Y91.947 E0.74016
G1 X100.669 Y91.864 E0.00282
M204 P1500
G1 X100.84 Y91.943 F10800
M204 P1000
G1 X101.011 Y92.022
G1 F1200
G1 X101.122 Y91.911 E0.0049
G1 X148.878 Y91.911 E1.49736
G1 X148.989 Y92.022 E0.0049
G1 X148.989 Y115.478 E0.73545
M73 P9 R30
G1 X148.878 Y115.589 E0.0049
G1 X101.122 Y115.589 E1.49736
M73 Q9 S30
G1 X101.011 Y115.478 E0.0049
G1 X101.011 Y92.082 E0.73357
; INIT printing object Black - Filament Insert Guide Lid_1.stl id:0 copy 0
; printing object Black - Filament Insert Guide Lid_1.stl id:0 copy 0
M486 S0
M204 P1500
G1 X101.211 Y92.196 F10800
M204 P1000
G1 X101.41 Y92.31
;TYPE:External perimeter
G1 F1200
G1 X148.59 Y92.31 E1.4793
G1 X148.59 Y115.19 E0.71739
G1 X101.41 Y115.19 E1.4793
G1 X101.41 Y92.37 E0.71551
G1 X101.756 Y92.51 F10800
;WIPE_START
G1 F8640
G1 X104.701 Y92.366 E-0.76
;WIPE_END
G1 E-0.04 F2100
G1 Z0.6 F10800
M204 P1500
G1 X103.297 Y101.151
M204 P1000
G1 X105.185 Y109.932
G1 Z0.2
G1 E0.8 F2100
G1 F1200
G1 X105.185 Y113.013 E0.09661
G1 X111.185 Y113.013 E0.18813
G1 X111.185 Y114.502 E0.04667
G1 X111.609 Y114.736 E0.01519
G1 X116.767 Y111.473 E0.19136
G1 X111.609 Y108.21 E0.19136
G1 X111.185 Y108.444 E0.01519
G1 X111.185 Y109.932 E0.04667
G1 X105.245 Y109.932 E0.18624
G1 X104.785 Y109.932 F10800
M204 P1500
G1 X105.245 Y109.744
M204 P1000
G1 X105.245 Y109.555
;TYPE:Internal perimeter
G1 F1200
G1 X104.808 Y109.555 E0.0137
G1 X104.808 Y113.39 E0.12026
G1 X110.808 Y113.39 E0.18813
G1 X110.808 Y114.813 E0.0446
G1 X101.787 Y114.813 E0.28284
G1 X101.787 Y92.687 E0.69374
G1 X148.213 Y92.687 E1.45565
G1 X148.213 Y114.813 E0.69374
G1 X112.676 Y114.813 E1.11424
M73 P10 R30
M73 Q10 S30
G1 X112.601 Y114.554 E0.00844
G1 X117.472 Y111.473 E0.18073
G1 X111.623 Y107.772 E0.21703
G1 X110.808 Y108.221 E0.02917
G1 X110.808 Y109.555 E0.04183
G1 X105.305 Y109.555 E0.17254
M204 P1500
G1 X105.305 Y109.366 F10800
M204 P1000
G1 X105.305 Y109.178
G1 F1200
G1 X104.431 Y109.178 E0.02741
G1 X104.431 Y113.768 E0.1439
G1 X110.431 Y113.768 E0.18813
G1 X110.431 Y114.436 E0.02095
G1 X102.164 Y114.436 E0.25919
G1 X102.164 Y93.064 E0.67009
G1 X147.836 Y93.064 E1.432
G1 X147.836 Y114.436 E0.67009
G1 X113.977 Y114.436 E1.06161
G1 X113.902 Y114.177 E0.00844
G1 X118.177 Y111.473 E0.15861
G1 X111.636 Y107.334 E0.24271
G1 X110.431 Y107.998 E0.04314
G1 X110.431 Y109.178 E0.037
G1 X105.365 Y109.178 E0.15884
;WIPE_START
G1 F8640
G1 X104.431 Y109.178 E-0.2157
G1 X104.431 Y111.535 E-0.5443
;WIPE_END
G1 E-0.04 F2100
G1 Z0.6 F10800
M204 P1500
G1 X121.738 Y107.276
M204 P1000
G1 X138.111 Y105.375
G1 Z0.2
G1 E0.8 F2100
;TYPE:External perimeter
G1 F1200
G1 X138.228 Y106.258 E0.02794
G1 X138.569 Y107.082 E0.02794
G1 X139.111 Y107.789 E0.02794
G1 X139.818 Y108.331 E0.02794
G1 X140.642 Y108.672 E0.02794
G1 X141.525 Y108.789 E0.02794
G1 X142.408 Y108.672 E0.02794
G1 X143.232 Y108.331 E0.02794
G1 X143.939 Y107.789 E0.02794
G1 X144.481 Y107.082 E0.02794
G1 X144.822 Y106.258 E0.02794
G1 X144.939 Y105.375 E0.02794
G1 X144.822 Y104.491 E0.02794
G1 X144.481 Y103.668 E0.02794
G1 X143.939 Y102.961 E0.02794
G1 X143.232 Y102.419 E0.02794
G1 X142.408 Y102.078 E0.02794
G1 X141.525 Y101.961 E0.02794
G1 X141.083 Y102.02 E0.01397
G1 X140.641 Y102.078 E0.01397
G1 X139.818 Y102.419 E0.02794
G1 X139.111 Y102.961 E0.02794
G1 X138.569 Y103.668 E0.02794
G1 X138.228 Y104.491 E0.02794
