; generated by SuperSlicer 2.3.57 on 2022-03-07 at 13:40:17 UTC

; 

; external perimeters extrusion width = 0.45mm
; perimeters extrusion width = 0.45mm
; infill extrusion width = 0.45mm
; solid infill extrusion width = 0.45mm
; top infill extrusion width = 0.40mm
; first layer extrusion width = 0.42mm

; object:{"name":"Black - Magnet Door Stop_1","id":"Black - Magnet Door Stop_1.stl id:0 copy 0","object_center":[125.000000,105.000000,0.000000],"boundingbox_center":[125.000000,105.000000,5.000000],"boundingbox_size":[40.399994,20.698208,10.000000]}
; Total objects to print: 1
M486 T1
; plater:{"center":[125.000000,105.000000,0.000000],"boundingbox_center":[125.000000,105.000000,5.000000],"boundingbox_size":[40.399994,20.698208,10.000000]}

M73 P0 R31
M73 Q0 S32
;TYPE:Custom
M862.3 P "MK3S" ; printer model check
M862.1 P0.4 ; nozzle diameter check
M115 U3.10.0 ; tell printer latest fw version
G90 ; use absolute coordinates
M83 ; extruder relative mode
M104 S255 ; set extruder temp
M140 S100 ; set bed temp
M190 S100 ; wait for bed temp
M109 S255 ; wait for extruder temp
G28 W ; home all without mesh bed level
G80 ; mesh bed leveling
G1 Y-3.0 F1000.0 ; go outside print area
G92 E0.0
G1 X60.0 E9.0 F1000.0 ; intro line
G1 X100.0 E12.5 F1000.0 ; intro line
G92 E0.0
M221 S95

; Don't change E values below. Excessive value can damage the printer.
M907 E430 ; set extruder motor current
M107
G21 ; set units to millimeters
G90 ; use absolute coordinates
M83 ; use relative distances for extrusion
M900 K0.04 ; Filament gcode LA 1.5
M900 K20 ; Filament gcode LA 1.0
;LAYER_CHANGE
;Z:0.2
;HEIGHT:0.2
;BEFORE_LAYER_CHANGE
G92 E0.0
;0.2


M73 Q0 S31
G1 E-0.8 F2100
G1 Z0.4 F10800
;AFTER_LAYER_CHANGE
;0.2
G1 Z0.6
M204 P1500
G1 X98.418 Y90.501
G1 Z0.2
G1 E0.8 F2100
;TYPE:Skirt
;WIDTH:0.42
G1 F1200
G1 X100.65 Y88.269 E0.09897
G1 X103.422 Y87.121 E0.09407
G1 X146.578 Y87.121 E1.35314
G1 X149.35 Y88.269 E0.09407
G1 X151.582 Y90.501 E0.09897
G1 X152.73 Y93.273 E0.09407
G1 X152.73 Y112.706 E0.60932
G1 X152.659 Y113.438 E0.02305
G1 X152.221 Y115.654 E0.07082
G1 X151.665 Y117.012 E0.04602
G1 X150.211 Y119.217 E0.08282
G1 X149.167 Y120.274 E0.04658
G1 X146.973 Y121.76 E0.0831
G1 X145.604 Y122.337 E0.04658
G1 X143.351 Y122.8 E0.07212
G1 X142.59 Y122.877 E0.02396
G1 X107.443 Y122.879 E1.10202
G1 X106.711 Y122.808 E0.02305
G1 X104.495 Y122.371 E0.07083
G1 X103.137 Y121.814 E0.04602
G1 X100.932 Y120.36 E0.08281
G1 X99.875 Y119.317 E0.04658
G1 X98.389 Y117.122 E0.0831
G1 X97.812 Y115.753 E0.04659
G1 X97.349 Y113.5 E0.07212
G1 X97.272 Y112.74 E0.02395
G1 X97.27 Y93.273 E0.61036
G1 X98.395 Y90.556 E0.0922
G1 X98.566 Y90.635 F10800
M204 P1000
G1 X98.738 Y90.715
G1 F1200
G1 X100.864 Y88.589 E0.09427
G1 X103.497 Y87.498 E0.08937
G1 X146.503 Y87.498 E1.34844
G1 X149.136 Y88.589 E0.08937
G1 X151.262 Y90.714 E0.09426
G1 X152.353 Y93.348 E0.08937
G1 X152.353 Y112.688 E0.6064
M73 P1 R31
M73 Q1 S31
G1 X152.285 Y113.383 E0.02189
G1 X151.925 Y115.209 E0.05836
G1 X151.719 Y115.888 E0.02225
G1 X151.435 Y116.575 E0.02332
G1 X151.103 Y117.196 E0.02207
G1 X150.085 Y118.72 E0.05744
G1 X149.638 Y119.264 E0.02207
G1 X149.114 Y119.788 E0.02324
G1 X148.57 Y120.234 E0.02207
G1 X147.047 Y121.252 E0.05744
G1 X146.426 Y121.584 E0.02207
G1 X145.742 Y121.867 E0.02324
G1 X145.068 Y122.072 E0.02207
G1 X143.261 Y122.431 E0.05778
G1 X142.56 Y122.5 E0.02207
G1 X107.462 Y122.502 E1.10049
G1 X106.766 Y122.434 E0.0219
G1 X104.94 Y122.074 E0.05836
G1 X104.261 Y121.869 E0.02225
G1 X103.574 Y121.584 E0.02332
G1 X102.953 Y121.252 E0.02207
G1 X101.43 Y120.234 E0.05744
G1 X100.886 Y119.788 E0.02207
G1 X100.362 Y119.264 E0.02324
G1 X99.915 Y118.72 E0.02207
G1 X98.897 Y117.196 E0.05745
G1 X98.565 Y116.575 E0.02207
G1 X98.282 Y115.891 E0.02324
G1 X98.077 Y115.217 E0.02207
G1 X97.718 Y113.41 E0.05777
G1 X97.649 Y112.71 E0.02206
G1 X97.647 Y93.348 E0.60706
G1 X98.715 Y90.77 E0.0875
M204 P1500
G1 X98.886 Y90.849 F10800
M204 P1000
G1 X99.057 Y90.928
G1 F1200
G1 X101.077 Y88.908 E0.08957
G1 X103.572 Y87.875 E0.08466
G1 X146.428 Y87.875 E1.34373
G1 X148.923 Y88.908 E0.08466
G1 X150.943 Y90.928 E0.08956
G1 X151.976 Y93.423 E0.08466
G1 X151.976 Y112.669 E0.60347
G1 X151.912 Y113.328 E0.02074
G1 X151.559 Y115.118 E0.0572
G1 X151.364 Y115.761 E0.02108
G1 X151.093 Y116.414 E0.02216
G1 X150.779 Y117.002 E0.02091
G1 X149.782 Y118.495 E0.05628
G1 X149.359 Y119.01 E0.02091
G1 X148.861 Y119.508 E0.02207
G1 X148.345 Y119.931 E0.02091
G1 X146.853 Y120.928 E0.05628
G1 X146.265 Y121.243 E0.02091
G1 X145.614 Y121.512 E0.02207
G1 X144.976 Y121.706 E0.02091
G1 X143.205 Y122.058 E0.05662
G1 X142.542 Y122.123 E0.0209
G1 X107.48 Y122.125 E1.09934
G1 X106.821 Y122.061 E0.02075
G1 X105.032 Y121.708 E0.0572
G1 X104.388 Y121.513 E0.02108
G1 X103.735 Y121.243 E0.02216
G1 X103.147 Y120.928 E0.02091
G1 X101.655 Y119.931 E0.05628
G1 X101.139 Y119.508 E0.02091
G1 X100.641 Y119.01 E0.02207
G1 X100.218 Y118.495 E0.02091
G1 X99.221 Y117.002 E0.05628
G1 X98.906 Y116.414 E0.02091
G1 X98.637 Y115.763 E0.02208
G1 X98.443 Y115.125 E0.02091
G1 X98.091 Y113.354 E0.05661
G1 X98.026 Y112.691 E0.0209
G1 X98.024 Y93.423 E0.60413
G1 X99.034 Y90.984 E0.08279
M204 P1500
G1 X99.206 Y91.063 F10800
M204 P1000
G1 X99.377 Y91.142
G1 F1200
G1 X101.291 Y89.228 E0.08486
G1 X103.647 Y88.252 E0.07996
G1 X146.353 Y88.252 E1.33903
G1 X148.709 Y89.228 E0.07996
G1 X150.623 Y91.142 E0.08486
G1 X151.599 Y93.498 E0.07996
G1 X151.599 Y112.651 E0.60054
G1 X151.538 Y113.273 E0.01959
G1 X151.192 Y115.026 E0.05604
G1 X151.008 Y115.634 E0.01991
G1 X150.752 Y116.253 E0.02099
G1 X150.455 Y116.808 E0.01975
G1 X149.479 Y118.27 E0.05512
G1 X149.079 Y118.757 E0.01975
G1 X148.607 Y119.228 E0.02091
G1 X148.121 Y119.628 E0.01975
G1 X146.659 Y120.604 E0.05512
G1 X146.103 Y120.901 E0.01975
G1 X145.487 Y121.157 E0.02091
G1 X144.884 Y121.339 E0.01975
G1 X143.15 Y121.684 E0.05545
G1 X142.523 Y121.746 E0.01974
G1 X107.498 Y121.748 E1.09818
M73 P2 R31
M73 Q2 S31
G1 X106.876 Y121.687 E0.0196
G1 X105.123 Y121.341 E0.05604
G1 X104.515 Y121.158 E0.01991
G1 X103.897 Y120.901 E0.02099
G1 X103.341 Y120.604 E0.01975
G1 X101.879 Y119.628 E0.05512
G1 X101.393 Y119.228 E0.01975
G1 X100.921 Y118.757 E0.02091
G1 X100.521 Y118.27 E0.01975
G1 X99.545 Y116.808 E0.05512
G1 X99.248 Y116.252 E0.01975
G1 X98.992 Y115.636 E0.02091
G1 X98.81 Y115.033 E0.01975
G1 X98.465 Y113.299 E0.05545
G1 X98.403 Y112.672 E0.01974
G1 X98.401 Y93.498 E0.6012
G1 X99.354 Y91.197 E0.07809
M204 P1500
G1 X99.525 Y91.276 F10800
M204 P1000
G1 X99.697 Y91.355
G1 F1200
G1 X101.504 Y89.548 E0.08016
G1 X103.722 Y88.629 E0.07526
G1 X146.278 Y88.629 E1.33433
G1 X148.496 Y89.548 E0.07526
G1 X150.303 Y91.355 E0.08015
G1 X151.222 Y93.573 E0.07526
G1 X151.222 Y112.633 E0.59761
G1 X151.165 Y113.218 E0.01844
G1 X150.826 Y114.935 E0.05487
G1 X150.653 Y115.507 E0.01874
G1 X150.411 Y116.091 E0.01983
G1 X150.131 Y116.614 E0.01859
G1 X149.175 Y118.045 E0.05396
G1 X148.799 Y118.503 E0.01859
G1 X148.354 Y118.948 E0.01975
G1 X147.896 Y119.325 E0.01858
G1 X146.465 Y120.281 E0.05396
G1 X145.942 Y120.56 E0.01859
G1 X145.36 Y120.801 E0.01975
G1 X144.793 Y120.973 E0.01859
G1 X143.094 Y121.311 E0.05429
G1 X142.505 Y121.369 E0.01858
G1 X107.517 Y121.371 E1.09702
G1 X106.931 Y121.314 E0.01844
G1 X105.214 Y120.975 E0.05488
G1 X104.642 Y120.802 E0.01873
G1 X104.058 Y120.56 E0.01983
G1 X103.535 Y120.281 E0.01859
G1 X102.104 Y119.325 E0.05396
G1 X101.646 Y118.948 E0.01858
G1 X101.201 Y118.503 E0.01975
G1 X100.825 Y118.045 E0.01859
G1 X99.868 Y116.614 E0.05396
G1 X99.589 Y116.091 E0.01859
G1 X99.348 Y115.509 E0.01975
G1 X99.176 Y114.942 E0.01859
G1 X98.838 Y113.243 E0.05429
G1 X98.78 Y112.654 E0.01857
G1 X98.778 Y93.573 E0.59826
G1 X99.674 Y91.411 E0.07338
M204 P1500
G1 X99.845 Y91.49 F10800
M204 P1000
G1 X100.016 Y91.569
G1 F1200
G1 X101.718 Y89.867 E0.07545
G1 X103.797 Y89.006 E0.07055
G1 X146.203 Y89.006 E1.32962
G1 X148.282 Y89.867 E0.07055
G1 X149.984 Y91.569 E0.07545
G1 X150.845 Y93.648 E0.07055
G1 X150.845 Y112.614 E0.59468
M73 P2 R30
G1 X150.791 Y113.163 E0.01729
G1 X150.46 Y114.844 E0.05371
G1 X150.297 Y115.38 E0.01756
G1 X150.07 Y115.93 E0.01866
G1 X149.808 Y116.42 E0.01743
G1 X148.872 Y117.82 E0.0528
G1 X148.52 Y118.25 E0.01743
G1 X148.1 Y118.669 E0.01859
G1 X147.671 Y119.021 E0.01742
G1 X146.271 Y119.957 E0.0528
G1 X145.781 Y120.219 E0.01743
G1 X145.233 Y120.446 E0.01859
G1 X144.701 Y120.607 E0.01742
G1 X143.039 Y120.938 E0.05313
G1 X142.486 Y120.992 E0.01742
G1 X107.535 Y120.994 E1.09587
G1 X106.986 Y120.94 E0.01729
G1 X105.305 Y120.609 E0.05371
G1 X104.769 Y120.446 E0.01756
G1 X104.219 Y120.219 E0.01866
G1 X103.729 Y119.957 E0.01743
G1 X102.329 Y119.021 E0.0528
G1 X101.9 Y118.669 E0.01742
G1 X101.48 Y118.25 E0.01859
G1 X101.128 Y117.82 E0.01743
G1 X100.192 Y116.42 E0.0528
G1 X99.93 Y115.93 E0.01743
G1 X99.703 Y115.382 E0.01859
G1 X99.542 Y114.85 E0.01743
G1 X99.212 Y113.188 E0.05313
G1 X99.157 Y112.635 E0.01741
G1 X99.155 Y93.648 E0.59533
G1 X99.993 Y91.624 E0.06868
M204 P1500
G1 X100.165 Y91.703 F10800
M204 P1000
G1 X100.336 Y91.783
G1 F1200
G1 X101.932 Y90.187 E0.07075
G1 X103.872 Y89.383 E0.06585
G1 X146.128 Y89.383 E1.32492
M73 P3 R30
M73 Q3 S31
G1 X148.068 Y90.187 E0.06585
G1 X149.664 Y91.782 E0.07075
G1 X150.468 Y93.723 E0.06585
G1 X150.468 Y112.596 E0.59176
G1 X150.418 Y113.108 E0.01613
G1 X150.093 Y114.752 E0.05255
G1 X149.942 Y115.253 E0.01639
G1 X149.728 Y115.768 E0.01749
G1 X149.484 Y116.226 E0.01626
G1 X148.569 Y117.595 E0.05164
G1 X148.24 Y117.996 E0.01626
G1 X147.847 Y118.389 E0.01743
G1 X147.446 Y118.718 E0.01626
G1 X146.077 Y119.633 E0.05163
G1 X145.619 Y119.877 E0.01626
G1 X145.106 Y120.09 E0.01743
G1 X144.609 Y120.241 E0.01626
G1 X142.984 Y120.564 E0.05197
G1 X142.468 Y120.615 E0.01626
G1 X107.553 Y120.617 E1.09471
G1 X107.041 Y120.567 E0.01614
G1 X105.397 Y120.242 E0.05255
G1 X104.896 Y120.091 E0.01639
G1 X104.381 Y119.877 E0.01749
G1 X103.923 Y119.633 E0.01626
G1 X102.554 Y118.718 E0.05163
G1 X102.153 Y118.389 E0.01626
G1 X101.76 Y117.996 E0.01743
G1 X101.431 Y117.595 E0.01626
G1 X100.516 Y116.226 E0.05164
G1 X100.272 Y115.768 E0.01627
G1 X100.059 Y115.255 E0.01743
G1 X99.908 Y114.758 E0.01626
G1 X99.585 Y113.133 E0.05197
G1 X99.534 Y112.617 E0.01625
G1 X99.532 Y93.723 E0.5924
G1 X100.313 Y91.838 E0.06398
M204 P1500
G1 X100.484 Y91.917 F10800
M204 P1000
G1 X100.656 Y91.996
G1 F1200
G1 X102.145 Y90.507 E0.06605
G1 X103.947 Y89.76 E0.06115
G1 X146.053 Y89.76 E1.32022
M73 Q3 S30
G1 X147.855 Y90.507 E0.06115
G1 X149.344 Y91.996 E0.06604
G1 X150.091 Y93.798 E0.06115
G1 X150.091 Y112.578 E0.58883
G1 X150.044 Y113.053 E0.01498
G1 X149.727 Y114.661 E0.05139
G1 X149.586 Y115.126 E0.01522
G1 X149.387 Y115.607 E0.01633
G1 X149.16 Y116.032 E0.0151
G1 X148.266 Y117.37 E0.05047
G1 X147.96 Y117.742 E0.0151
G1 X147.593 Y118.109 E0.01627
G1 X147.221 Y118.415 E0.0151
G1 X145.882 Y119.309 E0.05047
G1 X145.458 Y119.536 E0.0151
G1 X144.978 Y119.735 E0.01627
G1 X144.518 Y119.875 E0.0151
G1 X142.928 Y120.191 E0.05081
G1 X142.449 Y120.238 E0.0151
G1 X107.572 Y120.24 E1.09355
G1 X107.096 Y120.193 E0.01498
G1 X105.488 Y119.876 E0.05139
G1 X105.023 Y119.735 E0.01522
G1 X104.542 Y119.536 E0.01633
G1 X104.117 Y119.309 E0.0151
G1 X102.779 Y118.415 E0.05047
G1 X102.407 Y118.109 E0.0151
G1 X102.04 Y117.742 E0.01627
G1 X101.734 Y117.37 E0.0151
G1 X100.84 Y116.032 E0.05047
G1 X100.613 Y115.607 E0.0151
G1 X100.414 Y115.127 E0.01627
G1 X100.275 Y114.667 E0.0151
G1 X99.958 Y113.077 E0.05081
G1 X99.911 Y112.598 E0.01509
G1 X99.909 Y93.798 E0.58947
G1 X100.633 Y92.052 E0.05927
M204 P1500
G1 X100.804 Y92.131 F10800
M204 P1000
G1 X100.975 Y92.21
G1 F1200
G1 X102.359 Y90.826 E0.06134
G1 X104.022 Y90.137 E0.05644
G1 X145.978 Y90.137 E1.31551
G1 X147.641 Y90.826 E0.05644
G1 X149.025 Y92.21 E0.06134
G1 X149.713 Y93.873 E0.05644
G1 X149.713 Y112.559 E0.5859
G1 X149.671 Y112.998 E0.01383
G1 X149.361 Y114.57 E0.05023
G1 X149.231 Y114.999 E0.01405
G1 X149.046 Y115.445 E0.01516
G1 X148.836 Y115.838 E0.01394
G1 X147.962 Y117.145 E0.04931
G1 X147.68 Y117.489 E0.01394
G1 X147.34 Y117.83 E0.0151
G1 X146.996 Y118.112 E0.01394
G1 X145.688 Y118.985 E0.04931
G1 X145.296 Y119.195 E0.01394
G1 X144.851 Y119.379 E0.0151
G1 X144.426 Y119.508 E0.01394
G1 X142.873 Y119.817 E0.04965
G1 X142.43 Y119.861 E0.01394
G1 X107.59 Y119.863 E1.0924
M73 P4 R30
M73 Q4 S30
G1 X107.151 Y119.82 E0.01383
G1 X105.579 Y119.51 E0.05023
G1 X105.15 Y119.38 E0.01405
G1 X104.704 Y119.195 E0.01516
G1 X104.312 Y118.985 E0.01394
G1 X103.004 Y118.112 E0.04931
G1 X102.66 Y117.83 E0.01394
G1 X102.32 Y117.489 E0.0151
G1 X102.038 Y117.145 E0.01394
G1 X101.164 Y115.838 E0.04931
G1 X100.954 Y115.445 E0.01394
G1 X100.77 Y115. E0.01511
G1 X100.641 Y114.575 E0.01394
G1 X100.332 Y113.022 E0.04964
G1 X100.288 Y112.58 E0.01393
G1 X100.286 Y93.873 E0.58653
G1 X100.952 Y92.265 E0.05457
M204 P1500
G1 X101.124 Y92.344 F10800
M204 P1000
G1 X101.295 Y92.423
G1 F1200
G1 X102.572 Y91.146 E0.05664
G1 X104.097 Y90.514 E0.05174
G1 X145.903 Y90.514 E1.31081
G1 X147.428 Y91.146 E0.05174
G1 X148.705 Y92.423 E0.05664
G1 X149.336 Y93.948 E0.05174
G1 X149.336 Y112.541 E0.58297
G1 X149.297 Y112.943 E0.01268
G1 X148.994 Y114.478 E0.04907
G1 X148.875 Y114.872 E0.01288
G1 X148.704 Y115.284 E0.01399
G1 X148.512 Y115.643 E0.01278
G1 X147.659 Y116.92 E0.04815
G1 X147.401 Y117.235 E0.01278
G1 X147.086 Y117.55 E0.01394
G1 X146.771 Y117.808 E0.01278
G1 X145.494 Y118.661 E0.04815
G1 X145.135 Y118.854 E0.01278
G1 X144.724 Y119.024 E0.01394
G1 X144.334 Y119.142 E0.01278
G1 X142.817 Y119.444 E0.04849
G1 X142.412 Y119.484 E0.01278
G1 X107.608 Y119.486 E1.09124
G1 X107.206 Y119.446 E0.01268
G1 X105.671 Y119.143 E0.04907
G1 X105.277 Y119.024 E0.01288
G1 X104.865 Y118.854 E0.01399
G1 X104.506 Y118.661 E0.01278
G1 X103.229 Y117.808 E0.04815
G1 X102.914 Y117.55 E0.01278
G1 X102.599 Y117.235 E0.01394
G1 X102.341 Y116.92 E0.01278
G1 X101.488 Y115.643 E0.04815
G1 X101.295 Y115.284 E0.01278
G1 X101.125 Y114.873 E0.01394
G1 X101.007 Y114.483 E0.01278
G1 X100.705 Y112.966 E0.04848
G1 X100.665 Y112.561 E0.01277
G1 X100.663 Y93.948 E0.5836
G1 X101.272 Y92.479 E0.04986
M204 P1500
G1 X101.443 Y92.558 F10800
M204 P1000
G1 X101.615 Y92.637
G1 F1200
G1 X102.786 Y91.466 E0.05194
G1 X104.172 Y90.892 E0.04704
G1 X145.828 Y90.892 E1.3061
G1 X147.214 Y91.466 E0.04704
G1 X148.385 Y92.637 E0.05193
G1 X148.959 Y94.023 E0.04703
G1 X148.959 Y112.522 E0.58004
G1 X148.924 Y112.888 E0.01152
G1 X148.628 Y114.387 E0.0479
G1 X148.52 Y114.745 E0.01171
G1 X148.363 Y115.123 E0.01283
G1 X148.189 Y115.449 E0.01162
G1 X147.356 Y116.695 E0.04699
G1 X147.121 Y116.982 E0.01162
G1 X146.833 Y117.27 E0.01278
G1 X146.546 Y117.505 E0.01162
G1 X145.3 Y118.338 E0.04699
G1 X144.973 Y118.512 E0.01162
G1 X144.597 Y118.668 E0.01278
G1 X144.242 Y118.776 E0.01162
G1 X142.762 Y119.07 E0.04732
G1 X142.393 Y119.107 E0.01161
G1 X107.627 Y119.108 E1.09008
G1 X107.261 Y119.073 E0.01153
G1 X105.762 Y118.777 E0.04791
G1 X105.405 Y118.669 E0.01171
G1 X105.027 Y118.512 E0.01283
G1 X104.7 Y118.338 E0.01162
G1 X103.454 Y117.505 E0.04699
G1 X103.167 Y117.27 E0.01162
G1 X102.879 Y116.982 E0.01278
G1 X102.644 Y116.695 E0.01162
G1 X101.811 Y115.449 E0.04699
G1 X101.637 Y115.123 E0.01162
G1 X101.481 Y114.746 E0.01278
G1 X101.373 Y114.391 E0.01162
G1 X101.079 Y112.911 E0.04732
G1 X101.042 Y112.543 E0.01161
G1 X101.041 Y94.023 E0.58067
G1 X101.592 Y92.692 E0.04516
M204 P1500
G1 X101.763 Y92.771 F10800
M204 P1000
G1 X101.934 Y92.85
G1 F1200
G1 X103. Y91.785 E0.04723
G1 X104.247 Y91.269 E0.04233
G1 X145.753 Y91.269 E1.3014
M73 P5 R30
M73 Q5 S30
G1 X147. Y91.785 E0.04233
G1 X148.066 Y92.85 E0.04723
G1 X148.582 Y94.098 E0.04233
G1 X148.582 Y112.422 E0.57454
G1 X148.574 Y112.588 E0.00522
G1 X148.556 Y112.773 E0.00581
G1 X148.531 Y112.937 E0.00523
G1 X148.261 Y114.3 E0.04355
G1 X148.164 Y114.619 E0.01045
G1 X148.022 Y114.961 E0.01162
G1 X147.865 Y115.255 E0.01046
G1 X147.053 Y116.471 E0.04583
G1 X146.841 Y116.728 E0.01046
G1 X146.579 Y116.99 E0.01162
G1 X146.321 Y117.202 E0.01045
G1 X145.106 Y118.014 E0.04583
G1 X144.812 Y118.171 E0.01046
G1 X144.47 Y118.313 E0.01162
G1 X144.151 Y118.41 E0.01045
