; generated by SuperSlicer 2.3.57 on 2022-09-02 at 14:03:13 UTC

; 

; external perimeters extrusion width = 0.45mm
; perimeters extrusion width = 0.45mm
; infill extrusion width = 0.45mm
; solid infill extrusion width = 0.45mm
; top infill extrusion width = 0.40mm
; first layer extrusion width = 0.42mm

; object:{"name":"Black - Linear Bearing Box Top (A)_2 v1","id":"Black - Linear Bearing Box Top (A)_2 v1.stl id:0 copy 0","object_center":[125.000000,105.000001,0.000000],"boundingbox_center":[125.000000,105.000001,6.930313],"boundingbox_size":[28.002441,27.999969,13.860626]}
; Total objects to print: 1
M486 T1
; plater:{"center":[125.000000,105.000001,0.000000],"boundingbox_center":[125.000000,105.000001,6.930313],"boundingbox_size":[28.002441,27.999969,13.860626]}

M73 P0 R46
M73 Q0 S47
;TYPE:Custom
M862.3 P "MK3S" ; printer model check
M862.1 P0.4 ; nozzle diameter check
M115 U3.10.0 ; tell printer latest fw version
G90 ; use absolute coordinates
M83 ; extruder relative mode
M104 S215 ; set extruder temp
M140 S60 ; set bed temp
M190 S60 ; wait for bed temp
M109 S215 ; wait for extruder temp
G28 W ; home all without mesh bed level
G80 ; mesh bed leveling
G1 Y-3.0 F1000.0 ; go outside print area
G92 E0.0
G1 X60.0 E9.0 F1000.0 ; intro line
G1 X100.0 E12.5 F1000.0 ; intro line
G92 E0.0
M221 S95

; Don't change E values below. Excessive value can damage the printer.
M907 E430 ; set extruder motor current
M107
G21 ; set units to millimeters
G90 ; use absolute coordinates
M83 ; use relative distances for extrusion
M900 K0.05 ; Filament gcode LA 1.5
M900 K30 ; Filament gcode LA 1.0
;LAYER_CHANGE
;Z:0.2
;HEIGHT:0.2
;BEFORE_LAYER_CHANGE
G92 E0.0
;0.2


G1 E-0.8 F2100
G1 Z0.4 F10800
;AFTER_LAYER_CHANGE
;0.2
G1 Z0.6
M204 P1500
G1 X110.327 Y89.965
G1 Z0.2
G1 E0.8 F2100
;TYPE:Skirt
;WIDTH:0.45
G1 F1200
G1 X110.022 Y90.426 E0.0187
G1 X109.842 Y90.948 E0.0187
G1 X108.8 Y97.253 E0.21634
G1 X108.798 Y113.101 E0.53644
G1 X108.879 Y113.603 E0.01722
G1 X110.198 Y118.007 E0.1556
G1 X110.858 Y119.151 E0.04471
G1 X111.735 Y120.05 E0.0425
G1 X112.392 Y120.503 E0.02701
G1 X113.098 Y120.842 E0.0265
G1 X113.793 Y121.059 E0.02464
G1 X114.896 Y121.201 E0.03767
G1 X136.059 Y121.203 E0.71633
G1 X137.247 Y121.05 E0.04057
G1 X138.11 Y120.754 E0.03086
G1 X139.168 Y120.127 E0.04164
G1 X140.05 Y119.263 E0.04181
G1 X140.501 Y118.608 E0.02691
G1 X140.842 Y117.9 E0.02658
G1 X141.134 Y116.822 E0.03782
G1 X141.2 Y116.092 E0.02482
G1 X141.2 Y91.294 E0.83936
G1 X141.114 Y90.782 E0.01759
G1 X140.912 Y90.307 E0.01746
G1 X140.126 Y89.411 E0.04034
G1 X139.425 Y88.957 E0.02826
G1 X138.603 Y88.796 E0.02838
G1 X112.309 Y88.798 E0.89001
G1 X111.778 Y88.886 E0.0182
G1 X111.282 Y89.101 E0.01833
G1 X110.922 Y89.365 E0.01512
G1 X110.369 Y89.922 E0.02655
; INIT printing object Black - Linear Bearing Box Top (A)_2 v1.stl id:0 copy 0
;WIPE_START
G1 F8640
M204 P1000
G1 X110.022 Y90.426 E-0.14114
G1 X109.842 Y90.948 E-0.12753
G1 X109.495 Y93.047 E-0.49133
;WIPE_END
G1 E-0.04 F2100
G1 Z0.6 F10800
; printing object Black - Linear Bearing Box Top (A)_2 v1.stl id:0 copy 0
M486 S0
M204 P1500
G1 X121.866 Y90.855
M204 P1000
G1 X133.364 Y91.787
G1 Z0.2
G1 E0.8 F2100
;TYPE:Internal perimeter
;WIDTH:0.42
G1 F1200
G1 X138.212 Y91.787 E0.15201
G1 X138.212 Y102.006 E0.3204
G1 X137.892 Y102.04 E0.01008
G1 X137.826 Y101.738 E0.00972
G1 X137.656 Y101.334 E0.01373
G1 X137.418 Y100.967 E0.01371
G1 X137.118 Y100.648 E0.01372
G1 X136.766 Y100.389 E0.01373
G1 X136.373 Y100.196 E0.01371
G1 X135.953 Y100.076 E0.01371
G1 X135.517 Y100.034 E0.01372
G1 X135.081 Y100.07 E0.01372
G1 X134.659 Y100.183 E0.01371
G1 X134.263 Y100.37 E0.01372
G1 X133.907 Y100.624 E0.01372
G1 X133.366 Y101.182 E0.02438
G1 X133.364 Y91.847 E0.2927
;WIPE_START
G1 F8640
G1 X136.655 Y91.806 E-0.76
;WIPE_END
G1 E-0.04 F2100
G1 Z0.6 F10800
M204 P1500
G1 X125.294 Y101.298
M204 P1000
G1 X117.224 Y110.748
G1 Z0.2
G1 E0.8 F2100
G1 F1200
G1 X116.888 Y110.468 E0.01372
G1 X116.507 Y110.252 E0.01372
G1 X116.094 Y110.108 E0.01372
G1 X115.663 Y110.039 E0.01371
G1 X115.225 Y110.049 E0.01373
G1 X114.797 Y110.137 E0.01371
G1 X114.39 Y110.3 E0.01372
G1 X114.02 Y110.533 E0.01372
G1 X113.697 Y110.828 E0.01372
G1 X113.432 Y111.177 E0.01372
G1 X113.234 Y111.567 E0.01372
G1 X113.108 Y111.986 E0.01371
G1 X113.059 Y112.42 E0.01371
G1 X113.089 Y112.856 E0.0137
G1 X113.196 Y113.28 E0.01372
G1 X113.376 Y113.678 E0.0137
G1 X113.626 Y114.039 E0.01376
G1 X113.936 Y114.348 E0.01372
G1 X114.295 Y114.597 E0.0137
G1 X114.694 Y114.778 E0.01371
G1 X115.118 Y114.884 E0.01373
G1 X115.554 Y114.914 E0.01371
G1 X115.989 Y114.865 E0.01371
G1 X116.409 Y114.739 E0.01374
G1 X116.798 Y114.54 E0.01371
G1 X117.146 Y114.275 E0.0137
G1 X117.441 Y113.952 E0.01371
G1 X117.673 Y113.581 E0.01373
G1 X117.837 Y113.175 E0.01372
G1 X117.924 Y112.747 E0.01372
G1 X117.934 Y112.309 E0.01371
G1 X117.865 Y111.877 E0.01372
G1 X117.72 Y111.464 E0.01371
G1 X117.504 Y111.084 E0.01371
G1 X117.263 Y110.794 E0.01183
M204 P1500
G1 X117.118 Y110.915 F10800
M204 P1000
G1 X116.973 Y111.036
;TYPE:External perimeter
G1 F1200
G1 X116.956 Y111.016 E0.00082
G1 X116.673 Y110.779 E0.01159
G1 X116.351 Y110.597 E0.01159
G1 X116.002 Y110.475 E0.01159
G1 X115.637 Y110.417 E0.01158
G1 X115.267 Y110.426 E0.0116
G1 X114.906 Y110.5 E0.01158
G1 X114.562 Y110.637 E0.0116
G1 X114.249 Y110.834 E0.01159
G1 X113.977 Y111.084 E0.01159
G1 X113.753 Y111.378 E0.01159
G1 X113.585 Y111.707 E0.01159
G1 X113.479 Y112.061 E0.01159
G1 X113.438 Y112.429 E0.01159
G1 X113.463 Y112.797 E0.01157
G1 X113.553 Y113.155 E0.0116
G1 X113.706 Y113.492 E0.01157
G1 X113.917 Y113.796 E0.01162
G1 X114.178 Y114.057 E0.0116
G1 X114.482 Y114.268 E0.01158
G1 X114.819 Y114.42 E0.01158
G1 X115.177 Y114.511 E0.0116
G1 X115.546 Y114.535 E0.01158
G1 X115.913 Y114.494 E0.01159
G1 X116.267 Y114.387 E0.0116
G1 X116.596 Y114.219 E0.01158
G1 X116.89 Y113.996 E0.01158
G1 X117.139 Y113.723 E0.01158
G1 X117.336 Y113.41 E0.0116
G1 X117.474 Y113.066 E0.01159
G1 X117.548 Y112.704 E0.01159
G1 X117.556 Y112.335 E0.01159
G1 X117.498 Y111.97 E0.01159
G1 X117.376 Y111.621 E0.01159
G1 X117.193 Y111.3 E0.01159
G1 X117.012 Y111.082 E0.00889
G1 X116.982 Y111.011 F10800
;WIPE_START
G1 F8640
G1 X116.956 Y111.016 E-0.01986
G1 X116.673 Y110.779 E-0.08536
G1 X116.351 Y110.597 E-0.08536
G1 X116.002 Y110.475 E-0.08536
G1 X115.637 Y110.417 E-0.08529
G1 X115.267 Y110.426 E-0.08539
G1 X114.906 Y110.5 E-0.08527
G1 X114.562 Y110.637 E-0.08541
G1 X114.249 Y110.834 E-0.08537
G1 X114.066 Y111.002 E-0.05732
;WIPE_END
G1 E-0.04 F2100
G1 Z0.6 F10800
M204 P1500
G1 X118.897 Y109.993
M204 P1000
G1 X120.782 Y108.905
G1 Z0.2
G1 E0.8 F2100
;TYPE:Internal perimeter
G1 F1200
G1 X122.446 Y111.787 E0.10435
G1 X128.552 Y111.787 E0.19143
G1 X131.604 Y106.5 E0.19143
G1 X129.238 Y102.409 E0.14817
G1 X128.773 Y101.716 E0.02618
G1 X129.163 Y101.732 E0.01224
G1 X133.176 Y101.736 E0.12584
G1 X133.083 Y102.128 E0.01266
G1 X133.061 Y102.565 E0.01371
G1 X133.115 Y102.999 E0.0137
G1 X133.248 Y103.416 E0.01373
G1 X133.452 Y103.804 E0.01373
G1 X133.723 Y104.148 E0.01372
G1 X134.05 Y104.438 E0.0137
G1 X134.424 Y104.665 E0.01372
G1 X134.832 Y104.822 E0.01371
G1 X135.262 Y104.903 E0.01372
G1 X135.699 Y104.906 E0.01372
G1 X136.131 Y104.831 E0.01372
G1 X136.542 Y104.681 E0.01372
G1 X136.919 Y104.459 E0.01372
G1 X137.25 Y104.174 E0.0137
G1 X137.526 Y103.834 E0.01372
G1 X137.736 Y103.45 E0.01374
G1 X137.911 Y102.924 E0.01736
G1 X138.212 Y102.973 E0.00956
G1 X138.212 Y111.999 E0.28299
G1 X137.903 Y112.042 E0.00977
G1 X137.777 Y111.599 E0.01442
G1 X137.585 Y111.207 E0.0137
G1 X137.325 Y110.855 E0.01371
G1 X137.006 Y110.555 E0.01374
G1 X136.639 Y110.317 E0.01372
G1 X136.236 Y110.148 E0.0137
G1 X135.808 Y110.053 E0.01373
G1 X135.372 Y110.037 E0.01371
G1 X134.938 Y110.099 E0.01372
G1 X134.523 Y110.237 E0.01373
G1 X134.14 Y110.448 E0.01371
G1 X133.799 Y110.723 E0.01372
G1 X133.514 Y111.055 E0.01372
G1 X133.293 Y111.432 E0.01371
G1 X133.141 Y111.843 E0.01374
G1 X133.067 Y112.274 E0.01371
G1 X133.07 Y112.711 E0.01371
G1 X133.152 Y113.141 E0.01373
G1 X133.308 Y113.55 E0.01372
G1 X133.536 Y113.923 E0.01372
G1 X133.826 Y114.25 E0.0137
G1 X134.17 Y114.521 E0.01372
G1 X134.557 Y114.725 E0.01372
G1 X134.974 Y114.857 E0.01371
G1 X135.408 Y114.913 E0.01372
G1 X135.845 Y114.89 E0.01372
G1 X136.271 Y114.789 E0.01373
G1 X136.672 Y114.614 E0.01372
G1 X137.035 Y114.371 E0.01371
G1 X137.349 Y114.066 E0.01373
G1 X137.603 Y113.71 E0.01371
G1 X137.79 Y113.315 E0.01371
G1 X137.9 Y112.904 E0.01334
G1 X138.212 Y112.945 E0.00985
G1 X138.212 Y115.974 E0.09499
G1 X138.191 Y116.289 E0.00988
G1 X138.135 Y116.572 E0.00907
G1 X138.042 Y116.846 E0.00906
G1 X137.914 Y117.106 E0.00907
G1 X137.753 Y117.346 E0.00907
G1 X137.563 Y117.564 E0.00907
G1 X137.345 Y117.754 E0.00906
G1 X137.104 Y117.915 E0.00908
G1 X136.845 Y118.043 E0.00906
G1 X136.572 Y118.136 E0.00906
G1 X136.288 Y118.192 E0.00908
G1 X135.973 Y118.213 E0.00988
G1 X115.025 Y118.213 E0.65682
G1 X114.71 Y118.192 E0.00988
G1 X114.427 Y118.136 E0.00907
G1 X114.153 Y118.043 E0.00907
G1 X113.893 Y117.915 E0.00907
G1 X113.653 Y117.754 E0.00906
G1 X113.435 Y117.564 E0.00907
G1 X113.245 Y117.346 E0.00907
G1 X113.084 Y117.106 E0.00907
G1 X112.956 Y116.846 E0.00907
G1 X112.863 Y116.572 E0.00906
G1 X112.807 Y116.288 E0.00908
G1 X112.786 Y115.974 E0.00988
G1 X112.786 Y113.674 E0.07212
G1 X111.786 Y112.674 E0.04434
G1 X111.786 Y97.726 E0.46868
G1 X112.786 Y96.726 E0.04434
G1 X112.786 Y91.787 E0.15486
G1 X117.691 Y91.787 E0.15379
G1 X117.691 Y101.277 E0.29753
G1 X117.159 Y100.686 E0.02491
G1 X116.813 Y100.418 E0.01372
G1 X116.425 Y100.216 E0.01372
G1 X116.007 Y100.087 E0.01372
G1 X115.573 Y100.035 E0.01371
G1 X115.136 Y100.061 E0.01372
G1 X114.711 Y100.165 E0.01373
G1 X114.311 Y100.343 E0.01371
G1 X113.949 Y100.589 E0.01373
G1 X113.638 Y100.896 E0.01371
G1 X113.386 Y101.253 E0.0137
G1 X113.202 Y101.651 E0.01373
G1 X113.092 Y102.074 E0.01373
G1 X113.059 Y102.51 E0.0137
G1 X113.105 Y102.945 E0.01371
G1 X113.227 Y103.365 E0.01372
G1 X113.423 Y103.756 E0.01371
G1 X113.685 Y104.106 E0.01371
G1 X114.006 Y104.404 E0.01373
G1 X114.375 Y104.64 E0.01372
G1 X114.779 Y104.806 E0.01371
G1 X115.207 Y104.897 E0.01373
G1 X115.645 Y104.91 E0.01372
G1 X116.077 Y104.845 E0.01372
G1 X116.491 Y104.704 E0.01371
G1 X116.873 Y104.491 E0.01371
G1 X117.211 Y104.213 E0.01371
G1 X117.494 Y103.879 E0.01372
G1 X117.713 Y103.5 E0.01373
G1 X117.861 Y103.088 E0.01372
G1 X117.932 Y102.657 E0.01371
G1 X117.926 Y102.22 E0.01371
G1 X117.831 Y101.736 E0.01545
G1 X122.217 Y101.729 E0.13752
G1 X121.76 Y102.409 E0.02569
G1 X119.394 Y106.5 E0.14817
G1 X120.752 Y108.853 E0.0852
M204 P1500
G1 X120.916 Y108.759 F10800
M204 P1000
G1 X121.079 Y108.664
;TYPE:External perimeter
G1 F1200
G1 X122.664 Y111.41 E0.0994
G1 X128.334 Y111.41 E0.17778
G1 X131.169 Y106.5 E0.17777
G1 X128.918 Y102.609 E0.14094
G1 X128.283 Y101.663 E0.03573
G1 X127.625 Y101.663 E0.02063
G1 X122.715 Y101.663 E0.15394
G1 X122.08 Y102.609 E0.03573
G1 X119.829 Y106.5 E0.14094
G1 X121.049 Y108.612 E0.07648
G1 X120.879 Y109.011 F10800
;WIPE_START
G1 F8640
G1 X122.664 Y111.41 E-0.74589
M73 P1 R46
M73 Q1 S47
G1 X122.725 Y111.41 E-0.01411
;WIPE_END
G1 E-0.04 F2100
G1 Z0.6 F10800
M204 P1500
G1 X127.323 Y105.941
M204 P1000
G1 X133.597 Y103.27
G1 Z0.2
G1 E0.8 F2100
G1 F1200
G1 X133.77 Y103.597 E0.0116
G1 X133.999 Y103.888 E0.0116
G1 X134.275 Y104.133 E0.01158
G1 X134.591 Y104.325 E0.01159
G1 X134.936 Y104.457 E0.01158
G1 X135.299 Y104.526 E0.01159
G1 X135.668 Y104.529 E0.01159
G1 X136.033 Y104.466 E0.01159
G1 X136.38 Y104.338 E0.01159
G1 X136.698 Y104.151 E0.01159
G1 X136.978 Y103.91 E0.01158
G1 X137.211 Y103.623 E0.01159
G1 X137.389 Y103.298 E0.0116
G1 X137.505 Y102.948 E0.01158
G1 X137.558 Y102.582 E0.01159
G1 X137.544 Y102.213 E0.01159
G1 X137.465 Y101.852 E0.01158
G1 X137.322 Y101.511 E0.01159
G1 X137.121 Y101.201 E0.01159
G1 X136.867 Y100.932 E0.01159
G1 X136.569 Y100.712 E0.0116
G1 X136.238 Y100.549 E0.01159
G1 X135.883 Y100.448 E0.01158
G1 X135.515 Y100.412 E0.01159
G1 X135.146 Y100.443 E0.01159
G1 X134.789 Y100.538 E0.01159
G1 X134.455 Y100.696 E0.01159
G1 X134.154 Y100.911 E0.01159
G1 X133.896 Y101.177 E0.0116
G1 X133.691 Y101.484 E0.01159
G1 X133.543 Y101.822 E0.01157
G1 X133.458 Y102.182 E0.0116
G1 X133.439 Y102.551 E0.01159
G1 X133.485 Y102.918 E0.01158
G1 X133.579 Y103.213 E0.00972
G1 X133.382 Y103.571 F10800
;WIPE_START
G1 F8640
G1 X133.77 Y103.597 E-0.09906
G1 X133.999 Y103.888 E-0.0854
G1 X134.275 Y104.133 E-0.08528
G1 X134.591 Y104.325 E-0.08537
G1 X134.936 Y104.457 E-0.08527
G1 X135.299 Y104.526 E-0.08533
G1 X135.668 Y104.529 E-0.08538
G1 X136.033 Y104.466 E-0.08536
G1 X136.291 Y104.371 E-0.06355
;WIPE_END
G1 E-0.04 F2100
G1 Z0.6 F10800
M204 P1500
G1 X134.302 Y106.84
M204 P1000
G1 X135.025 Y110.468
G1 Z0.2
G1 E0.8 F2100
G1 F1200
G1 X134.674 Y110.584 E0.0116
G1 X134.35 Y110.762 E0.01158
G1 X134.063 Y110.995 E0.01159
G1 X133.822 Y111.275 E0.01159
G1 X133.635 Y111.593 E0.01159
G1 X133.507 Y111.941 E0.0116
G1 X133.444 Y112.305 E0.01159
G1 X133.447 Y112.674 E0.01158
G1 X133.516 Y113.038 E0.0116
G1 X133.648 Y113.383 E0.01159
G1 X133.84 Y113.699 E0.01159
G1 X134.086 Y113.975 E0.01158
G1 X134.376 Y114.203 E0.01159
G1 X134.703 Y114.376 E0.0116
G1 X135.055 Y114.488 E0.01158
G1 X135.422 Y114.534 E0.01159
G1 X135.791 Y114.515 E0.01159
G1 X136.151 Y114.43 E0.0116
G1 X136.49 Y114.282 E0.01159
G1 X136.796 Y114.076 E0.01159
G1 X137.062 Y113.819 E0.01159
G1 X137.277 Y113.518 E0.01159
G1 X137.435 Y113.184 E0.01159
G1 X137.53 Y112.827 E0.01159
G1 X137.561 Y112.459 E0.01159
G1 X137.525 Y112.091 E0.0116
G1 X137.424 Y111.735 E0.01159
G1 X137.261 Y111.404 E0.01158
G1 X137.042 Y111.106 E0.01158
G1 X136.772 Y110.853 E0.0116
G1 X136.462 Y110.651 E0.0116
G1 X136.122 Y110.509 E0.01157
G1 X135.76 Y110.429 E0.0116
G1 X135.391 Y110.415 E0.01158
G1 X135.085 Y110.459 E0.00971
G1 X134.764 Y110.206 F10800
;WIPE_START
G1 F8640
G1 X134.674 Y110.584 E-0.09906
G1 X134.35 Y110.762 E-0.08531
G1 X134.063 Y110.995 E-0.08536
G1 X133.822 Y111.275 E-0.08533
G1 X133.635 Y111.593 E-0.08532
G1 X133.507 Y111.941 E-0.08543
G1 X133.444 Y112.305 E-0.08533
G1 X133.447 Y112.674 E-0.08531
G1 X133.498 Y112.945 E-0.06355
;WIPE_END
G1 E-0.04 F2100
G1 Z0.6 F10800
M204 P1500
G1 X126.227 Y106.9
M204 P1000
G1 X117.37 Y103.341
G1 Z0.2
G1 E0.8 F2100
G1 F1200
G1 X117.494 Y102.993 E0.01159
G1 X117.555 Y102.629 E0.01158
G1 X117.549 Y102.259 E0.01159
G1 X117.478 Y101.897 E0.01159
G1 X117.343 Y101.552 E0.01159
G1 X117.149 Y101.238 E0.01159
G1 X116.902 Y100.963 E0.01158
G1 X116.609 Y100.737 E0.01159
G1 X116.281 Y100.567 E0.01159
G1 X115.928 Y100.458 E0.01159
G1 X115.561 Y100.413 E0.01158
G1 X115.192 Y100.435 E0.01159
G1 X114.833 Y100.523 E0.0116
G1 X114.496 Y100.673 E0.01158
G1 X114.19 Y100.881 E0.0116
G1 X113.927 Y101.141 E0.01158
G1 X113.714 Y101.443 E0.01158
G1 X113.558 Y101.778 E0.0116
G1 X113.465 Y102.136 E0.01159
G1 X113.438 Y102.505 E0.01158
G1 X113.476 Y102.872 E0.01159
G1 X113.58 Y103.227 E0.01159
G1 X113.745 Y103.557 E0.01159
G1 X113.966 Y103.853 E0.01158
G1 X114.237 Y104.105 E0.01159
G1 X114.549 Y104.304 E0.01159
G1 X114.891 Y104.444 E0.01158
G1 X115.252 Y104.521 E0.0116
G1 X115.622 Y104.532 E0.01159
G1 X115.988 Y104.477 E0.01159
G1 X116.337 Y104.358 E0.01158
G1 X116.66 Y104.178 E0.01159
G1 X116.945 Y103.943 E0.01159
G1 X117.185 Y103.661 E0.01159
G1 X117.34 Y103.393 E0.00971
G1 X117.737 Y103.297 F10800
;WIPE_START
G1 F8640
G1 X117.494 Y102.993 E-0.09902
G1 X117.555 Y102.629 E-0.08531
G1 X117.549 Y102.259 E-0.08532
G1 X117.478 Y101.897 E-0.08532
G1 X117.343 Y101.552 E-0.08537
G1 X117.149 Y101.238 E-0.08538
G1 X116.902 Y100.963 E-0.08527
G1 X116.609 Y100.737 E-0.08536
G1 X116.365 Y100.61 E-0.06366
;WIPE_END
G1 E-0.04 F2100
G1 Z0.6 F10800
M204 P1500
G1 X117.704 Y102.376
M204 P1000
G1 X118.068 Y101.359
G1 Z0.2
M73 Q1 S46
G1 E0.8 F2100
G1 F1200
G1 X121.889 Y101.352 E0.1198
G1 X122.861 Y101.286 E0.03056
G1 X127.716 Y101.286 E0.15221
G1 X128.192 Y101.288 E0.01493
G1 X128.674 Y101.335 E0.0152
G1 X129.17 Y101.355 E0.01557
G1 X132.988 Y101.359 E0.11971
G1 X132.986 Y91.571 E0.30688
G1 X133.148 Y91.41 E0.00714
