; generated by SuperSlicer 2.3.57 on 2022-03-15 at 15:34:37 UTC

; 

; external perimeters extrusion width = 0.45mm
; perimeters extrusion width = 0.45mm
; infill extrusion width = 0.45mm
; solid infill extrusion width = 0.45mm
; top infill extrusion width = 0.40mm
; first layer extrusion width = 0.42mm

; object:{"name":"Black - E3D V6 - Face Clamp","id":"Black - E3D V6 - Face Clamp.stl id:0 copy 0","object_center":[113.218777,105.000000,0.000000],"boundingbox_center":[113.218777,105.000000,7.100000],"boundingbox_size":[30.100006,9.799988,14.200000]}
; object:{"name":"Black - E3D V6 - Face","id":"Black - E3D V6 - Face.stl id:1 copy 0","object_center":[140.269121,118.125000,0.000000],"boundingbox_center":[140.269121,118.125000,21.550000],"boundingbox_size":[12.000694,40.000004,43.100001]}
; object:{"name":"Black - E3D V6 - Support","id":"Black - E3D V6 - Support.stl id:2 copy 0","object_center":[131.831211,81.999998,0.000000],"boundingbox_center":[131.831211,81.999998,4.500000],"boundingbox_size":[40.000031,20.250000,9.000000]}
; Total objects to print: 3
M486 T3
; plater:{"center":[125.000000,105.000000,0.000000],"boundingbox_center":[125.000000,105.000000,21.550000],"boundingbox_size":[53.662452,66.250004,43.100001]}

M73 P0 R116
M73 Q0 S117
;TYPE:Custom
M862.3 P "MK3S" ; printer model check
M862.1 P0.4 ; nozzle diameter check
M115 U3.10.0 ; tell printer latest fw version
G90 ; use absolute coordinates
M83 ; extruder relative mode
M104 S255 ; set extruder temp
M140 S100 ; set bed temp
M190 S100 ; wait for bed temp
M109 S255 ; wait for extruder temp
G28 W ; home all without mesh bed level
G80 ; mesh bed leveling
G1 Y-3.0 F1000.0 ; go outside print area
G92 E0.0
G1 X60.0 E9.0 F1000.0 ; intro line
G1 X100.0 E12.5 F1000.0 ; intro line
G92 E0.0
M221 S95

; Don't change E values below. Excessive value can damage the printer.
M907 E430 ; set extruder motor current
M107
G21 ; set units to millimeters
G90 ; use absolute coordinates
M83 ; use relative distances for extrusion
M900 K0.04 ; Filament gcode LA 1.5
M900 K20 ; Filament gcode LA 1.0
;LAYER_CHANGE
;Z:0.2
;HEIGHT:0.2
;BEFORE_LAYER_CHANGE
G92 E0.0
;0.2


G1 E-0.8 F2100
G1 Z0.4 F10800
;AFTER_LAYER_CHANGE
;0.2
G1 Z0.6
M204 P1500
G1 X100.236 Y60.797
G1 Z0.2
G1 E0.8 F2100
;TYPE:Skirt
;WIDTH:0.45
G1 F1200
G1 X99.979 Y61.273 E0.01833
G1 X89.101 Y89.906 E1.03679
G1 X89.066 Y119.735 E1.00969
M73 P0 R115
G1 X89.207 Y120.477 E0.02557
G1 X89.591 Y121.128 E0.02557
G1 X90.194 Y121.624 E0.02642
G1 X132.649 Y145.215 E1.644
G1 X133.365 Y145.338 E0.02459
G1 X156.105 Y145.338 E0.76974
G1 X156.847 Y145.196 E0.02557
G1 X157.495 Y144.815 E0.02545
G1 X158.009 Y144.18 E0.02765
G1 X158.256 Y143.402 E0.02765
G1 X163.832 Y92.781 E1.7238
G1 X163.83 Y61.929 E1.04431
G1 X163.623 Y61.132 E0.02789
G1 X163.137 Y60.466 E0.02789
G1 X162.444 Y60.027 E0.02777
G1 X161.635 Y59.871 E0.02789
G1 X102.013 Y59.872 E2.01813
G1 X101.263 Y60.01 E0.02581
G1 X100.605 Y60.395 E0.02581
G1 X100.277 Y60.752 E0.01642
;WIPE_START
G1 F8640
M204 P1000
G1 X99.979 Y61.273 E-0.13848
G1 X99.023 Y63.789 E-0.62152
;WIPE_END
G1 E-0.04 F2100
G1 Z0.6 F10800
M204 P1500
G1 X102.647 Y63.122
M204 P1000
G1 X105.016 Y65.492
G1 Z0.2
G1 E0.8 F2100
;WIDTH:0.42
G1 F1200
G1 X106.613 Y63.895 E0.07081
G1 X110.078 Y62.459 E0.11759
G1 X123.929 Y62.459 E0.43428
G1 X128.091 Y64.682 E0.14796
G1 X130.828 Y68.771 E0.15427
G1 X131.296 Y73.467 E0.14796
G1 X130.208 Y76.104 E0.08945
G1 X130.155 Y76.287 E0.00595
G1 X130.125 Y76.455 E0.00536
G1 X130.111 Y76.65 E0.00614
G1 X130.173 Y78.284 E0.05127
G1 X129.958 Y79.604 E0.04193
G1 X130.202 Y79.814 E0.0101
G1 X130.465 Y79.992 E0.00997
G1 X130.748 Y80.136 E0.00995
G1 X131.037 Y80.244 E0.00968
G1 X131.376 Y80.324 E0.01091
G1 X131.682 Y80.36 E0.00967
G1 X131.956 Y80.361 E0.00859
G1 X132.317 Y80.319 E0.01139
G1 X132.619 Y80.246 E0.00975
G1 X132.905 Y80.14 E0.00957
G1 X133.212 Y79.982 E0.01084
G1 X133.459 Y79.816 E0.00932
G1 X133.705 Y79.604 E0.01017
G1 X133.489 Y78.284 E0.04193
G1 X133.551 Y76.65 E0.05126
G1 X133.538 Y76.465 E0.00582
G1 X133.503 Y76.27 E0.00622
G1 X133.456 Y76.108 E0.00529
G1 X132.367 Y73.464 E0.08964
G1 X132.835 Y68.77 E0.14793
G1 X135.572 Y64.682 E0.15425
G1 X139.734 Y62.459 E0.14793
G1 X153.584 Y62.459 E0.43427
G1 X157.049 Y63.895 E0.11759
G1 X159.812 Y66.657 E0.12248
G1 X161.247 Y70.122 E0.11759
G1 X161.247 Y84.628 E0.45484
G1 X159.812 Y88.093 E0.11759
G1 X157.049 Y90.855 E0.12248
G1 X153.584 Y92.291 E0.11759
G1 X152.216 Y92.291 E0.04289
G1 X150.823 Y94.66 E0.08619
G1 X151.487 Y94.935 E0.02255
G1 X154.249 Y97.697 E0.12249
G1 X155.685 Y101.162 E0.11759
G1 X155.684 Y103.389 E0.06983
G1 X155.684 Y111.701 E0.2606
G1 X154.375 Y115.028 E0.11212
G1 X151.838 Y117.754 E0.11677
G1 X151.062 Y118.125 E0.02696
G1 X151.837 Y118.496 E0.02696
G1 X154.375 Y121.222 E0.11677
G1 X155.684 Y124.549 E0.11212
G1 X155.684 Y135.088 E0.33044
G1 X154.249 Y138.553 E0.11759
G1 X151.487 Y141.315 E0.12248
G1 X148.022 Y142.75 E0.11759
G1 X138.053 Y142.75 E0.31258
G1 X135.579 Y142.064 E0.08051
G1 X133.289 Y140.686 E0.08379
G1 X131.522 Y138.823 E0.08051
G1 X125.424 Y127.333 E0.40785
G1 X124.866 Y125.095 E0.07233
G1 X124.86 Y119.316 E0.18121
G1 X99.316 Y119.316 E0.80093
G1 X95.851 Y117.88 E0.11759
G1 X93.088 Y115.118 E0.12248
G1 X91.653 Y111.653 E0.11759
G1 X91.653 Y98.347 E0.41722
G1 X93.088 Y94.882 E0.11759
G1 X95.851 Y92.12 E0.12248
G1 X99.316 Y90.684 E0.11759
G1 X106.442 Y90.684 E0.22345
G1 X103.851 Y88.093 E0.11491
G1 X102.416 Y84.628 E0.11759
G1 X102.416 Y70.122 E0.45484
G1 X103.851 Y66.657 E0.11759
G1 X104.974 Y65.534 E0.04979
M204 P1500
G1 X105.107 Y65.667 F10800
M204 P1000
G1 X105.24 Y65.801
G1 F1200
G1 X106.827 Y64.214 E0.07034
G1 X110.153 Y62.837 E0.11288
G1 X123.834 Y62.837 E0.42897
G1 X127.83 Y64.971 E0.14204
G1 X130.462 Y68.903 E0.14835
G1 X130.911 Y73.41 E0.14204
G1 X129.852 Y75.979 E0.08713
G1 X129.787 Y76.201 E0.00722
G1 X129.75 Y76.408 E0.00662
G1 X129.734 Y76.644 E0.0074
G1 X129.795 Y78.26 E0.05072
G1 X129.556 Y79.724 E0.04649
G1 X129.698 Y79.878 E0.00658
G1 X129.973 Y80.115 E0.01136
G1 X130.274 Y80.317 E0.01137
G1 X130.596 Y80.482 E0.01135
G1 X130.927 Y80.605 E0.01109
G1 X131.309 Y80.696 E0.01232
G1 X131.66 Y80.737 E0.01105
G1 X131.977 Y80.738 E0.00996
G1 X132.383 Y80.691 E0.0128
G1 X132.729 Y80.607 E0.01117
G1 X133.058 Y80.486 E0.01099
G1 X133.405 Y80.307 E0.01224
G1 X133.688 Y80.116 E0.01071
G1 X133.965 Y79.878 E0.01144
G1 X134.106 Y79.724 E0.00658
G1 X133.867 Y78.26 E0.04649
G1 X133.929 Y76.644 E0.05071
G1 X133.913 Y76.418 E0.0071
G1 X133.871 Y76.183 E0.00749
G1 X133.812 Y75.983 E0.00655
G1 X132.751 Y73.408 E0.08731
G1 X133.201 Y68.901 E0.14202
G1 X135.833 Y64.97 E0.14833
G1 X139.829 Y62.837 E0.14202
G1 X153.509 Y62.837 E0.42896
G1 X156.836 Y64.214 E0.11288
G1 X159.492 Y66.871 E0.11778
G1 X160.87 Y70.197 E0.11288
G1 X160.87 Y84.553 E0.45014
G1 X159.492 Y87.879 E0.11288
G1 X156.836 Y90.536 E0.11778
G1 X153.509 Y91.913 E0.11288
G1 X152.001 Y91.913 E0.04731
G1 X150.278 Y94.842 E0.10654
G1 X151.273 Y95.255 E0.03379
G1 X153.93 Y97.911 E0.11778
G1 X155.307 Y101.237 E0.11288
G1 X155.307 Y103.389 E0.06748
G1 X155.307 Y111.629 E0.25836
G1 X154.051 Y114.824 E0.10763
G1 X151.61 Y117.445 E0.11228
G1 X150.188 Y118.125 E0.04943
G1 X151.61 Y118.805 E0.04943
G1 X154.051 Y121.426 E0.11228
G1 X155.307 Y124.621 E0.10763
G1 X155.307 Y135.013 E0.32584
G1 X153.93 Y138.339 E0.11288
G1 X151.273 Y140.995 E0.11778
G1 X147.947 Y142.373 E0.11288
G1 X138.104 Y142.373 E0.30861
G1 X135.729 Y141.714 E0.07729
G1 X133.527 Y140.39 E0.08057
M73 Q0 S116
G1 X131.831 Y138.601 E0.07729
G1 X126.039 Y127.687 E0.3874
G1 X125.643 Y126.655 E0.03466
G1 X125.365 Y125.538 E0.03611
G1 X125.231 Y124.44 E0.03466
G1 X125.231 Y118.938 E0.17251
G1 X99.391 Y118.938 E0.81019
G1 X96.064 Y117.561 E0.11288
G1 X93.408 Y114.904 E0.11778
G1 X92.03 Y111.578 E0.11288
G1 X92.03 Y98.422 E0.41251
G1 X93.408 Y95.096 E0.11288
G1 X96.064 Y92.439 E0.11778
G1 X99.391 Y91.062 E0.11288
G1 X106.733 Y91.062 E0.23021
G1 X109.94 Y92.33 E0.10813
G1 X112.565 Y94.79 E0.11281
G1 X113.219 Y96.176 E0.04804
G1 X113.65 Y95.263 E0.03166
G1 X113.607 Y95.221 E0.00187
G1 X111.662 Y91.913 E0.12032
G1 X110.153 Y91.913 E0.0473
G1 X106.827 Y90.536 E0.11288
G1 X104.171 Y87.879 E0.11778
G1 X102.793 Y84.553 E0.11288
G1 X102.793 Y70.197 E0.45014
G1 X104.171 Y66.871 E0.11288
G1 X105.198 Y65.843 E0.04556
M204 P1500
G1 X105.331 Y65.976 F10800
M204 P1000
G1 X105.465 Y66.11
G1 F1200
G1 X107.04 Y64.534 E0.06987
G1 X110.228 Y63.214 E0.10818
G1 X123.74 Y63.214 E0.42366
G1 X127.569 Y65.259 E0.13612
G1 X130.096 Y69.034 E0.14243
G1 X130.526 Y73.354 E0.13612
G1 X129.495 Y75.855 E0.08481
G1 X129.419 Y76.115 E0.0085
G1 X129.375 Y76.362 E0.00788
G1 X129.356 Y76.638 E0.00867
G1 X129.417 Y78.237 E0.05017
G1 X129.155 Y79.842 E0.051
G1 X129.435 Y80.15 E0.01305
G1 X129.744 Y80.415 E0.01276
G1 X130.082 Y80.642 E0.01277
G1 X130.444 Y80.828 E0.01276
G1 X130.818 Y80.967 E0.01251
G1 X131.243 Y81.068 E0.01373
G1 X131.637 Y81.115 E0.01244
G1 X131.999 Y81.115 E0.01133
G1 X132.449 Y81.063 E0.0142
G1 X132.839 Y80.969 E0.0126
G1 X133.21 Y80.831 E0.0124
G1 X133.597 Y80.632 E0.01364
G1 X133.917 Y80.416 E0.0121
G1 X134.227 Y80.15 E0.01283
G1 X134.508 Y79.841 E0.01307
G1 X134.245 Y78.237 E0.05097
G1 X134.306 Y76.638 E0.05017
G1 X134.288 Y76.372 E0.00838
G1 X134.238 Y76.097 E0.00875
G1 X134.168 Y75.858 E0.00781
G1 X133.136 Y73.352 E0.08499
G1 X133.567 Y69.032 E0.1361
G1 X136.094 Y65.258 E0.14241
G1 X139.923 Y63.214 E0.1361
G1 X153.434 Y63.214 E0.42365
G1 X156.622 Y64.534 E0.10818
G1 X159.172 Y67.084 E0.11308
G1 X160.493 Y70.272 E0.10818
G1 X160.493 Y84.478 E0.44543
G1 X159.172 Y87.666 E0.10818
G1 X156.622 Y90.216 E0.11308
G1 X153.434 Y91.536 E0.10818
G1 X151.785 Y91.536 E0.05172
G1 X149.755 Y94.988 E0.12554
G1 X149.722 Y95.02 E0.00146
G1 X151.06 Y95.574 E0.04541
G1 X153.61 Y98.125 E0.11308
G1 X154.93 Y101.312 E0.10818
G1 X154.93 Y103.389 E0.06513
G1 X154.93 Y111.558 E0.25612
G1 X153.726 Y114.619 E0.10315
G1 X151.383 Y117.135 E0.1078
G1 X149.314 Y118.125 E0.0719
G1 X151.383 Y119.115 E0.0719
G1 X153.726 Y121.631 E0.1078
G1 X154.93 Y124.692 E0.10315
G1 X154.93 Y134.938 E0.32125
G1 X153.61 Y138.126 E0.10818
G1 X151.06 Y140.676 E0.11308
G1 X147.872 Y141.996 E0.10818
G1 X138.156 Y141.996 E0.30465
G1 X135.88 Y141.364 E0.07407
G1 X133.765 Y140.093 E0.07735
G1 X132.14 Y138.379 E0.07407
G1 X126.383 Y127.531 E0.38507
G1 X126.004 Y126.542 E0.03321
G1 X125.737 Y125.469 E0.03466
G1 X125.608 Y124.417 E0.03322
G1 X125.608 Y118.561 E0.18361
G1 X99.466 Y118.561 E0.81967
G1 X96.278 Y117.241 E0.10818
G1 X93.728 Y114.691 E0.11308
G1 X92.407 Y111.503 E0.10818
G1 X92.407 Y98.497 E0.40781
G1 X93.728 Y95.309 E0.10818
G1 X96.278 Y92.759 E0.11308
G1 X99.466 Y91.439 E0.10818
G1 X106.661 Y91.439 E0.2256
G1 X109.734 Y92.654 E0.10363
G1 X112.254 Y95.016 E0.1083
G1 X113.219 Y97.059 E0.07083
G1 X114.105 Y95.183 E0.06507
G1 X113.907 Y94.988 E0.0087
G1 X111.877 Y91.536 E0.12554
G1 X110.228 Y91.536 E0.05172
G1 X107.04 Y90.216 E0.10818
M73 P0 R114
G1 X104.49 Y87.666 E0.11308
M73 P1 R114
G1 X103.17 Y84.478 E0.10818
G1 X103.17 Y70.272 E0.44543
M73 Q1 S116
G1 X104.49 Y67.084 E0.10818
G1 X105.422 Y66.152 E0.04133
M204 P1500
G1 X105.555 Y66.285 F10800
M204 P1000
G1 X105.689 Y66.419
G1 F1200
G1 X107.254 Y64.854 E0.0694
G1 X110.303 Y63.591 E0.10348
G1 X123.645 Y63.591 E0.41835
G1 X127.309 Y65.547 E0.1302
G1 X129.73 Y69.165 E0.13652
G1 X130.142 Y73.297 E0.1302
G1 X129.139 Y75.73 E0.08249
G1 X129.052 Y76.029 E0.00977
G1 X129.001 Y76.316 E0.00914
G1 X128.979 Y76.632 E0.00994
G1 X129.039 Y78.213 E0.04963
G1 X128.77 Y79.857 E0.05221
G1 X128.746 Y79.92 E0.00212
G1 X128.867 Y80.088 E0.00649
G1 X129.172 Y80.421 E0.01415
G1 X129.515 Y80.715 E0.01416
G1 X129.89 Y80.968 E0.01417
G1 X130.292 Y81.174 E0.01416
G1 X130.708 Y81.328 E0.01392
G1 X131.177 Y81.44 E0.01514
G1 X131.615 Y81.492 E0.01382
G1 X132.02 Y81.492 E0.0127
G1 X132.515 Y81.435 E0.01561
G1 X132.949 Y81.33 E0.01402
G1 X133.363 Y81.177 E0.01381
G1 X133.789 Y80.957 E0.01505
G1 X134.146 Y80.717 E0.01349
G1 X134.49 Y80.421 E0.01423
G1 X134.792 Y80.092 E0.01398
G1 X134.916 Y79.919 E0.00669
G1 X134.892 Y79.857 E0.00209
G1 X134.624 Y78.213 E0.05221
G1 X134.684 Y76.632 E0.04962
G1 X134.662 Y76.325 E0.00966
G1 X134.606 Y76.011 E0.01001
G1 X134.525 Y75.733 E0.00907
G1 X133.52 Y73.295 E0.08267
G1 X133.933 Y69.164 E0.13018
G1 X136.355 Y65.546 E0.13649
G1 X140.017 Y63.591 E0.13018
G1 X153.359 Y63.591 E0.41833
G1 X156.409 Y64.854 E0.10348
G1 X158.853 Y67.298 E0.10837
G1 X160.116 Y70.347 E0.10348
G1 X160.116 Y84.403 E0.44073
G1 X158.853 Y87.452 E0.10348
G1 X156.408 Y89.896 E0.10837
G1 X153.359 Y91.159 E0.10348
G1 X151.569 Y91.159 E0.05613
G1 X149.455 Y94.754 E0.13076
G1 X149.053 Y95.151 E0.01772
G1 X150.846 Y95.894 E0.06087
G1 X153.29 Y98.338 E0.10837
G1 X154.553 Y101.387 E0.10348
G1 X154.553 Y103.389 E0.06278
G1 X154.553 Y111.486 E0.25388
G1 X153.401 Y114.414 E0.09866
G1 X151.156 Y116.826 E0.10331
G1 X148.441 Y118.125 E0.09437
G1 X151.156 Y119.424 E0.09437
G1 X153.401 Y121.835 E0.10331
G1 X154.553 Y124.764 E0.09866
G1 X154.553 Y134.863 E0.31665
G1 X153.29 Y137.912 E0.10348
G1 X150.846 Y140.356 E0.10837
G1 X147.797 Y141.619 E0.10348
G1 X138.207 Y141.619 E0.30069
G1 X136.03 Y141.015 E0.07085
G1 X134.004 Y139.796 E0.07413
G1 X132.449 Y138.156 E0.07085
G1 X126.727 Y127.374 E0.38273
G1 X126.364 Y126.428 E0.03177
G1 X126.108 Y125.4 E0.03322
G1 X125.985 Y124.394 E0.03177
G1 X125.985 Y118.184 E0.19471
G1 X99.541 Y118.184 E0.82914
G1 X96.492 Y116.921 E0.10348
G1 X94.047 Y114.477 E0.10837
G1 X92.784 Y111.428 E0.10348
G1 X92.784 Y98.572 E0.40311
G1 X94.047 Y95.523 E0.10348
G1 X96.492 Y93.079 E0.10837
G1 X99.541 Y91.816 E0.10348
G1 X106.589 Y91.816 E0.221
G1 X109.529 Y92.978 E0.09912
G1 X111.944 Y95.242 E0.1038
G1 X113.219 Y97.942 E0.09362
G1 X114.494 Y95.242 E0.09363
G1 X114.6 Y95.142 E0.00459
G1 X114.207 Y94.754 E0.01732
G1 X112.093 Y91.159 E0.13076
G1 X110.303 Y91.159 E0.05613
G1 X107.254 Y89.896 E0.10348
G1 X104.81 Y87.452 E0.10837
G1 X103.547 Y84.403 E0.10348
G1 X103.547 Y70.347 E0.44073
G1 X104.81 Y67.298 E0.10348
G1 X105.646 Y66.461 E0.03709
M204 P1500
G1 X105.78 Y66.595 F10800
M204 P1000
G1 X105.913 Y66.728
G1 F1200
G1 X107.468 Y65.173 E0.06893
G1 X110.378 Y63.968 E0.09877
G1 X123.551 Y63.968 E0.41303
G1 X127.048 Y65.835 E0.12428
G1 X129.364 Y69.297 E0.1306
G1 X129.757 Y73.241 E0.12428
G1 X128.782 Y75.605 E0.08017
G1 X128.684 Y75.943 E0.01104
G1 X128.626 Y76.269 E0.0104
G1 X128.601 Y76.626 E0.0112
G1 X128.66 Y78.19 E0.04908
G1 X128.404 Y79.759 E0.04984
G1 X128.322 Y79.976 E0.00729
G1 X128.574 Y80.327 E0.01355
G1 X128.909 Y80.692 E0.01555
G1 X129.286 Y81.016 E0.01557
G1 X129.698 Y81.293 E0.01557
G1 X130.14 Y81.519 E0.01556
G1 X130.598 Y81.689 E0.01533
G1 X131.111 Y81.812 E0.01655
G1 X131.593 Y81.869 E0.0152
G1 X132.042 Y81.869 E0.01407
G1 X132.581 Y81.807 E0.01701
G1 X133.06 Y81.691 E0.01544
G1 X133.515 Y81.522 E0.01523
G1 X133.982 Y81.282 E0.01645
G1 X134.375 Y81.017 E0.01488
G1 X134.753 Y80.692 E0.01563
G1 X135.085 Y80.33 E0.01539
G1 X135.34 Y79.975 E0.01373
G1 X135.258 Y79.758 E0.00725
G1 X135.002 Y78.19 E0.04983
G1 X135.061 Y76.626 E0.04907
G1 X135.037 Y76.278 E0.01094
G1 X134.973 Y75.924 E0.01127
G1 X134.881 Y75.608 E0.01033
G1 X133.905 Y73.239 E0.08035
G1 X134.299 Y69.295 E0.12426
G1 X136.616 Y65.834 E0.13058
G1 X140.112 Y63.968 E0.12426
G1 X153.284 Y63.968 E0.41302
G1 X156.195 Y65.173 E0.09877
G1 X158.533 Y67.511 E0.10367
G1 X159.738 Y70.422 E0.09877
G1 X159.738 Y84.328 E0.43603
G1 X158.533 Y87.239 E0.09877
G1 X156.195 Y89.577 E0.10367
G1 X153.284 Y90.782 E0.09877
G1 X151.354 Y90.782 E0.06054
G1 X149.155 Y94.52 E0.13598
G1 X148.384 Y95.282 E0.03399
G1 X150.633 Y96.214 E0.07633
G1 X152.971 Y98.552 E0.10367
G1 X154.176 Y101.462 E0.09877
G1 X154.176 Y103.389 E0.06043
G1 X154.176 Y111.415 E0.25163
G1 X153.076 Y114.21 E0.09418
G1 X150.929 Y116.517 E0.09883
G1 X148.219 Y117.813 E0.09418
G1 X146.244 Y117.954 E0.06207
G1 X146.197 Y117.968 E0.00154
G1 X146.176 Y117.98 E0.00077
G1 X146.138 Y118.012 E0.00154
G1 X146.112 Y118.053 E0.00153
G1 X146.098 Y118.1 E0.00154
G1 X146.096 Y118.125 E0.00077
G1 X146.103 Y118.173 E0.00153
