; generated by SuperSlicer 2.3.57 on 2022-03-16 at 08:27:03 UTC

; 

; external perimeters extrusion width = 0.45mm
; perimeters extrusion width = 0.45mm
; infill extrusion width = 0.45mm
; solid infill extrusion width = 0.45mm
; top infill extrusion width = 0.40mm
; support material extrusion width = 0.35mm
; first layer extrusion width = 0.42mm

; object:{"name":"Blue - Extruder Face Plate","id":"Blue - Extruder Face Plate.stl id:0 copy 0","object_center":[125.000000,105.000000,0.000000],"boundingbox_center":[125.000000,105.000000,29.834293],"boundingbox_size":[50.000000,23.982244,59.668587]}
; Total objects to print: 1
M486 T1
; plater:{"center":[125.000000,105.000000,0.000000],"boundingbox_center":[125.000000,105.000000,29.834293],"boundingbox_size":[50.000000,23.982244,59.668587]}

M73 P0 R107
M73 Q0 S109
;TYPE:Custom
M862.3 P "MK3S" ; printer model check
M862.1 P0.4 ; nozzle diameter check
M115 U3.10.0 ; tell printer latest fw version
G90 ; use absolute coordinates
M83 ; extruder relative mode
M104 S230 ; set extruder temp
M140 S85 ; set bed temp
M190 S85 ; wait for bed temp
M109 S230 ; wait for extruder temp
G28 W ; home all without mesh bed level
G80 ; mesh bed leveling
G1 Y-3.0 F1000.0 ; go outside print area
G92 E0.0
G1 X60.0 E9.0 F1000.0 ; intro line
G1 X100.0 E12.5 F1000.0 ; intro line
G92 E0.0
M221 S95

; Don't change E values below. Excessive value can damage the printer.
M907 E430 ; set extruder motor current
M107
G21 ; set units to millimeters
G90 ; use absolute coordinates
M83 ; use relative distances for extrusion
M900 K0.08 ; Filament gcode LA 1.5
M900 K45 ; Filament gcode LA 1.0
M107
;LAYER_CHANGE
;Z:0.2
;HEIGHT:0.2
;BEFORE_LAYER_CHANGE
G92 E0.0
;0.2


G1 E-1 F2100
G1 Z0.2 F10800
G1 Z0.2
;AFTER_LAYER_CHANGE
;0.2
G1 Z0.4
M204 P1500
G1 X97.373 Y100.171
G1 Z0.2
G1 E1 F2100
;TYPE:Skirt
;WIDTH:0.45
G1 F1200
G1 X97.047 Y100.652 E0.01969
G1 X96.829 Y101.221 E0.02063
G1 X96.748 Y101.825 E0.02063
G1 X96.749 Y119.571 E0.60067
G1 X96.81 Y120.074 E0.01713
G1 X96.967 Y120.555 E0.01713
G1 X97.216 Y121. E0.01727
G1 X97.544 Y121.385 E0.01713
G1 X98.299 Y121.894 E0.03078
G1 X99.185 Y122.113 E0.03092
G1 X142.984 Y124.423 E1.48459
G1 X150.814 Y124.582 E0.2651
G1 X151.741 Y124.345 E0.03238
G1 X152.517 Y123.793 E0.03225
G1 X153.045 Y122.995 E0.03238
G1 X153.251 Y122.065 E0.03225
G1 X153.252 Y102.022 E0.67844
G1 X153.199 Y101.502 E0.01767
G1 X153.043 Y101.004 E0.01767
G1 X152.794 Y100.55 E0.01754
G1 X152.457 Y100.151 E0.01767
G1 X152.05 Y99.83 E0.01754
G1 X133.99 Y88.291 E0.72545
G1 X133.411 Y88.015 E0.0217
G1 X132.627 Y87.882 E0.02692
G1 X115.201 Y87.719 E0.58987
G1 X114.403 Y87.843 E0.02732
G1 X113.682 Y88.203 E0.02732
G1 X97.794 Y99.776 E0.66531
G1 X97.416 Y100.13 E0.01752
G1 X97.555 Y100.277 F10800
M204 P1000
G1 X97.693 Y100.425
G1 F1200
G1 X97.408 Y100.839 E0.01701
G1 X97.222 Y101.325 E0.01759
G1 X97.155 Y101.836 E0.01746
G1 X97.156 Y119.552 E0.59968
G1 X97.342 Y120.396 E0.02923
G1 X97.838 Y121.102 E0.02923
G1 X98.476 Y121.527 E0.02594
G1 X99.217 Y121.707 E0.02581
G1 X143.001 Y124.016 E1.4841
G1 X150.765 Y124.177 E0.26287
G1 X151.565 Y123.978 E0.02789
G1 X152.235 Y123.499 E0.02789
G1 X152.674 Y122.827 E0.02716
G1 X152.844 Y122.039 E0.02728
G1 X152.845 Y102.019 E0.67765
G1 X152.665 Y101.156 E0.02984
G1 X152.162 Y100.433 E0.02984
G1 X133.77 Y88.633 E0.73966
G1 X133.284 Y88.402 E0.0182
G1 X132.618 Y88.289 E0.02287
G1 X115.199 Y88.126 E0.58965
G1 X114.524 Y88.231 E0.02312
G1 X113.913 Y88.538 E0.02312
G1 X98.042 Y100.099 E0.66464
G1 X97.737 Y100.384 E0.01415
; INIT printing object Blue - Extruder Face Plate.stl id:0 copy 0
;WIPE_START
G1 F8640
G1 X97.684 Y100.434 E-0.0167
G1 X97.408 Y100.839 E-0.11324
G1 X97.222 Y101.325 E-0.11997
G1 X97.155 Y101.836 E-0.11912
G1 X97.155 Y104.352 E-0.58097
;WIPE_END
G1 E-0.05 F2100
G1 Z0.4 F10800
; printing object Blue - Extruder Face Plate.stl id:0 copy 0
M486 S0
M204 P1500
G1 X124.189 Y111.181
M204 P1000
G1 X150.641 Y121.977
G1 Z0.2
G1 E1 F2100
;TYPE:Support material
;WIDTH:0.42
G1 F1200
G1 X150.641 Y102.028 E0.6255
G1 X149.887 Y102.028 E0.02365
G1 X149.887 Y121.815 E0.62042
G1 X149.133 Y121.815 E0.02365
G1 X149.133 Y102.028 E0.62042
G1 X148.379 Y102.028 E0.02365
G1 X148.379 Y121.815 E0.62042
G1 X147.625 Y121.815 E0.02365
G1 X147.625 Y102.028 E0.62042
G1 X146.871 Y102.028 E0.02365
G1 X146.871 Y121.815 E0.62042
G1 X146.116 Y121.815 E0.02365
G1 X146.116 Y102.028 E0.62042
G1 X145.362 Y102.028 E0.02365
G1 X145.362 Y121.815 E0.62042
G1 X144.608 Y121.815 E0.02365
G1 X144.608 Y102.028 E0.62042
G1 X143.854 Y102.028 E0.02365
G1 X143.854 Y121.815 E0.62042
G1 X143.1 Y121.815 E0.02365
G1 X143.1 Y101.865 E0.6255
;WIPE_START
M73 Q0 S108
G1 F8640
G1 X143.1 Y105.98 E-0.95
;WIPE_END
G1 E-0.05 F2100
G1 Z0.4 F10800
M204 P1500
G1 X125 Y110.768
M204 P1000
G1 X106.9 Y119.67
G1 Z0.2
G1 E1 F2100
G1 F1200
G1 X106.9 Y102.028 E0.55317
G1 X106.146 Y102.028 E0.02365
G1 X106.146 Y119.508 E0.54808
G1 X105.392 Y119.508 E0.02365
G1 X105.392 Y102.028 E0.54808
G1 X104.638 Y102.028 E0.02365
G1 X104.638 Y119.508 E0.54808
G1 X103.884 Y119.508 E0.02365
G1 X103.884 Y102.028 E0.54808
G1 X103.129 Y102.028 E0.02365
G1 X103.129 Y119.508 E0.54808
G1 X102.375 Y119.508 E0.02365
G1 X102.375 Y102.028 E0.54808
G1 X101.621 Y102.028 E0.02365
G1 X101.621 Y119.508 E0.54808
G1 X100.867 Y119.508 E0.02365
G1 X100.867 Y102.028 E0.54808
G1 X100.113 Y102.028 E0.02365
G1 X100.113 Y119.508 E0.54808
G1 X99.359 Y119.508 E0.02365
G1 X99.359 Y101.865 E0.55317
;WIPE_START
G1 F8640
G1 X99.359 Y105.98 E-0.95
;WIPE_END
G1 E-0.05 F2100
G1 Z0.4 F10800
M204 P1500
G1 X115.95 Y106.154
M204 P1000
G1 X132.542 Y110.442
G1 Z0.2
G1 E1 F2100
G1 F1200
G1 X132.542 Y106.697 E0.11741
G1 X131.787 Y106.697 E0.02365
G1 X131.787 Y110.28 E0.11232
G1 X131.033 Y110.28 E0.02365
G1 X131.033 Y106.697 E0.11232
G1 X130.279 Y106.697 E0.02365
G1 X130.279 Y110.28 E0.11232
G1 X129.525 Y110.28 E0.02365
G1 X129.525 Y106.697 E0.11232
G1 X128.771 Y106.697 E0.02365
G1 X128.771 Y110.28 E0.11232
G1 X128.017 Y110.28 E0.02365
G1 X128.017 Y106.697 E0.11232
G1 X127.262 Y106.697 E0.02365
G1 X127.262 Y110.28 E0.11232
G1 X126.508 Y110.28 E0.02365
G1 X126.508 Y106.697 E0.11232
G1 X125.754 Y106.697 E0.02365
G1 X125.754 Y110.28 E0.11232
G1 X125 Y110.28 E0.02365
G1 X125 Y106.697 E0.11232
G1 X124.246 Y106.697 E0.02365
G1 X124.246 Y110.28 E0.11232
G1 X123.492 Y110.28 E0.02365
G1 X123.492 Y106.697 E0.11232
G1 X122.738 Y106.697 E0.02365
G1 X122.738 Y110.28 E0.11232
G1 X121.983 Y110.28 E0.02365
G1 X121.983 Y106.697 E0.11232
G1 X121.229 Y106.697 E0.02365
G1 X121.229 Y110.28 E0.11232
G1 X120.475 Y110.28 E0.02365
G1 X120.475 Y106.697 E0.11232
G1 X119.721 Y106.697 E0.02365
G1 X119.721 Y110.28 E0.11232
G1 X118.967 Y110.28 E0.02365
G1 X118.967 Y106.697 E0.11232
G1 X118.213 Y106.697 E0.02365
G1 X118.213 Y110.28 E0.11232
G1 X117.458 Y110.28 E0.02365
G1 X117.458 Y106.535 E0.11741
;WIPE_START
G1 F8640
G1 X117.458 Y110.28 E-0.86463
G1 X117.828 Y110.28 E-0.08537
;WIPE_END
G1 E-0.05 F2100
G1 Z0.4 F10800
M204 P1500
G1 X126.131 Y103.995
M204 P1000
G1 X134.804 Y101.455
G1 Z0.2
G1 E1 F2100
G1 F1200
G1 X134.804 Y92.799 E0.2714
G1 X134.05 Y92.799 E0.02365
G1 X134.05 Y101.293 E0.26631
G1 X133.296 Y101.293 E0.02365
G1 X133.296 Y92.799 E0.26631
G1 X132.587 Y92.799 E0.02223
G1 X132.587 Y90.492 E0.07234
G1 X132.542 Y90.492 E0.00141
G1 X132.542 Y101.293 E0.33865
G1 X131.787 Y101.293 E0.02365
G1 X131.787 Y90.492 E0.33865
G1 X131.033 Y90.492 E0.02365
G1 X131.033 Y101.293 E0.33865
G1 X130.279 Y101.293 E0.02365
G1 X130.279 Y90.492 E0.33865
G1 X129.525 Y90.492 E0.02365
G1 X129.525 Y101.293 E0.33865
M73 P0 R106
G1 X128.771 Y101.293 E0.02365
G1 X128.771 Y90.492 E0.33865
G1 X128.017 Y90.492 E0.02365
G1 X128.017 Y101.293 E0.33865
G1 X127.262 Y101.293 E0.02365
G1 X127.262 Y90.492 E0.33865
G1 X126.508 Y90.492 E0.02365
G1 X126.508 Y101.293 E0.33865
G1 X125.754 Y101.293 E0.02365
G1 X125.754 Y90.492 E0.33865
G1 X125. Y90.492 E0.02365
G1 X125 Y101.293 E0.33865
G1 X124.246 Y101.293 E0.02365
G1 X124.246 Y90.492 E0.33865
G1 X123.492 Y90.492 E0.02365
G1 X123.492 Y101.293 E0.33865
G1 X122.738 Y101.293 E0.02365
G1 X122.738 Y90.492 E0.33865
G1 X121.983 Y90.492 E0.02365
G1 X121.983 Y101.293 E0.33865
G1 X121.229 Y101.293 E0.02365
G1 X121.229 Y90.492 E0.33865
G1 X120.475 Y90.492 E0.02365
G1 X120.475 Y101.293 E0.33865
G1 X119.721 Y101.293 E0.02365
G1 X119.721 Y90.492 E0.33865
M73 P1 R106
M73 Q1 S108
G1 X118.967 Y90.492 E0.02365
G1 X118.967 Y101.293 E0.33865
G1 X118.213 Y101.293 E0.02365
G1 X118.213 Y90.492 E0.33865
G1 X117.458 Y90.492 E0.02365
G1 X117.458 Y101.293 E0.33865
G1 X116.704 Y101.293 E0.02365
G1 X116.704 Y90.492 E0.33865
G1 X115.95 Y90.492 E0.02365
G1 X115.95 Y101.293 E0.33865
G1 X115.196 Y101.293 E0.02365
G1 X115.196 Y90.33 E0.34373
;WIPE_START
G1 F8640
G1 X115.196 Y94.444 E-0.95
;WIPE_END
G1 E-0.05 F2100
G1 Z0.4 F10800
M204 P1500
G1 X115.196 Y96.497
M204 P1000
G1 X115.196 Y102.663
G1 Z0.2
G1 E1 F2100
;TYPE:Internal perimeter
G1 F1200
G1 X139.936 Y102.663 E0.7757
G1 X139.936 Y105.327 E0.08353
G1 X110.064 Y105.327 E0.93661
G1 X110.064 Y102.663 E0.08353
G1 X115.136 Y102.663 E0.15902
M204 P1500
G1 X115.136 Y102.474 F10800
M204 P1000
G1 X115.136 Y102.286
G1 F1200
G1 X140.313 Y102.286 E0.78941
G1 X140.313 Y105.704 E0.10717
G1 X109.687 Y105.704 E0.96025
G1 X109.687 Y102.286 E0.10717
G1 X115.076 Y102.286 E0.16896
M204 P1500
G1 X115.076 Y102.097 F10800
M204 P1000
G1 X115.076 Y101.909
;TYPE:External perimeter
G1 F1200
G1 X140.69 Y101.909 E0.80311
G1 X140.69 Y106.081 E0.13082
G1 X109.31 Y106.081 E0.9839
G1 X109.31 Y101.909 E0.13082
G1 X115.016 Y101.909 E0.17891
G1 X115.276 Y102.255 F10800
;WIPE_START
G1 F8640
G1 X119.13 Y101.909 E-0.95
;WIPE_END
G1 E-0.05 F2100
G1 Z0.4 F10800
M204 P1500
G1 X127.038 Y102.343
M204 P1000
G1 X139.06 Y102.776
G1 Z0.2
G1 E1 F2100
;TYPE:Solid infill
;WIDTH:0.422652
G1 F1200
G1 X139.661 Y103.376 E0.02678
G1 X139.661 Y103.91 E0.01683
G1 X138.689 Y102.938 E0.04334
G1 X138.156 Y102.938 E0.01683
G1 X139.661 Y104.443 E0.06713
G1 X139.661 Y104.976 E0.01683
G1 X137.623 Y102.938 E0.09093
G1 X137.09 Y102.938 E0.01683
G1 X139.203 Y105.052 E0.0943
G1 X138.67 Y105.052 E0.01683
G1 X136.556 Y102.938 E0.0943
G1 X136.023 Y102.938 E0.01683
G1 X138.136 Y105.052 E0.0943
G1 X137.603 Y105.052 E0.01683
G1 X135.49 Y102.938 E0.0943
G1 X134.956 Y102.938 E0.01683
G1 X137.07 Y105.052 E0.0943
G1 X136.537 Y105.052 E0.01683
G1 X134.423 Y102.938 E0.0943
G1 X133.89 Y102.938 E0.01683
G1 X136.003 Y105.052 E0.0943
G1 X135.47 Y105.052 E0.01683
G1 X133.357 Y102.938 E0.0943
G1 X132.823 Y102.938 E0.01683
G1 X134.937 Y105.052 E0.0943
G1 X134.404 Y105.052 E0.01683
G1 X132.29 Y102.938 E0.0943
G1 X131.757 Y102.938 E0.01683
G1 X133.87 Y105.052 E0.0943
G1 X133.337 Y105.052 E0.01683
G1 X131.224 Y102.938 E0.0943
G1 X130.69 Y102.938 E0.01683
G1 X132.804 Y105.052 E0.0943
G1 X132.27 Y105.052 E0.01683
G1 X130.157 Y102.938 E0.0943
G1 X129.624 Y102.938 E0.01683
G1 X131.737 Y105.052 E0.0943
G1 X131.204 Y105.052 E0.01683
G1 X129.09 Y102.938 E0.0943
G1 X128.557 Y102.938 E0.01683
G1 X130.671 Y105.052 E0.0943
G1 X130.137 Y105.052 E0.01683
G1 X128.024 Y102.938 E0.0943
G1 X127.491 Y102.938 E0.01683
G1 X129.604 Y105.052 E0.0943
G1 X129.071 Y105.052 E0.01683
G1 X126.957 Y102.938 E0.0943
G1 X126.424 Y102.938 E0.01683
G1 X128.538 Y105.052 E0.0943
G1 X128.004 Y105.052 E0.01683
G1 X125.891 Y102.938 E0.0943
G1 X125.358 Y102.938 E0.01683
G1 X127.471 Y105.052 E0.0943
G1 X126.938 Y105.052 E0.01683
G1 X124.824 Y102.938 E0.0943
G1 X124.291 Y102.938 E0.01683
G1 X126.404 Y105.052 E0.0943
G1 X125.871 Y105.052 E0.01683
G1 X123.758 Y102.938 E0.0943
G1 X123.225 Y102.938 E0.01683
G1 X125.338 Y105.052 E0.0943
G1 X124.805 Y105.052 E0.01683
G1 X122.691 Y102.938 E0.0943
G1 X122.158 Y102.938 E0.01683
G1 X124.271 Y105.052 E0.0943
G1 X123.738 Y105.052 E0.01683
G1 X121.625 Y102.938 E0.0943
G1 X121.091 Y102.938 E0.01683
G1 X123.205 Y105.052 E0.0943
G1 X122.672 Y105.052 E0.01683
G1 X120.558 Y102.938 E0.0943
G1 X120.025 Y102.938 E0.01683
G1 X122.138 Y105.052 E0.0943
G1 X121.605 Y105.052 E0.01683
G1 X119.492 Y102.938 E0.0943
G1 X118.958 Y102.938 E0.01683
G1 X121.072 Y105.052 E0.0943
G1 X120.539 Y105.052 E0.01683
G1 X118.425 Y102.938 E0.0943
G1 X117.892 Y102.938 E0.01683
G1 X120.005 Y105.052 E0.0943
G1 X119.472 Y105.052 E0.01683
G1 X117.359 Y102.938 E0.0943
G1 X116.825 Y102.938 E0.01683
G1 X118.939 Y105.052 E0.0943
G1 X118.405 Y105.052 E0.01683
G1 X116.292 Y102.938 E0.0943
G1 X115.759 Y102.938 E0.01683
G1 X117.872 Y105.052 E0.0943
G1 X117.339 Y105.052 E0.01683
G1 X115.225 Y102.938 E0.0943
G1 X114.692 Y102.938 E0.01683
G1 X116.806 Y105.052 E0.0943
G1 X116.272 Y105.052 E0.01683
G1 X114.159 Y102.938 E0.0943
G1 X113.626 Y102.938 E0.01683
G1 X115.739 Y105.052 E0.0943
G1 X115.206 Y105.052 E0.01683
G1 X113.092 Y102.938 E0.0943
G1 X112.559 Y102.938 E0.01683
G1 X114.673 Y105.052 E0.0943
G1 X114.139 Y105.052 E0.01683
G1 X112.026 Y102.938 E0.0943
G1 X111.493 Y102.938 E0.01683
G1 X113.606 Y105.052 E0.0943
G1 X113.073 Y105.052 E0.01683
G1 X110.959 Y102.938 E0.0943
G1 X110.426 Y102.938 E0.01683
G1 X112.539 Y105.052 E0.0943
G1 X112.006 Y105.052 E0.01683
G1 X110.339 Y103.385 E0.07437
G1 X110.339 Y103.918 E0.01683
G1 X111.473 Y105.052 E0.05058
G1 X110.94 Y105.052 E0.01683
G1 X110.339 Y104.451 E0.02678
G1 X110.339 Y104.985 E0.01683
G1 X110.569 Y105.214 E0.01022
; INIT stop printing object Blue - Extruder Face Plate.stl id:0 copy 0
;LAYER_CHANGE
;Z:0.4
;HEIGHT:0.2
;BEFORE_LAYER_CHANGE
G92 E0.0
;0.4


;WIPE_START
G1 F8640
G1 X110.339 Y104.985 E-0.07482
G1 X110.339 Y104.451 E-0.12313
G1 X110.94 Y105.052 E-0.19601
G1 X111.473 Y105.052 E-0.12313
G1 X110.339 Y103.918 E-0.37014
G1 X110.339 Y103.646 E-0.06277
;WIPE_END
G1 E-0.05 F2100
G1 Z0.4 F10800
; stop printing object Blue - Extruder Face Plate.stl id:0 copy 0
M486 S-1
G1 Z0.4
;AFTER_LAYER_CHANGE
;0.4
M104 S240 ; set temperature
M140 S90 ; set bed temperature
G1 Z0.6
M204 P1500
G1 X107.244 Y99.397
M204 P1000
G1 X104.149 Y95.147
G1 Z0.4
G1 E1 F2100
;TYPE:Skirt
;WIDTH:0.45
G1 F3000
G1 X97.794 Y99.776 E0.26611
G1 X97.373 Y100.171 E0.01955
G1 X97.047 Y100.652 E0.01969
G1 X96.829 Y101.221 E0.02063
G1 X96.748 Y101.825 E0.02063
G1 X96.749 Y119.571 E0.60067
G1 X96.81 Y120.074 E0.01713
G1 X96.967 Y120.555 E0.01713
G1 X97.216 Y121. E0.01727
G1 X97.544 Y121.385 E0.01713
G1 X98.299 Y121.894 E0.03078
G1 X99.185 Y122.113 E0.03092
G1 X142.984 Y124.423 E1.48459
G1 X150.814 Y124.582 E0.2651
G1 X151.741 Y124.345 E0.03238
G1 X152.517 Y123.793 E0.03225
G1 X153.045 Y122.995 E0.03238
G1 X153.251 Y122.065 E0.03225
G1 X153.252 Y102.022 E0.67844
G1 X153.199 Y101.502 E0.01767
G1 X153.043 Y101.004 E0.01767
G1 X152.794 Y100.55 E0.01754
G1 X152.457 Y100.151 E0.01767
G1 X152.05 Y99.83 E0.01754
G1 X133.99 Y88.291 E0.72545
G1 X133.411 Y88.015 E0.0217
G1 X132.627 Y87.882 E0.02692
G1 X115.201 Y87.719 E0.58987
G1 X114.403 Y87.843 E0.02732
G1 X113.682 Y88.203 E0.02732
G1 X104.197 Y95.112 E0.39717
M204 P1500
G1 X104.317 Y95.276 F10800
M204 P1000
G1 X104.437 Y95.441
G1 F3000
G1 X98.042 Y100.099 E0.26779
G1 X97.684 Y100.434 E0.0166
G1 X97.408 Y100.839 E0.0166
G1 X97.222 Y101.325 E0.01759
G1 X97.155 Y101.836 E0.01746
G1 X97.156 Y119.552 E0.59968
G1 X97.342 Y120.396 E0.02923
G1 X97.838 Y121.102 E0.02923
G1 X98.476 Y121.527 E0.02594
G1 X99.217 Y121.707 E0.02581
G1 X143.001 Y124.016 E1.4841
M73 Q1 S107
G1 X150.765 Y124.177 E0.26287
G1 X151.565 Y123.978 E0.02789
G1 X152.235 Y123.499 E0.02789
G1 X152.674 Y122.827 E0.02716
G1 X152.844 Y122.039 E0.02728
G1 X152.845 Y102.019 E0.67765
G1 X152.665 Y101.156 E0.02984
G1 X152.162 Y100.433 E0.02984
G1 X133.77 Y88.633 E0.73966
G1 X133.284 Y88.402 E0.0182
G1 X132.618 Y88.289 E0.02287
G1 X115.199 Y88.126 E0.58965
G1 X114.524 Y88.231 E0.02312
G1 X113.913 Y88.538 E0.02312
G1 X104.485 Y95.405 E0.39481
; INIT printing object Blue - Extruder Face Plate.stl id:0 copy 0
;WIPE_START
G1 F8640
G1 X101.16 Y97.828 E-0.95
;WIPE_END
G1 E-0.05 F2100
G1 Z0.6 F10800
; printing object Blue - Extruder Face Plate.stl id:0 copy 0
M486 S0
M204 P1500
G1 X107.112 Y98.972
M204 P800
G1 X109.739 Y102.538
G1 Z0.4
G1 E1 F2100
;TYPE:Internal perimeter
G1 F2700
G1 X140.261 Y102.538 E1.03312
