; generated by SuperSlicer 2.3.57 on 2022-03-10 at 16:06:17 UTC

; 

; external perimeters extrusion width = 0.45mm
; perimeters extrusion width = 0.45mm
; infill extrusion width = 0.45mm
; solid infill extrusion width = 0.45mm
; top infill extrusion width = 0.40mm
; first layer extrusion width = 0.42mm

; object:{"name":"Blue - Handle (L)_1","id":"Blue - Handle (L)_1.stl id:0 copy 0","object_center":[125.000000,120.500015,0.000000],"boundingbox_center":[125.000000,120.500015,5.377383],"boundingbox_size":[35.000000,25.000031,10.754766]}
; object:{"name":"Blue - Handle (R)_1","id":"Blue - Handle (R)_1.stl id:1 copy 0","object_center":[125.000000,89.499986,0.000000],"boundingbox_center":[125.000000,89.499986,5.377383],"boundingbox_size":[35.000000,25.000031,10.754766]}
; Total objects to print: 2
M486 T2
; plater:{"center":[125.000000,105.000000,0.000000],"boundingbox_center":[125.000000,105.000000,5.377383],"boundingbox_size":[35.000000,56.000060,10.754766]}

M73 P0 R56
M73 Q0 S57
;TYPE:Custom
M862.3 P "MK3S" ; printer model check
M862.1 P0.4 ; nozzle diameter check
M115 U3.10.0 ; tell printer latest fw version
G90 ; use absolute coordinates
M83 ; extruder relative mode
M104 S255 ; set extruder temp
M140 S100 ; set bed temp
M190 S100 ; wait for bed temp
M109 S255 ; wait for extruder temp
G28 W ; home all without mesh bed level
G80 ; mesh bed leveling
G1 Y-3.0 F1000.0 ; go outside print area
G92 E0.0
G1 X60.0 E9.0 F1000.0 ; intro line
G1 X100.0 E12.5 F1000.0 ; intro line
G92 E0.0
M221 S95

; Don't change E values below. Excessive value can damage the printer.
M907 E430 ; set extruder motor current
M107
G21 ; set units to millimeters
G90 ; use absolute coordinates
M83 ; use relative distances for extrusion
M900 K0.04 ; Filament gcode LA 1.5
M900 K20 ; Filament gcode LA 1.0
;LAYER_CHANGE
;Z:0.2
;HEIGHT:0.2
;BEFORE_LAYER_CHANGE
G92 E0.0
;0.2


G1 E-0.8 F2100
G1 Z0.4 F10800
;AFTER_LAYER_CHANGE
;0.2
G1 Z0.6
M204 P1500
G1 X98.821 Y71.614
G1 Z0.2
G1 E0.8 F2100
;TYPE:Skirt
;WIDTH:0.42
G1 F1200
G1 X102.114 Y68.321 E0.146
G1 X106.272 Y66.599 E0.1411
G1 X109.49 Y66.599 E0.10091
G1 X125.672 Y66.599 E0.50736
G1 X126.359 Y66.641 E0.0216
G1 X128.001 Y66.842 E0.05186
G1 X129.035 Y67.068 E0.03316
G1 X130.838 Y67.643 E0.05934
G1 X131.7 Y67.998 E0.02925
G1 X133.39 Y68.864 E0.05952
G1 X134.283 Y69.433 E0.03322
G1 X135.609 Y70.463 E0.05263
G1 X136.138 Y70.93 E0.02213
G1 X148.554 Y83.345 E0.55054
G1 X149.011 Y83.861 E0.02161
G1 X150.035 Y85.17 E0.05209
G1 X150.605 Y86.06 E0.03316
G1 X151.477 Y87.748 E0.05956
G1 X151.836 Y88.61 E0.02926
G1 X152.418 Y90.416 E0.05952
G1 X152.647 Y91.45 E0.0332
G1 X152.856 Y93.113 E0.05256
G1 X152.9 Y93.818 E0.02212
G1 X152.901 Y100.939 E0.22328
G1 X152.799 Y102.012 E0.0338
G1 X152.443 Y103.859 E0.05898
G1 X151.998 Y104.994 E0.03821
G1 X152.311 Y105.694 E0.02403
G1 X152.764 Y107.728 E0.06536
G1 X152.899 Y108.959 E0.0388
G1 X152.901 Y116.159 E0.22577
G1 X152.859 Y116.849 E0.02166
G1 X152.657 Y118.498 E0.05212
G1 X152.431 Y119.532 E0.03316
G1 X151.854 Y121.341 E0.05956
G1 X151.499 Y122.204 E0.02925
G1 X150.633 Y123.893 E0.05952
G1 X150.064 Y124.787 E0.03322
G1 X149.035 Y126.111 E0.05257
G1 X148.568 Y126.64 E0.02213
G1 X136.153 Y139.056 E0.55054
G1 X135.637 Y139.513 E0.02161
G1 X134.327 Y140.537 E0.05215
G1 X133.436 Y141.108 E0.03317
G1 X131.748 Y141.98 E0.05957
G1 X130.887 Y142.339 E0.02924
G1 X129.087 Y142.919 E0.0593
G1 X128.053 Y143.148 E0.03321
G1 X126.397 Y143.356 E0.05234
G1 X125.692 Y143.4 E0.02213
G1 X106.272 Y143.401 E0.6089
G1 X102.114 Y141.679 E0.14111
G1 X98.821 Y138.386 E0.14601
G1 X97.099 Y134.228 E0.14111
G1 X97.099 Y106.772 E0.86088
G1 X97.833 Y105. E0.06013
G1 X97.099 Y103.228 E0.06013
G1 X97.099 Y75.772 E0.86088
G1 X98.798 Y71.669 E0.13922
G1 X98.97 Y71.748 F10800
M204 P1000
G1 X99.141 Y71.827
G1 F1200
G1 X102.328 Y68.641 E0.1413
G1 X106.347 Y66.976 E0.1364
G1 X109.49 Y66.976 E0.09856
G1 X125.66 Y66.976 E0.507
G1 X126.325 Y67.017 E0.02088
G1 X127.938 Y67.214 E0.05095
G1 X128.937 Y67.432 E0.03206
G1 X130.708 Y67.997 E0.0583
G1 X131.542 Y68.341 E0.02827
G1 X133.202 Y69.191 E0.05848
G1 X134.066 Y69.742 E0.03211
G1 X135.368 Y70.753 E0.0517
G1 X135.88 Y71.205 E0.02139
G1 X148.28 Y83.604 E0.54981
G1 X148.721 Y84.103 E0.02089
G1 X149.727 Y85.389 E0.05118
G1 X150.278 Y86.249 E0.03205
G1 X151.135 Y87.907 E0.05852
G1 X151.482 Y88.74 E0.02829
G1 X152.054 Y90.515 E0.05848
G1 X152.276 Y91.515 E0.03209
G1 X152.481 Y93.149 E0.05164
G1 X152.523 Y93.829 E0.02138
G1 X152.524 Y100.921 E0.22235
M73 Q0 S56
G1 X152.425 Y101.958 E0.03268
G1 X152.079 Y103.754 E0.05734
G1 X151.589 Y105.003 E0.04208
G1 X151.951 Y105.813 E0.02779
G1 X152.391 Y107.79 E0.06352
G1 X152.522 Y108.979 E0.03751
G1 X152.524 Y116.148 E0.22476
G1 X152.483 Y116.814 E0.02094
G1 X152.285 Y118.435 E0.0512
G1 X152.067 Y119.434 E0.03205
G1 X151.5 Y121.212 E0.05852
G1 X151.156 Y122.046 E0.02827
G1 X150.306 Y123.706 E0.05848
G1 X149.755 Y124.569 E0.03211
G1 X148.745 Y125.87 E0.05165
G1 X148.293 Y126.381 E0.02139
G1 X135.895 Y138.781 E0.54981
G1 X135.396 Y139.223 E0.02089
G1 X134.108 Y140.229 E0.05124
G1 X133.247 Y140.782 E0.03207
G1 X131.589 Y141.638 E0.05853
G1 X130.756 Y141.984 E0.02827
G1 X128.988 Y142.555 E0.05826
G1 X127.989 Y142.776 E0.0321
G1 X126.361 Y142.981 E0.05142
G1 X125.68 Y143.023 E0.02139
G1 X106.347 Y143.024 E0.60618
G1 X102.328 Y141.359 E0.13641
G1 X99.141 Y138.173 E0.1413
G1 X97.476 Y134.153 E0.1364
G1 X97.476 Y106.847 E0.85618
G1 X98.241 Y105. E0.06267
G1 X97.476 Y103.153 E0.06267
G1 X97.476 Y75.847 E0.85618
G1 X99.118 Y71.883 E0.13452
M204 P1500
G1 X99.289 Y71.962 F10800
M204 P1000
G1 X99.461 Y72.041
G1 F1200
G1 X102.541 Y68.961 E0.1366
G1 X106.422 Y67.353 E0.1317
G1 X109.49 Y67.353 E0.09621
G1 X125.649 Y67.353 E0.50664
G1 X126.291 Y67.392 E0.02016
G1 X127.875 Y67.586 E0.05004
G1 X128.839 Y67.797 E0.03095
G1 X130.579 Y68.352 E0.05726
G1 X131.384 Y68.684 E0.0273
G1 X133.015 Y69.519 E0.05744
G1 X133.849 Y70.05 E0.031
G1 X135.127 Y71.044 E0.05078
G1 X135.621 Y71.48 E0.02065
G1 X148.005 Y83.862 E0.54908
G1 X148.431 Y84.344 E0.02017
G1 X149.419 Y85.607 E0.05027
G1 X149.951 Y86.438 E0.03095
G1 X150.793 Y88.067 E0.05748
G1 X151.127 Y88.871 E0.02731
G1 X151.69 Y90.614 E0.05743
G1 X151.904 Y91.579 E0.03099
G1 X152.105 Y93.184 E0.05071
G1 X152.146 Y93.841 E0.02064
G1 X152.147 Y100.903 E0.22142
G1 X152.051 Y101.905 E0.03155
G1 X151.715 Y103.649 E0.05569
G1 X151.181 Y105.013 E0.04595
M73 P1 R56
G1 X151.591 Y105.932 E0.03155
M73 Q1 S56
G1 X152.018 Y107.852 E0.06168
G1 X152.145 Y109. E0.03622
G1 X152.147 Y116.136 E0.22375
G1 X152.108 Y116.78 E0.02022
G1 X151.913 Y118.372 E0.05029
G1 X151.702 Y119.336 E0.03095
G1 X151.145 Y121.083 E0.05748
G1 X150.813 Y121.888 E0.0273
G1 X149.978 Y123.518 E0.05743
G1 X149.447 Y124.352 E0.031
G1 X148.454 Y125.629 E0.05072
G1 X148.018 Y126.123 E0.02065
G1 X135.636 Y138.507 E0.54908
G1 X135.154 Y138.933 E0.02017
G1 X133.89 Y139.922 E0.05033
G1 X133.059 Y140.455 E0.03096
G1 X131.43 Y141.296 E0.05749
G1 X130.626 Y141.63 E0.02729
G1 X128.889 Y142.19 E0.05721
G1 X127.924 Y142.404 E0.031
G1 X126.326 Y142.605 E0.0505
G1 X125.669 Y142.646 E0.02066
G1 X106.422 Y142.647 E0.60346
G1 X102.541 Y141.04 E0.1317
G1 X99.461 Y137.959 E0.1366
G1 X97.853 Y134.078 E0.1317
G1 X97.853 Y106.922 E0.85148
G1 X98.649 Y105 E0.06522
G1 X97.853 Y103.078 E0.06522
G1 X97.853 Y75.922 E0.85148
G1 X99.438 Y72.097 E0.12982
M204 P1500
G1 X99.609 Y72.176 F10800
M204 P1000
G1 X99.78 Y72.255
G1 F1200
G1 X102.755 Y69.28 E0.13189
G1 X106.497 Y67.73 E0.12699
G1 X109.49 Y67.73 E0.09386
G1 X125.637 Y67.73 E0.50628
G1 X126.256 Y67.768 E0.01944
G1 X127.811 Y67.958 E0.04913
G1 X128.741 Y68.162 E0.02985
G1 X130.45 Y68.706 E0.05622
G1 X131.226 Y69.026 E0.02632
G1 X132.827 Y69.847 E0.0564
G1 X133.631 Y70.359 E0.02989
G1 X134.887 Y71.334 E0.04986
G1 X135.363 Y71.755 E0.01992
G1 X147.73 Y84.121 E0.54835
G1 X148.141 Y84.585 E0.01945
G1 X149.111 Y85.825 E0.04935
G1 X149.625 Y86.626 E0.02984
G1 X150.451 Y88.226 E0.05644
G1 X150.773 Y89.001 E0.02634
G1 X151.325 Y90.713 E0.05639
G1 X151.532 Y91.644 E0.02988
G1 X151.729 Y93.219 E0.04979
G1 X151.769 Y93.853 E0.01991
G1 X151.77 Y100.885 E0.22048
G1 X151.678 Y101.851 E0.03042
G1 X151.351 Y103.543 E0.05404
G1 X150.772 Y105.023 E0.04982
G1 X151.232 Y106.051 E0.03531
G1 X151.646 Y107.914 E0.05983
G1 X151.768 Y109.021 E0.03492
G1 X151.77 Y116.125 E0.22274
G1 X151.732 Y116.745 E0.01949
G1 X151.541 Y118.309 E0.04938
G1 X151.337 Y119.238 E0.02984
G1 X150.791 Y120.953 E0.05644
G1 X150.471 Y121.729 E0.02632
G1 X149.65 Y123.33 E0.05639
G1 X149.138 Y124.134 E0.02989
G1 X148.164 Y125.389 E0.0498
G1 X147.743 Y125.865 E0.01991
G1 X135.378 Y138.232 E0.54835
G1 X134.913 Y138.643 E0.01945
G1 X133.672 Y139.614 E0.04941
G1 X132.87 Y140.128 E0.02985
G1 X131.27 Y140.954 E0.05645
G1 X130.495 Y141.276 E0.02632
G1 X128.79 Y141.826 E0.05617
G1 X127.86 Y142.033 E0.02989
G1 X126.291 Y142.229 E0.04958
G1 X125.657 Y142.269 E0.01992
G1 X106.497 Y142.27 E0.60074
G1 X102.755 Y140.72 E0.127
G1 X99.78 Y137.745 E0.1319
G1 X98.23 Y134.003 E0.127
G1 X98.23 Y106.997 E0.84677
G1 X99.057 Y105 E0.06776
G1 X98.23 Y103.003 E0.06776
G1 X98.23 Y75.997 E0.84677
G1 X99.757 Y72.31 E0.12511
M204 P1500
G1 X99.929 Y72.389 F10800
M204 P1000
G1 X100.1 Y72.468
G1 F1200
G1 X102.968 Y69.6 E0.12719
M73 P1 R55
G1 X106.572 Y68.107 E0.12229
G1 X109.49 Y68.107 E0.09151
G1 X125.626 Y68.107 E0.50592
G1 X126.222 Y68.144 E0.01872
G1 X127.748 Y68.331 E0.04821
G1 X128.644 Y68.526 E0.02874
G1 X130.32 Y69.061 E0.05518
G1 X131.068 Y69.369 E0.02535
G1 X132.639 Y70.174 E0.05536
G1 X133.414 Y70.667 E0.02879
G1 X134.646 Y71.625 E0.04894
G1 X135.105 Y72.03 E0.01918
G1 X147.455 Y84.379 E0.54762
G1 X147.851 Y84.827 E0.01873
G1 X148.803 Y86.044 E0.04844
G1 X149.298 Y86.815 E0.02874
G1 X150.108 Y88.385 E0.0554
G1 X150.419 Y89.132 E0.02536
G1 X150.961 Y90.812 E0.05535
G1 X151.16 Y91.708 E0.02877
G1 X151.354 Y93.255 E0.04887
G1 X151.392 Y93.865 E0.01917
G1 X151.393 Y100.867 E0.21955
G1 X151.304 Y101.797 E0.0293
G1 X150.988 Y103.438 E0.05239
G1 X150.363 Y105.032 E0.05369
G1 X150.872 Y106.17 E0.03907
G1 X151.273 Y107.975 E0.05799
G1 X151.391 Y109.042 E0.03363
G1 X151.393 Y116.113 E0.22173
G1 X151.356 Y116.711 E0.01877
G1 X151.169 Y118.245 E0.04846
G1 X150.973 Y119.141 E0.02874
G1 X150.436 Y120.824 E0.0554
G1 X150.128 Y121.571 E0.02535
G1 X149.323 Y123.143 E0.05535
G1 X148.83 Y123.917 E0.02879
G1 X147.873 Y125.148 E0.04888
G1 X147.469 Y125.607 E0.01918
G1 X135.119 Y137.957 E0.54762
G1 X134.672 Y138.353 E0.01873
G1 X133.453 Y139.306 E0.0485
G1 X132.681 Y139.801 E0.02875
G1 X131.111 Y140.612 E0.05541
G1 X130.365 Y140.922 E0.02534
G1 X128.691 Y141.462 E0.05513
G1 X127.795 Y141.661 E0.02878
G1 X126.256 Y141.854 E0.04865
G1 X125.645 Y141.892 E0.01918
G1 X106.572 Y141.893 E0.59802
G1 X102.968 Y140.4 E0.1223
G1 X100.1 Y137.532 E0.12719
G1 X98.607 Y133.928 E0.12229
G1 X98.607 Y107.072 E0.84207
G1 X99.466 Y105 E0.07031
G1 X98.607 Y102.928 E0.07031
G1 X98.607 Y76.072 E0.84207
G1 X100.077 Y72.524 E0.12041
M204 P1500
G1 X100.248 Y72.603 F10800
M204 P1000
G1 X100.42 Y72.682
G1 F1200
G1 X103.182 Y69.92 E0.12248
G1 X106.647 Y68.484 E0.11759
G1 X109.49 Y68.484 E0.08915
G1 X125.614 Y68.484 E0.50556
G1 X126.187 Y68.519 E0.018
G1 X127.685 Y68.703 E0.0473
G1 X128.546 Y68.891 E0.02763
G1 X130.191 Y69.415 E0.05414
G1 X130.91 Y69.712 E0.02437
G1 X132.452 Y70.502 E0.05432
G1 X133.196 Y70.976 E0.02768
G1 X134.405 Y71.916 E0.04802
G1 X134.846 Y72.305 E0.01844
G1 X147.181 Y84.638 E0.54689
G1 X147.561 Y85.068 E0.01801
G1 X148.495 Y86.262 E0.04753
G1 X148.971 Y87.004 E0.02763
G1 X149.766 Y88.544 E0.05436
G1 X150.065 Y89.262 E0.02439
G1 X150.597 Y90.911 E0.05431
G1 X150.788 Y91.772 E0.02767
G1 X150.978 Y93.29 E0.04795
G1 X151.015 Y93.877 E0.01843
G1 X151.016 Y100.849 E0.21862
G1 X150.93 Y101.743 E0.02817
G1 X150.624 Y103.333 E0.05074
G1 X149.993 Y104.943 E0.05423
G1 X149.945 Y105.021 E0.00286
G1 X150.512 Y106.289 E0.04356
G1 X150.901 Y108.037 E0.05615
G1 X151.014 Y109.062 E0.03234
G1 X151.016 Y116.102 E0.22073
G1 X150.981 Y116.677 E0.01805
G1 X150.796 Y118.182 E0.04755
M73 P2 R55
G1 X150.608 Y119.043 E0.02763
G1 X150.082 Y120.695 E0.05436
G1 X149.785 Y121.413 E0.02437
G1 X148.995 Y122.955 E0.05431
G1 X148.521 Y123.7 E0.02768
M73 Q2 S56
G1 X147.583 Y124.907 E0.04796
G1 X147.194 Y125.348 E0.01844
G1 X134.861 Y137.682 E0.54689
G1 X134.43 Y138.063 E0.01801
G1 X133.235 Y138.998 E0.04759
G1 X132.493 Y139.474 E0.02764
G1 X130.952 Y140.269 E0.05437
G1 X130.234 Y140.568 E0.02437
G1 X128.592 Y141.097 E0.05409
G1 X127.731 Y141.289 E0.02767
G1 X126.22 Y141.478 E0.04773
G1 X125.633 Y141.515 E0.01844
G1 X106.647 Y141.516 E0.5953
G1 X103.182 Y140.08 E0.11759
G1 X100.42 Y137.318 E0.12249
G1 X98.984 Y133.853 E0.11759
G1 X98.984 Y107.147 E0.83736
G1 X99.874 Y105. E0.07286
G1 X98.984 Y102.853 E0.07286
G1 X98.984 Y76.147 E0.83737
G1 X100.397 Y72.737 E0.11571
M204 P1500
G1 X100.568 Y72.816 F10800
M204 P1000
G1 X100.739 Y72.895
G1 F1200
G1 X103.396 Y70.239 E0.11778
G1 X106.722 Y68.862 E0.11288
G1 X109.49 Y68.862 E0.0868
G1 X125.603 Y68.862 E0.5052
G1 X126.153 Y68.895 E0.01728
G1 X127.622 Y69.075 E0.04639
G1 X128.448 Y69.256 E0.02653
G1 X130.062 Y69.77 E0.0531
G1 X130.752 Y70.054 E0.0234
G1 X132.264 Y70.829 E0.05328
G1 X132.979 Y71.284 E0.02657
G1 X134.165 Y72.206 E0.04709
G1 X134.588 Y72.58 E0.0177
G1 X146.906 Y84.896 E0.54616
G1 X147.271 Y85.309 E0.01729
G1 X148.187 Y86.48 E0.04662
G1 X148.644 Y87.193 E0.02653
G1 X149.424 Y88.704 E0.05332
G1 X149.711 Y89.393 E0.02341
G1 X150.232 Y91.01 E0.05327
G1 X150.416 Y91.837 E0.02656
G1 X150.602 Y93.325 E0.04703
G1 X150.638 Y93.888 E0.0177
G1 X150.638 Y100.831 E0.21769
G1 X150.557 Y101.69 E0.02704
G1 X150.26 Y103.227 E0.0491
G1 X149.655 Y104.773 E0.05206
G1 X149.519 Y104.992 E0.00806
G1 X150.152 Y106.408 E0.04865
G1 X150.528 Y108.099 E0.05431
G1 X150.636 Y109.083 E0.03104
G1 X150.639 Y116.091 E0.21972
G1 X150.605 Y116.642 E0.01733
G1 X150.424 Y118.119 E0.04664
G1 X150.244 Y118.945 E0.02653
G1 X149.727 Y120.565 E0.05332
G1 X149.443 Y121.255 E0.0234
G1 X148.668 Y122.767 E0.05327
G1 X148.213 Y123.482 E0.02657
G1 X147.292 Y124.667 E0.04704
G1 X146.919 Y125.09 E0.0177
G1 X134.602 Y137.408 E0.54616
G1 X134.189 Y137.773 E0.01729
G1 X133.016 Y138.69 E0.04668
G1 X132.304 Y139.147 E0.02654
G1 X130.793 Y139.927 E0.05333
G1 X130.104 Y140.214 E0.0234
G1 X128.494 Y140.733 E0.05305
G1 X127.666 Y140.917 E0.02657
G1 X126.185 Y141.102 E0.04681
G1 X125.621 Y141.138 E0.01771
G1 X106.722 Y141.139 E0.59258
G1 X103.396 Y139.761 E0.11289
G1 X100.739 Y137.105 E0.11778
G1 X99.362 Y133.778 E0.11288
G1 X99.362 Y107.222 E0.83266
M73 Q2 S55
G1 X100.282 Y105. E0.0754
G1 X99.362 Y102.778 E0.0754
G1 X99.362 Y76.222 E0.83266
G1 X100.716 Y72.951 E0.111
M204 P1500
G1 X100.888 Y73.03 F10800
M204 P1000
G1 X101.059 Y73.109
G1 F1200
G1 X103.609 Y70.559 E0.11308
G1 X106.797 Y69.239 E0.10818
G1 X109.49 Y69.239 E0.08445
G1 X125.591 Y69.239 E0.50484
G1 X126.119 Y69.271 E0.01656
G1 X127.558 Y69.447 E0.04547
G1 X128.35 Y69.62 E0.02542
G1 X129.932 Y70.125 E0.05206
G1 X130.594 Y70.397 E0.02242
G1 X132.076 Y71.157 E0.05224
G1 X132.761 Y71.593 E0.02546
G1 X133.924 Y72.497 E0.04617
G1 X134.33 Y72.855 E0.01697
G1 X146.631 Y85.155 E0.54543
G1 X146.981 Y85.551 E0.01657
G1 X147.879 Y86.699 E0.0457
G1 X148.317 Y87.381 E0.02542
G1 X149.082 Y88.863 E0.05228
G1 X149.357 Y89.523 E0.02243
G1 X149.868 Y91.109 E0.05223
G1 X150.044 Y91.901 E0.02545
G1 X150.227 Y93.36 E0.0461
G1 X150.261 Y93.9 E0.01696
G1 X150.261 Y100.813 E0.21675
G1 X150.183 Y101.636 E0.02592
G1 X149.897 Y103.122 E0.04745
G1 X149.316 Y104.604 E0.04989
G1 X149.093 Y104.963 E0.01326
G1 X149.792 Y106.527 E0.05373
G1 X150.156 Y108.161 E0.05247
G1 X150.259 Y109.104 E0.02975
G1 X150.261 Y116.079 E0.21871
G1 X150.229 Y116.608 E0.01661
G1 X150.052 Y118.055 E0.04572
G1 X149.879 Y118.847 E0.02542
G1 X149.372 Y120.436 E0.05228
G1 X149.1 Y121.097 E0.02242
G1 X148.34 Y122.58 E0.05223
G1 X147.904 Y123.265 E0.02547
G1 X147.002 Y124.426 E0.04611
G1 X146.644 Y124.832 E0.01696
G1 X134.343 Y137.133 E0.54543
G1 X133.948 Y137.483 E0.01657
G1 X132.798 Y138.382 E0.04576
G1 X132.115 Y138.82 E0.02543
