; generated by SuperSlicer 2.3.57 on 2022-03-09 at 08:26:52 UTC

; 

; external perimeters extrusion width = 0.45mm
; perimeters extrusion width = 0.45mm
; infill extrusion width = 0.45mm
; solid infill extrusion width = 0.45mm
; top infill extrusion width = 0.40mm
; first layer extrusion width = 0.42mm

; object:{"name":"Blue - Exhaust Fan Cover","id":"Blue - Exhaust Fan Cover.stl id:0 copy 0","object_center":[125.000000,105.000000,0.000000],"boundingbox_center":[125.000000,105.000000,3.503054],"boundingbox_size":[87.405125,87.405518,7.007076]}
; Total objects to print: 1
M486 T1
; plater:{"center":[125.000000,105.000000,0.000000],"boundingbox_center":[125.000000,105.000000,3.503054],"boundingbox_size":[87.405125,87.405518,7.007076]}

M73 P0 R103
M73 Q0 S104
;TYPE:Custom
M862.3 P "MK3S" ; printer model check
M862.1 P0.4 ; nozzle diameter check
M115 U3.10.0 ; tell printer latest fw version
G90 ; use absolute coordinates
M83 ; extruder relative mode
M104 S255 ; set extruder temp
M140 S100 ; set bed temp
M190 S100 ; wait for bed temp
M109 S255 ; wait for extruder temp
G28 W ; home all without mesh bed level
G80 ; mesh bed leveling
G1 Y-3.0 F1000.0 ; go outside print area
G92 E0.0
G1 X60.0 E9.0 F1000.0 ; intro line
G1 X100.0 E12.5 F1000.0 ; intro line
G92 E0.0
M221 S95

; Don't change E values below. Excessive value can damage the printer.
M907 E430 ; set extruder motor current
M107
G21 ; set units to millimeters
G90 ; use absolute coordinates
M83 ; use relative distances for extrusion
M900 K0.04 ; Filament gcode LA 1.5
M900 K20 ; Filament gcode LA 1.0
;LAYER_CHANGE
;Z:0.2
;HEIGHT:0.2
;BEFORE_LAYER_CHANGE
G92 E0.0
;0.2


G1 E-0.8 F2100
G1 Z0.4 F10800
;AFTER_LAYER_CHANGE
;0.2
G1 Z0.6
M204 P1500
G1 X74.381 Y55.958
G1 Z0.2
G1 E0.8 F2100
;TYPE:Skirt
;WIDTH:0.42
G1 F1200
G1 X75.959 Y54.383 E0.06989
G1 X79.04 Y52.329 E0.11612
G1 X81.085 Y51.482 E0.06939
G1 X84.406 Y50.815 E0.10621
G1 X85.511 Y50.705 E0.03484
G1 X87.088 Y50.702 E0.04942
G1 X164.448 Y50.707 E2.42559
G1 X165.535 Y50.812 E0.03424
G1 X168.82 Y51.454 E0.10494
G1 X170.846 Y52.277 E0.06857
G1 X173.935 Y54.294 E0.11568
G1 X175.527 Y55.852 E0.06983
G1 X177.617 Y58.908 E0.11608
G1 X178.497 Y60.98 E0.07059
G1 X179.18 Y64.295 E0.10614
G1 X179.296 Y65.439 E0.03606
G1 X179.298 Y144.421 E2.47641
G1 X179.191 Y145.516 E0.0345
G1 X178.541 Y148.819 E0.10557
G1 X177.708 Y150.855 E0.06896
G1 X175.667 Y153.957 E0.11642
G1 X174.103 Y155.544 E0.06987
G1 X171.02 Y157.635 E0.11681
G1 X168.956 Y158.504 E0.07021
G1 X165.616 Y159.187 E0.1069
G1 X164.481 Y159.301 E0.03577
G1 X85.546 Y159.298 E2.47494
G1 X84.441 Y159.189 E0.03482
G1 X81.142 Y158.533 E0.10547
G1 X79.095 Y157.689 E0.06943
G1 X76.002 Y155.634 E0.11643
G1 X74.422 Y154.062 E0.06988
G1 X72.344 Y150.969 E0.11683
G1 X71.487 Y148.916 E0.06976
G1 X70.811 Y145.571 E0.10699
G1 X70.699 Y144.447 E0.03542
G1 X70.707 Y65.467 E2.47637
M73 P0 R102
G1 X70.818 Y64.353 E0.03509
G1 X71.474 Y61.08 E0.10468
G1 X72.328 Y59.025 E0.06978
G1 X74.348 Y56.008 E0.11383
G1 X74.504 Y56.113 F10800
M204 P1000
G1 X74.661 Y56.218
G1 F1200
G1 X74.674 Y56.199 E0.00072
G1 X76.199 Y54.677 E0.06756
G1 X79.219 Y52.663 E0.1138
G1 X81.195 Y51.844 E0.06707
G1 X84.462 Y51.189 E0.10447
G1 X85.531 Y51.082 E0.03368
G1 X87.088 Y51.079 E0.04882
G1 X164.43 Y51.084 E2.42501
G1 X165.48 Y51.186 E0.03309
G1 X168.712 Y51.817 E0.10322
G1 X170.67 Y52.613 E0.06629
G1 X173.698 Y54.589 E0.11337
G1 X175.237 Y56.095 E0.06751
G1 X177.284 Y59.089 E0.11374
G1 X178.135 Y61.093 E0.06823
G1 X178.806 Y64.352 E0.10436
G1 X178.919 Y65.458 E0.03485
G1 X178.921 Y144.402 E2.47523
G1 X178.818 Y145.461 E0.03335
G1 X178.178 Y148.711 E0.10384
G1 X177.373 Y150.679 E0.06666
G1 X175.373 Y153.719 E0.1141
G1 X173.86 Y155.252 E0.06754
G1 X170.839 Y157.302 E0.11447
G1 X168.844 Y158.142 E0.06787
G1 X165.559 Y158.813 E0.10513
G1 X164.462 Y158.924 E0.03458
G1 X85.565 Y158.921 E2.47376
M73 Q0 S103
G1 X84.496 Y158.816 E0.03366
G1 X81.251 Y158.171 E0.10373
G1 X79.273 Y157.354 E0.06711
G1 X76.242 Y155.34 E0.11411
G1 X74.714 Y153.821 E0.06755
G1 X72.678 Y150.789 E0.1145
G1 X71.849 Y148.805 E0.06744
G1 X71.184 Y145.515 E0.10524
G1 X71.076 Y144.428 E0.03424
G1 X71.084 Y65.485 E2.4752
G1 X71.191 Y64.409 E0.03392
G1 X71.836 Y61.19 E0.10293
G1 X72.662 Y59.203 E0.06745
G1 X74.628 Y56.267 E0.11079
M204 P1500
G1 X74.784 Y56.372 F10800
M204 P1000
G1 X74.941 Y56.477
G1 F1200
G1 X74.966 Y56.439 E0.00143
G1 X76.439 Y54.97 E0.06523
G1 X79.397 Y52.997 E0.11148
G1 X81.305 Y52.207 E0.06476
G1 X84.518 Y51.562 E0.10273
G1 X85.55 Y51.459 E0.03251
G1 X87.088 Y51.456 E0.04822
G1 X164.412 Y51.461 E2.42443
G1 X165.426 Y51.559 E0.03195
G1 X168.603 Y52.18 E0.10151
G1 X170.495 Y52.948 E0.064
G1 X173.461 Y54.885 E0.11106
G1 X174.946 Y56.339 E0.06518
G1 X176.952 Y59.271 E0.1114
G1 X177.773 Y61.205 E0.06588
G1 X178.433 Y64.41 E0.10258
G1 X178.542 Y65.477 E0.03365
G1 X178.544 Y144.384 E2.47406
G1 X178.444 Y145.406 E0.0322
G1 X177.815 Y148.602 E0.10212
G1 X177.038 Y150.502 E0.06437
G1 X175.078 Y153.48 E0.11179
G1 X173.618 Y154.961 E0.06521
G1 X170.658 Y156.969 E0.11214
G1 X168.732 Y157.78 E0.06553
G1 X165.502 Y158.44 E0.10337
G1 X164.443 Y158.547 E0.03339
G1 X85.583 Y158.544 E2.47259
M73 P1 R102
M73 Q1 S103
G1 X84.552 Y158.442 E0.0325
G1 X81.361 Y157.808 E0.102
G1 X79.451 Y157.02 E0.0648
G1 X76.481 Y155.047 E0.11179
G1 X75.007 Y153.579 E0.06522
G1 X73.012 Y150.61 E0.11217
G1 X72.212 Y148.694 E0.06511
G1 X71.558 Y145.459 E0.10348
G1 X71.453 Y144.409 E0.03306
G1 X71.461 Y65.504 E2.47402
G1 X71.565 Y64.465 E0.03275
G1 X72.199 Y61.3 E0.10118
G1 X72.996 Y59.382 E0.06512
G1 X74.908 Y56.527 E0.10774
M204 P1500
G1 X75.064 Y56.632 F10800
M204 P1000
G1 X75.221 Y56.737
G1 F1200
G1 X75.259 Y56.68 E0.00215
G1 X76.679 Y55.263 E0.0629
G1 X79.576 Y53.332 E0.10916
G1 X81.416 Y52.569 E0.06245
G1 X84.574 Y51.935 E0.101
G1 X85.569 Y51.836 E0.03135
G1 X87.088 Y51.833 E0.04763
G1 X164.393 Y51.838 E2.42386
G1 X165.372 Y51.933 E0.03081
G1 X168.495 Y52.543 E0.0998
G1 X170.319 Y53.284 E0.06171
G1 X173.223 Y55.18 E0.10876
G1 X174.656 Y56.582 E0.06285
G1 X176.619 Y59.453 E0.10906
G1 X177.411 Y61.318 E0.06353
G1 X178.06 Y64.467 E0.1008
G1 X178.165 Y65.497 E0.03245
G1 X178.167 Y144.366 E2.47288
G1 X178.071 Y145.351 E0.03105
G1 X177.452 Y148.493 E0.10039
G1 X176.703 Y150.325 E0.06207
G1 X174.784 Y153.242 E0.10948
G1 X173.375 Y154.67 E0.06288
G1 X170.477 Y156.636 E0.1098
G1 X168.62 Y157.418 E0.06319
G1 X165.445 Y158.067 E0.1016
G1 X164.424 Y158.17 E0.03219
G1 X85.602 Y158.167 E2.47141
G1 X84.607 Y158.069 E0.03134
G1 X81.471 Y157.445 E0.10026
G1 X79.629 Y156.685 E0.06249
G1 X76.721 Y154.753 E0.10946
G1 X75.299 Y153.338 E0.06289
G1 X73.345 Y150.43 E0.10984
G1 X72.574 Y148.582 E0.06279
G1 X71.931 Y145.402 E0.10173
G1 X71.83 Y144.391 E0.03188
G1 X71.838 Y65.523 E2.47285
M73 P1 R101
G1 X71.938 Y64.52 E0.03158
G1 X72.561 Y61.411 E0.09944
G1 X73.33 Y59.561 E0.0628
G1 X75.188 Y56.787 E0.1047
M204 P1500
G1 X75.344 Y56.892 F10800
M204 P1000
G1 X75.501 Y56.997
G1 F1200
G1 X75.552 Y56.921 E0.00287
G1 X76.919 Y55.556 E0.06057
G1 X79.754 Y53.666 E0.10684
G1 X81.526 Y52.931 E0.06013
G1 X84.63 Y52.309 E0.09926
G1 X85.588 Y52.213 E0.03019
G1 X87.088 Y52.21 E0.04703
G1 X164.375 Y52.215 E2.42328
G1 X165.317 Y52.307 E0.02967
G1 X168.387 Y52.907 E0.09808
G1 X170.143 Y53.62 E0.05943
G1 X172.986 Y55.476 E0.10645
G1 X174.366 Y56.826 E0.06052
G1 X176.287 Y59.635 E0.10671
G1 X177.05 Y61.431 E0.06117
G1 X177.687 Y64.524 E0.09903
G1 X177.788 Y65.516 E0.03125
G1 X177.79 Y144.347 E2.47171
G1 X177.697 Y145.297 E0.0299
G1 X177.089 Y148.384 E0.09867
G1 X176.368 Y150.149 E0.05977
G1 X174.489 Y153.004 E0.10716
G1 X173.133 Y154.379 E0.06055
G1 X170.297 Y156.303 E0.10747
G1 X168.508 Y157.057 E0.06085
G1 X165.389 Y157.694 E0.09983
G1 X164.405 Y157.793 E0.031
G1 X85.62 Y157.79 E2.47023
M73 Q1 S102
G1 X84.662 Y157.695 E0.03018
G1 X81.581 Y157.083 E0.09852
G1 X79.807 Y156.351 E0.06017
G1 X76.96 Y154.46 E0.10714
G1 X75.591 Y153.097 E0.06056
G1 X73.679 Y150.251 E0.10752
G1 X72.936 Y148.471 E0.06046
G1 X72.304 Y145.346 E0.09998
G1 X72.207 Y144.372 E0.0307
G1 X72.215 Y65.541 E2.47167
G1 X72.311 Y64.576 E0.03041
G1 X72.924 Y61.521 E0.09769
G1 X73.664 Y59.74 E0.06047
G1 X75.468 Y57.046 E0.10165
M204 P1500
G1 X75.624 Y57.151 F10800
M204 P1000
G1 X75.781 Y57.256
G1 F1200
G1 X75.844 Y57.161 E0.00358
G1 X77.159 Y55.849 E0.05824
G1 X79.933 Y54. E0.10452
G1 X81.636 Y53.294 E0.05782
G1 X84.686 Y52.682 E0.09752
G1 X85.607 Y52.59 E0.02903
G1 X87.088 Y52.587 E0.04643
G1 X164.357 Y52.593 E2.42271
G1 X165.263 Y52.68 E0.02853
G1 X168.279 Y53.27 E0.09637
G1 X169.968 Y53.955 E0.05714
G1 X172.749 Y55.771 E0.10414
G1 X174.075 Y57.069 E0.0582
G1 X175.955 Y59.817 E0.10437
G1 X176.688 Y61.544 E0.05882
G1 X177.314 Y64.582 E0.09725
G1 X177.411 Y65.535 E0.03005
G1 X177.413 Y144.329 E2.47053
G1 X177.324 Y145.242 E0.02875
G1 X176.726 Y148.275 E0.09695
G1 X176.033 Y149.972 E0.05747
G1 X174.194 Y152.765 E0.10485
G1 X172.891 Y154.088 E0.05822
G1 X170.116 Y155.97 E0.10514
G1 X168.396 Y156.695 E0.05851
G1 X165.332 Y157.32 E0.09807
G1 X164.386 Y157.416 E0.02981
G1 X85.639 Y157.413 E2.46906
G1 X84.718 Y157.322 E0.02902
G1 X81.69 Y156.72 E0.09678
G1 X79.985 Y156.016 E0.05786
G1 X77.2 Y154.166 E0.10482
G1 X75.884 Y152.856 E0.05823
G1 X74.013 Y150.071 E0.10519
G1 X73.298 Y148.36 E0.05814
G1 X72.678 Y145.29 E0.09822
G1 X72.584 Y144.353 E0.02952
G1 X72.593 Y65.56 E2.4705
M73 P2 R101
M73 Q2 S102
G1 X72.685 Y64.632 E0.02924
G1 X73.286 Y61.632 E0.09594
G1 X73.998 Y59.919 E0.05815
G1 X75.747 Y57.306 E0.09861
M204 P1500
G1 X75.904 Y57.411 F10800
M204 P1000
G1 X76.061 Y57.516
G1 F1200
G1 X76.137 Y57.402 E0.0043
G1 X77.399 Y56.142 E0.05591
G1 X80.111 Y54.334 E0.1022
G1 X81.747 Y53.656 E0.05551
G1 X84.742 Y53.056 E0.09579
G1 X85.626 Y52.967 E0.02787
G1 X87.088 Y52.964 E0.04584
G1 X164.339 Y52.97 E2.42213
G1 X165.208 Y53.054 E0.02739
G1 X168.171 Y53.633 E0.09466
G1 X169.792 Y54.291 E0.05486
G1 X172.512 Y56.066 E0.10184
G1 X173.785 Y57.313 E0.05587
G1 X175.622 Y59.999 E0.10203
G1 X176.326 Y61.657 E0.05647
G1 X176.94 Y64.639 E0.09547
G1 X177.034 Y65.554 E0.02885
G1 X177.036 Y144.311 E2.46935
G1 X176.95 Y145.187 E0.0276
G1 X176.364 Y148.167 E0.09522
G1 X175.697 Y149.795 E0.05517
G1 X173.9 Y152.527 E0.10253
G1 X172.648 Y153.796 E0.05589
G1 X169.935 Y155.637 E0.1028
G1 X168.284 Y156.333 E0.05617
G1 X165.275 Y156.947 E0.0963
G1 X164.367 Y157.039 E0.02862
G1 X85.657 Y157.036 E2.46788
G1 X84.773 Y156.949 E0.02786
G1 X81.8 Y156.357 E0.09505
G1 X80.162 Y155.682 E0.05554
G1 X77.44 Y153.873 E0.1025
G1 X76.176 Y152.615 E0.0559
G1 X74.346 Y149.892 E0.10286
G1 X73.661 Y148.249 E0.05581
G1 X73.051 Y145.233 E0.09647
G1 X72.961 Y144.334 E0.02834
G1 X72.97 Y65.579 E2.46932
M73 P2 R100
G1 X73.058 Y64.688 E0.02807
G1 X73.648 Y61.742 E0.09419
G1 X74.332 Y60.098 E0.05582
G1 X76.027 Y57.566 E0.09556
M204 P1500
G1 X76.184 Y57.671 F10800
M204 P1000
G1 X76.341 Y57.775
G1 F1200
G1 X76.43 Y57.643 E0.00501
G1 X77.639 Y56.435 E0.05358
G1 X80.29 Y54.669 E0.09987
G1 X81.857 Y54.019 E0.0532
G1 X84.798 Y53.429 E0.09405
G1 X85.646 Y53.344 E0.02671
G1 X87.089 Y53.342 E0.04524
G1 X164.321 Y53.347 E2.42155
G1 X165.154 Y53.427 E0.02625
G1 X168.063 Y53.996 E0.09294
G1 X169.617 Y54.627 E0.05257
G1 X172.274 Y56.362 E0.09953
G1 X173.495 Y57.556 E0.05354
G1 X175.29 Y60.181 E0.09969
G1 X175.964 Y61.769 E0.05412
G1 X176.567 Y64.696 E0.09369
G1 X176.657 Y65.573 E0.02764
G1 X176.659 Y144.292 E2.46818
G1 X176.577 Y145.132 E0.02645
G1 X176.001 Y148.058 E0.0935
G1 X175.362 Y149.619 E0.05287
G1 X173.605 Y152.289 E0.10022
G1 X172.406 Y153.505 E0.05356
G1 X169.754 Y155.304 E0.10047
G1 X168.172 Y155.971 E0.05383
G1 X165.218 Y156.574 E0.09453
G1 X164.348 Y156.662 E0.02742
G1 X85.676 Y156.659 E2.4667
M73 Q2 S101
G1 X84.829 Y156.575 E0.0267
G1 X81.91 Y155.995 E0.09331
G1 X80.34 Y155.347 E0.05323
G1 X77.679 Y153.579 E0.10018
G1 X76.468 Y152.374 E0.05357
G1 X74.68 Y149.712 E0.10053
G1 X74.023 Y148.138 E0.05349
G1 X73.424 Y145.177 E0.09472
G1 X73.338 Y144.315 E0.02716
G1 X73.347 Y65.597 E2.46815
G1 X73.431 Y64.744 E0.0269
G1 X74.011 Y61.853 E0.09245
G1 X74.666 Y60.277 E0.05349
G1 X76.307 Y57.825 E0.09252
M204 P1500
G1 X76.464 Y57.93 F10800
M204 P1000
G1 X76.621 Y58.035
G1 F1200
G1 X76.722 Y57.883 E0.00573
G1 X77.879 Y56.729 E0.05125
G1 X80.468 Y55.003 E0.09755
G1 X81.967 Y54.381 E0.05088
G1 X84.854 Y53.802 E0.09231
G1 X85.665 Y53.721 E0.02555
G1 X87.089 Y53.719 E0.04465
G1 X164.302 Y53.724 E2.42098
G1 X165.099 Y53.801 E0.02511
G1 X167.955 Y54.359 E0.09123
G1 X169.441 Y54.962 E0.05029
G1 X172.037 Y56.657 E0.09722
G1 X173.204 Y57.8 E0.05121
G1 X174.957 Y60.363 E0.09735
G1 X175.603 Y61.882 E0.05176
G1 X176.194 Y64.754 E0.09192
G1 X176.28 Y65.593 E0.02644
G1 X176.281 Y144.274 E2.467
G1 X176.203 Y145.077 E0.0253
G1 X175.638 Y147.949 E0.09177
G1 X175.027 Y149.442 E0.05057
G1 X173.311 Y152.05 E0.09791
G1 X172.163 Y153.214 E0.05124
G1 X169.573 Y154.971 E0.09813
G1 X168.06 Y155.609 E0.05149
G1 X165.161 Y156.201 E0.09277
G1 X164.329 Y156.285 E0.02623
G1 X85.694 Y156.281 E2.46553
G1 X84.884 Y156.202 E0.02554
G1 X82.019 Y155.632 E0.09157
G1 X80.518 Y155.013 E0.05091
G1 X77.919 Y153.285 E0.09786
G1 X76.76 Y152.133 E0.05124
G1 X75.014 Y149.533 E0.09821
G1 X74.385 Y148.027 E0.05116
G1 X73.798 Y145.121 E0.09297
G1 X73.715 Y144.297 E0.02598
G1 X73.724 Y65.616 E2.46697
M73 P3 R100
G1 X73.805 Y64.8 E0.02573
G1 X74.373 Y61.963 E0.0907
G1 X75. Y60.456 E0.05117
G1 X76.587 Y58.085 E0.08948
M204 P1500
G1 X76.744 Y58.19 F10800
M204 P1000
G1 X76.901 Y58.295
G1 F1200
G1 X77.015 Y58.124 E0.00645
G1 X78.12 Y57.022 E0.04892
G1 X80.647 Y55.337 E0.09523
G1 X82.078 Y54.744 E0.04857
G1 X84.91 Y54.176 E0.09058
G1 X85.684 Y54.098 E0.02439
G1 X87.089 Y54.096 E0.04405
G1 X164.284 Y54.101 E2.4204
M73 Q3 S101
G1 X165.045 Y54.174 E0.02397
G1 X167.847 Y54.722 E0.08952
G1 X169.265 Y55.298 E0.048
G1 X171.8 Y56.953 E0.09491
G1 X172.914 Y58.043 E0.04888
G1 X174.625 Y60.545 E0.09501
G1 X175.241 Y61.995 E0.04941
G1 X175.821 Y64.811 E0.09014
G1 X175.902 Y65.612 E0.02524
G1 X175.904 Y144.256 E2.46583
G1 X175.83 Y145.022 E0.02415
G1 X175.275 Y147.84 E0.09005
G1 X174.692 Y149.265 E0.04827
G1 X173.016 Y151.812 E0.09559
G1 X171.921 Y152.923 E0.04891
G1 X169.393 Y154.638 E0.0958
G1 X167.948 Y155.247 E0.04914
G1 X165.104 Y155.827 E0.091
G1 X164.31 Y155.908 E0.02504
G1 X85.713 Y155.904 E2.46435
G1 X84.939 Y155.828 E0.02438
G1 X82.129 Y155.27 E0.08983
G1 X80.696 Y154.678 E0.0486
G1 X78.159 Y152.992 E0.09553
G1 X77.053 Y151.892 E0.04891
G1 X75.347 Y149.353 E0.09588
G1 X74.747 Y147.916 E0.04883
G1 X74.171 Y145.065 E0.09121
G1 X74.092 Y144.278 E0.02479
G1 X74.101 Y65.635 E2.4658
M73 P3 R99
G1 X74.178 Y64.855 E0.02456
G1 X74.736 Y62.074 E0.08895
G1 X75.334 Y60.635 E0.04884
G1 X76.867 Y58.345 E0.08643
M204 P1500
G1 X77.024 Y58.45 F10800
M204 P1000
G1 X77.181 Y58.554
G1 F1200
G1 X77.308 Y58.365 E0.00716
G1 X78.36 Y57.315 E0.04659
G1 X80.825 Y55.671 E0.09291
G1 X82.188 Y55.106 E0.04626
G1 X84.966 Y54.549 E0.08884
G1 X85.703 Y54.475 E0.02322
G1 X87.089 Y54.473 E0.04345
G1 X164.266 Y54.478 E2.41983
G1 X164.99 Y54.548 E0.02282
G1 X167.739 Y55.085 E0.0878
G1 X169.09 Y55.634 E0.04571
G1 X171.563 Y57.248 E0.09261
G1 X172.624 Y58.287 E0.04656
G1 X174.292 Y60.727 E0.09267
G1 X174.879 Y62.108 E0.04706
G1 X175.448 Y64.868 E0.08836
G1 X175.525 Y65.631 E0.02404
G1 X175.527 Y144.237 E2.46465
G1 X175.456 Y144.968 E0.023
G1 X174.912 Y147.731 E0.08832
G1 X174.357 Y149.089 E0.04598
G1 X172.721 Y151.574 E0.09328
G1 X171.678 Y152.632 E0.04658
G1 X169.212 Y154.305 E0.09346
G1 X167.836 Y154.885 E0.0468
G1 X165.048 Y155.454 E0.08924
G1 X164.291 Y155.531 E0.02385
G1 X85.732 Y155.527 E2.46317
G1 X84.995 Y155.455 E0.02322
G1 X82.239 Y154.907 E0.0881
G1 X80.874 Y154.344 E0.04629
G1 X78.398 Y152.698 E0.09321
G1 X77.345 Y151.651 E0.04658
G1 X75.681 Y149.174 E0.09355
G1 X75.11 Y147.805 E0.04651
G1 X74.544 Y145.008 E0.08946
G1 X74.469 Y144.259 E0.02361
G1 X74.478 Y65.654 E2.46462
M73 Q3 S100
G1 X74.552 Y64.911 E0.02339
G1 X75.098 Y62.184 E0.0872
G1 X75.668 Y60.814 E0.04652
G1 X77.147 Y58.604 E0.08339
M204 P1500
G1 X77.295 Y58.727 F10800
M204 P1000
G1 X77.442 Y58.85
G1 F1200
