; generated by SuperSlicer 2.3.57 on 2022-03-10 at 16:05:23 UTC

; 

; external perimeters extrusion width = 0.45mm
; perimeters extrusion width = 0.45mm
; infill extrusion width = 0.45mm
; solid infill extrusion width = 0.45mm
; top infill extrusion width = 0.40mm
; first layer extrusion width = 0.42mm

; object:{"name":"Blue - Exhaust Intake","id":"Blue - Exhaust Intake.stl id:0 copy 0","object_center":[125.000000,105.000000,0.000000],"boundingbox_center":[125.000000,105.000000,3.250002],"boundingbox_size":[118.000000,35.000549,6.500006]}
; Total objects to print: 1
M486 T1
; plater:{"center":[125.000000,105.000000,0.000000],"boundingbox_center":[125.000000,105.000000,3.250002],"boundingbox_size":[118.000000,35.000549,6.500006]}

M73 P0 R107
M73 Q0 S108
;TYPE:Custom
M862.3 P "MK3S" ; printer model check
M862.1 P0.4 ; nozzle diameter check
M115 U3.10.0 ; tell printer latest fw version
G90 ; use absolute coordinates
M83 ; extruder relative mode
M104 S255 ; set extruder temp
M140 S100 ; set bed temp
M190 S100 ; wait for bed temp
M109 S255 ; wait for extruder temp
G28 W ; home all without mesh bed level
G80 ; mesh bed leveling
G1 Y-3.0 F1000.0 ; go outside print area
G92 E0.0
G1 X60.0 E9.0 F1000.0 ; intro line
G1 X100.0 E12.5 F1000.0 ; intro line
G92 E0.0
M221 S95

; Don't change E values below. Excessive value can damage the printer.
M907 E430 ; set extruder motor current
M107
G21 ; set units to millimeters
G90 ; use absolute coordinates
M83 ; use relative distances for extrusion
M900 K0.04 ; Filament gcode LA 1.5
M900 K20 ; Filament gcode LA 1.0
;LAYER_CHANGE
;Z:0.2
;HEIGHT:0.2
;BEFORE_LAYER_CHANGE
G92 E0.0
;0.2


G1 E-0.8 F2100
G1 Z0.4 F10800
;AFTER_LAYER_CHANGE
;0.2
G1 Z0.6
M204 P1500
G1 X65.363 Y81.487
G1 Z0.2
G1 E0.8 F2100
;TYPE:Skirt
;WIDTH:0.42
G1 F1200
G1 X66.918 Y80.272 E0.0619
G1 X67.81 Y79.7 E0.03321
G1 X69.814 Y78.667 E0.07069
G1 X70.675 Y78.309 E0.02923
G1 X72.82 Y77.618 E0.07064
G1 X73.855 Y77.389 E0.03324
G1 X75.826 Y77.143 E0.06229
G1 X76.527 Y77.1 E0.02203
G1 X173.468 Y77.1 E3.03952
G1 X174.161 Y77.142 E0.02176
G1 X175.23 Y77.274 E0.03375
G1 X176.109 Y77.382 E0.02777
G1 X177.14 Y77.608 E0.0331
G1 X179.286 Y78.294 E0.07064
G1 X180.148 Y78.65 E0.02923
G1 X182.152 Y79.678 E0.07064
G1 X183.046 Y80.248 E0.03324
G1 X184.614 Y81.467 E0.06228
G1 X185.14 Y81.932 E0.02201
G1 X189.554 Y86.345 E0.1957
G1 X190.013 Y86.863 E0.02168
G1 X191.228 Y88.418 E0.0619
G1 X191.799 Y89.31 E0.03321
G1 X192.833 Y91.314 E0.0707
G1 X193.191 Y92.175 E0.02923
G1 X193.881 Y94.319 E0.07065
G1 X194.111 Y95.355 E0.03324
G1 X194.357 Y97.326 E0.06228
G1 X194.4 Y98.027 E0.02202
G1 X194.401 Y120.946 E0.71862
G1 X194.296 Y122.032 E0.0342
G1 X193.89 Y124.112 E0.06646
G1 X193.088 Y126.107 E0.06741
G1 X191.679 Y128.299 E0.0817
G1 X190.13 Y129.902 E0.06988
G1 X187.949 Y131.415 E0.08323
G1 X185.886 Y132.307 E0.07047
G1 X183.702 Y132.774 E0.07005
G1 X182.523 Y132.899 E0.03717
G1 X178.597 Y132.902 E0.12307
G1 X177.065 Y132.949 E0.04808
G1 X176.661 Y132.947 E0.01265
G1 X175.663 Y132.906 E0.03134
G1 X174.4 Y132.901 E0.0396
G1 X75.112 Y132.901 E3.11309
G1 X74.35 Y132.906 E0.0239
G1 X73.348 Y132.947 E0.03144
G1 X72.944 Y132.949 E0.01266
G1 X71.407 Y132.903 E0.04823
G1 X67.55 Y132.901 E0.12091
G1 X66.467 Y132.796 E0.03413
G1 X64.387 Y132.39 E0.06643
G1 X62.393 Y131.589 E0.06741
G1 X60.201 Y130.179 E0.08169
G1 X58.598 Y128.631 E0.06987
G1 X57.086 Y126.45 E0.08322
G1 X56.193 Y124.387 E0.07046
G1 X55.726 Y122.2 E0.07012
G1 X55.601 Y121.016 E0.03733
G1 X55.599 Y98.045 E0.72023
G1 X55.641 Y97.355 E0.02167
G1 X55.882 Y95.396 E0.0619
G1 X56.108 Y94.362 E0.0332
G1 X56.794 Y92.214 E0.07069
G1 X57.15 Y91.352 E0.02923
G1 X58.178 Y89.347 E0.07064
G1 X58.748 Y88.453 E0.03324
G1 X59.968 Y86.886 E0.06228
G1 X60.432 Y86.359 E0.02201
G1 X64.845 Y81.945 E0.1957
G1 X65.318 Y81.527 E0.0198
G1 X65.443 Y81.668 F10800
M204 P1000
G1 X65.568 Y81.809
G1 F1200
G1 X65.604 Y81.777 E0.00152
G1 X67.137 Y80.58 E0.06099
G1 X67.999 Y80.027 E0.0321
G1 X69.973 Y79.009 E0.06965
G1 X70.805 Y78.663 E0.02825
G1 X72.918 Y77.983 E0.0696
G1 X73.919 Y77.761 E0.03214
G1 X75.861 Y77.519 E0.06137
G1 X76.539 Y77.477 E0.0213
G1 X173.457 Y77.477 E3.03879
M73 P0 R106
G1 X174.127 Y77.518 E0.02104
G1 X175.184 Y77.648 E0.03339
G1 X176.045 Y77.754 E0.02722
G1 X177.042 Y77.973 E0.03199
G1 X179.157 Y78.648 E0.0696
G1 X179.989 Y78.992 E0.02825
G1 X181.965 Y80.005 E0.0696
G1 X182.829 Y80.556 E0.03213
G1 X184.373 Y81.758 E0.06136
G1 X184.882 Y82.207 E0.02128
G1 X189.28 Y86.603 E0.19497
G1 X189.722 Y87.104 E0.02095
G1 X190.92 Y88.636 E0.06099
G1 X191.472 Y89.498 E0.0321
G1 X192.491 Y91.473 E0.06965
G1 X192.837 Y92.305 E0.02826
G1 X193.517 Y94.418 E0.0696
G1 X193.739 Y95.419 E0.03214
G1 X193.981 Y97.361 E0.06136
G1 X194.023 Y98.039 E0.02129
G1 X194.024 Y120.928 E0.71768
G1 X193.922 Y121.977 E0.03306
G1 X193.527 Y124.005 E0.06477
G1 X192.752 Y125.933 E0.06517
G1 X191.382 Y128.064 E0.07941
G1 X189.885 Y129.613 E0.06755
G1 X187.765 Y131.084 E0.08089
G1 X185.771 Y131.946 E0.06812
G1 X183.642 Y132.401 E0.06825
G1 X182.503 Y132.522 E0.03593
G1 X178.591 Y132.525 E0.12263
G1 X177.06 Y132.572 E0.04804
G1 X176.67 Y132.57 E0.01222
G1 X175.671 Y132.529 E0.03134
G1 X174.401 Y132.524 E0.03984
G1 X75.111 Y132.524 E3.11315
G1 X74.341 Y132.529 E0.02415
G1 X73.339 Y132.57 E0.03144
G1 X72.949 Y132.572 E0.01224
G1 X71.412 Y132.525 E0.0482
G1 X67.569 Y132.524 E0.12052
G1 X66.521 Y132.422 E0.03299
G1 X64.495 Y132.027 E0.06474
G1 X62.566 Y131.252 E0.06516
G1 X60.437 Y129.882 E0.07941
G1 X58.887 Y128.385 E0.06754
G1 X57.417 Y126.266 E0.08088
G1 X56.554 Y124.272 E0.06812
G1 X56.099 Y122.141 E0.06833
G1 X55.978 Y120.996 E0.03609
M73 Q0 S107
G1 X55.976 Y98.057 E0.71924
G1 X56.017 Y97.39 E0.02095
G1 X56.254 Y95.459 E0.06098
G1 X56.473 Y94.46 E0.03209
G1 X57.149 Y92.343 E0.06965
G1 X57.493 Y91.51 E0.02826
G1 X58.506 Y89.535 E0.0696
G1 X59.056 Y88.671 E0.03213
G1 X60.258 Y87.127 E0.06135
G1 X60.707 Y86.618 E0.02128
G1 X65.104 Y82.22 E0.19497
G1 X65.523 Y81.849 E0.01755
M204 P1500
G1 X65.648 Y81.99 F10800
M204 P1000
G1 X65.773 Y82.132
G1 F1200
G1 X65.845 Y82.067 E0.00304
G1 X67.355 Y80.888 E0.06007
G1 X68.187 Y80.354 E0.03099
G1 X70.132 Y79.351 E0.06861
G1 X70.936 Y79.017 E0.02728
G1 X73.017 Y78.347 E0.06856
G1 X73.983 Y78.133 E0.03103
G1 X75.896 Y77.894 E0.06045
G1 X76.551 Y77.854 E0.02056
G1 X173.445 Y77.854 E3.03806
G1 X174.092 Y77.893 E0.02031
G1 X175.137 Y78.022 E0.03303
G1 X175.982 Y78.126 E0.02667
G1 X176.944 Y78.337 E0.03089
G1 X179.027 Y79.003 E0.06856
G1 X179.831 Y79.335 E0.02728
G1 X181.777 Y80.333 E0.06856
G1 X182.611 Y80.865 E0.03102
G1 X184.132 Y82.048 E0.06043
G1 X184.624 Y82.482 E0.02054
G1 X189.005 Y86.862 E0.19424
G1 X189.432 Y87.345 E0.02023
G1 X190.612 Y88.855 E0.06007
G1 X191.145 Y89.687 E0.03099
G1 X192.149 Y91.632 E0.06861
G1 X192.483 Y92.435 E0.02728
G1 X193.153 Y94.517 E0.06856
G1 X193.367 Y95.483 E0.03103
G1 X193.605 Y97.396 E0.06044
G1 X193.646 Y98.05 E0.02056
G1 X193.647 Y120.91 E0.71675
G1 X193.549 Y121.923 E0.03192
G1 X193.164 Y123.898 E0.06308
G1 X192.415 Y125.76 E0.06292
G1 X191.085 Y127.828 E0.07713
G1 X189.64 Y129.325 E0.06522
G1 X187.581 Y130.752 E0.07855
G1 X185.656 Y131.585 E0.06577
G1 X183.583 Y132.028 E0.06646
G1 X182.482 Y132.145 E0.0347
G1 X178.586 Y132.148 E0.12218
G1 X177.055 Y132.195 E0.04801
G1 X176.679 Y132.193 E0.0118
G1 X175.68 Y132.152 E0.03135
G1 X174.401 Y132.147 E0.04008
G1 X75.11 Y132.147 E3.11321
G1 X74.332 Y132.152 E0.02439
G1 X73.33 Y132.193 E0.03144
G1 X72.954 Y132.195 E0.01181
G1 X71.418 Y132.148 E0.04816
G1 X67.587 Y132.147 E0.12013
G1 X66.576 Y132.049 E0.03185
G1 X64.602 Y131.664 E0.06304
G1 X62.74 Y130.915 E0.06291
G1 X60.672 Y129.585 E0.07712
G1 X59.176 Y128.14 E0.06521
G1 X57.748 Y126.081 E0.07855
G1 X56.915 Y124.156 E0.06577
G1 X56.472 Y122.081 E0.06653
G1 X56.355 Y120.976 E0.03484
G1 X56.353 Y98.068 E0.71826
G1 X56.393 Y97.424 E0.02023
G1 X56.626 Y95.523 E0.06007
G1 X56.837 Y94.557 E0.03099
G1 X57.503 Y92.473 E0.06861
G1 X57.835 Y91.669 E0.02728
G1 X58.833 Y89.723 E0.06856
G1 X59.365 Y88.889 E0.03102
G1 X60.548 Y87.367 E0.06043
G1 X60.982 Y86.876 E0.02055
G1 X65.362 Y82.495 E0.19424
G1 X65.728 Y82.171 E0.01531
M204 P1500
G1 X65.853 Y82.312 F10800
M204 P1000
G1 X65.978 Y82.454
G1 F1200
G1 X66.087 Y82.357 E0.00456
G1 X67.573 Y81.196 E0.05916
G1 X68.376 Y80.681 E0.02989
G1 X70.291 Y79.693 E0.06757
G1 X71.066 Y79.371 E0.02631
G1 X73.116 Y78.711 E0.06752
G1 X74.048 Y78.505 E0.02992
G1 X75.931 Y78.27 E0.05952
G1 X76.563 Y78.231 E0.01983
G1 X173.434 Y78.231 E3.03733
M73 P1 R106
M73 Q1 S107
G1 X174.057 Y78.269 E0.01959
G1 X175.091 Y78.397 E0.03267
G1 X175.918 Y78.498 E0.02612
G1 X176.846 Y78.702 E0.02979
G1 X178.897 Y79.357 E0.06752
G1 X179.673 Y79.677 E0.02631
G1 X181.589 Y80.66 E0.06752
G1 X182.394 Y81.173 E0.02992
G1 X183.892 Y82.339 E0.05951
G1 X184.365 Y82.757 E0.01981
G1 X188.73 Y87.12 E0.19351
G1 X189.142 Y87.586 E0.01951
G1 X190.304 Y89.073 E0.05916
G1 X190.818 Y89.876 E0.02989
G1 X191.806 Y91.791 E0.06757
G1 X192.128 Y92.566 E0.02631
G1 X192.788 Y94.616 E0.06752
G1 X192.995 Y95.547 E0.02992
G1 X193.23 Y97.431 E0.05952
G1 X193.269 Y98.062 E0.01982
G1 X193.27 Y120.892 E0.71581
G1 X193.175 Y121.869 E0.03078
G1 X192.8 Y123.79 E0.06138
G1 X192.079 Y125.586 E0.06067
G1 X190.788 Y127.593 E0.07484
G1 X189.394 Y129.036 E0.06289
G1 X187.397 Y130.421 E0.07622
G1 X185.54 Y131.225 E0.06342
G1 X183.523 Y131.655 E0.06466
G1 X182.462 Y131.768 E0.03346
G1 X178.58 Y131.771 E0.12174
G1 X177.05 Y131.818 E0.04797
G1 X176.687 Y131.816 E0.01138
G1 X175.688 Y131.775 E0.03136
G1 X174.402 Y131.77 E0.04032
G1 X75.109 Y131.77 E3.11327
G1 X74.323 Y131.775 E0.02463
G1 X73.322 Y131.816 E0.03143
G1 X72.958 Y131.818 E0.01139
G1 X71.424 Y131.771 E0.04813
G1 X67.605 Y131.77 E0.11974
G1 X66.63 Y131.675 E0.03072
G1 X64.71 Y131.301 E0.06135
G1 X62.914 Y130.579 E0.06067
G1 X60.907 Y129.288 E0.07483
G1 X59.464 Y127.894 E0.06288
G1 X58.079 Y125.897 E0.07621
G1 X57.276 Y124.041 E0.06342
G1 X56.845 Y122.022 E0.06473
G1 X56.732 Y120.956 E0.0336
G1 X56.73 Y98.08 E0.71728
G1 X56.768 Y97.459 E0.01951
G1 X56.998 Y95.586 E0.05915
G1 X57.202 Y94.655 E0.02988
G1 X57.858 Y92.602 E0.06757
G1 X58.178 Y91.827 E0.02631
G1 X59.161 Y89.911 E0.06752
G1 X59.673 Y89.106 E0.02991
G1 X60.839 Y87.608 E0.05951
G1 X61.257 Y87.134 E0.01981
G1 X65.621 Y82.77 E0.19352
G1 X65.933 Y82.493 E0.01307
M204 P1500
G1 X66.058 Y82.635 F10800
M204 P1000
G1 X66.183 Y82.776
G1 F1200
G1 X66.328 Y82.647 E0.00608
G1 X67.792 Y81.504 E0.05824
G1 X68.564 Y81.008 E0.02878
G1 X70.45 Y80.036 E0.06653
G1 X71.196 Y79.726 E0.02533
G1 X73.215 Y79.076 E0.06648
G1 X74.112 Y78.877 E0.02881
G1 X75.966 Y78.646 E0.0586
G1 X76.574 Y78.608 E0.01909
G1 X173.422 Y78.608 E3.0366
G1 X174.023 Y78.645 E0.01886
G1 X175.045 Y78.771 E0.0323
G1 X175.854 Y78.871 E0.02557
G1 X176.748 Y79.067 E0.02868
G1 X178.768 Y79.712 E0.06648
G1 X179.515 Y80.02 E0.02533
G1 X181.401 Y80.988 E0.06648
G1 X182.176 Y81.482 E0.02881
G1 X183.651 Y82.629 E0.05859
G1 X184.107 Y83.032 E0.01908
G1 X188.455 Y87.379 E0.19279
G1 X188.852 Y87.828 E0.01879
G1 X189.996 Y89.291 E0.05824
G1 X190.491 Y90.064 E0.02878
G1 X191.464 Y91.95 E0.06653
G1 X191.774 Y92.696 E0.02534
G1 X192.424 Y94.714 E0.06648
G1 X192.623 Y95.612 E0.02881
G1 X192.854 Y97.466 E0.0586
G1 X192.892 Y98.074 E0.01909
G1 X192.893 Y120.874 E0.71487
G1 X192.802 Y121.814 E0.02964
G1 X192.437 Y123.683 E0.05969
G1 X191.742 Y125.412 E0.05842
G1 X190.491 Y127.358 E0.07255
G1 X189.149 Y128.747 E0.06057
G1 X187.213 Y130.09 E0.07388
G1 X185.425 Y130.864 E0.06107
G1 X183.464 Y131.282 E0.06287
G1 X182.442 Y131.391 E0.03222
G1 X178.574 Y131.394 E0.1213
G1 X177.046 Y131.441 E0.04793
G1 X176.696 Y131.439 E0.01096
G1 X175.697 Y131.398 E0.03136
G1 X174.403 Y131.393 E0.04056
G1 X75.108 Y131.393 E3.11333
M73 P1 R105
G1 X74.314 Y131.398 E0.02487
G1 X73.313 Y131.439 E0.03143
G1 X72.963 Y131.441 E0.01097
G1 X71.43 Y131.394 E0.0481
G1 X67.623 Y131.393 E0.11934
G1 X66.684 Y131.302 E0.02958
G1 X64.817 Y130.937 E0.05966
G1 X63.088 Y130.242 E0.05842
G1 X61.142 Y128.991 E0.07254
G1 X59.753 Y127.649 E0.06055
G1 X58.41 Y125.713 E0.07387
G1 X57.637 Y123.926 E0.06107
G1 X57.218 Y121.963 E0.06294
G1 X57.109 Y120.936 E0.03235
G1 X57.107 Y98.091 E0.71629
G1 X57.144 Y97.493 E0.01878
G1 X57.37 Y95.65 E0.05824
G1 X57.566 Y94.753 E0.02877
G1 X58.212 Y92.732 E0.06653
G1 X58.52 Y91.985 E0.02534
G1 X59.488 Y90.098 E0.06648
G1 X59.982 Y89.324 E0.02881
G1 X61.129 Y87.849 E0.05859
G1 X61.532 Y87.393 E0.01908
G1 X65.879 Y83.044 E0.19279
G1 X66.138 Y82.816 E0.01082
M204 P1500
G1 X66.263 Y82.957 F10800
M204 P1000
G1 X66.388 Y83.098
G1 F1200
G1 X66.569 Y82.937 E0.0076
G1 X68.01 Y81.812 E0.05733
G1 X68.753 Y81.335 E0.02767
G1 X70.609 Y80.378 E0.06549
G1 X71.327 Y80.08 E0.02436
G1 X73.313 Y79.44 E0.06544
G1 X74.176 Y79.249 E0.0277
G1 X76.002 Y79.021 E0.05768
G1 X76.586 Y78.985 E0.01836
G1 X173.411 Y78.985 E3.03587
M73 Q1 S106
G1 X173.988 Y79.02 E0.01814
G1 X174.999 Y79.145 E0.03194
G1 X175.791 Y79.243 E0.02502
G1 X176.65 Y79.431 E0.02758
G1 X178.638 Y80.066 E0.06545
G1 X179.356 Y80.363 E0.02436
G1 X181.213 Y81.315 E0.06544
G1 X181.958 Y81.79 E0.0277
G1 X183.41 Y82.92 E0.05767
G1 X183.849 Y83.307 E0.01834
G1 X188.181 Y87.637 E0.19206
G1 X188.562 Y88.069 E0.01806
G1 X189.688 Y89.51 E0.05733
G1 X190.164 Y90.253 E0.02767
G1 X191.122 Y92.109 E0.06549
G1 X191.42 Y92.826 E0.02436
G1 X192.06 Y94.813 E0.06544
G1 X192.251 Y95.676 E0.0277
G1 X192.478 Y97.501 E0.05768
G1 X192.515 Y98.085 E0.01835
G1 X192.516 Y120.855 E0.71394
G1 X192.428 Y121.76 E0.0285
G1 X192.074 Y123.576 E0.058
G1 X191.406 Y125.238 E0.05618
G1 X190.194 Y127.123 E0.07026
G1 X188.903 Y128.459 E0.05824
G1 X187.028 Y129.759 E0.07154
G1 X185.31 Y130.503 E0.05872
G1 X183.405 Y130.909 E0.06108
G1 X182.422 Y131.014 E0.03098
G1 X178.568 Y131.017 E0.12085
G1 X177.041 Y131.064 E0.0479
G1 X176.705 Y131.062 E0.01054
G1 X175.705 Y131.021 E0.03137
G1 X174.404 Y131.016 E0.0408
G1 X75.107 Y131.016 E3.11339
G1 X74.306 Y131.021 E0.02512
G1 X73.304 Y131.062 E0.03143
G1 X72.968 Y131.064 E0.01055
G1 X71.436 Y131.017 E0.04806
G1 X67.642 Y131.016 E0.11895
G1 X66.739 Y130.928 E0.02844
G1 X64.924 Y130.574 E0.05797
G1 X63.262 Y129.906 E0.05617
G1 X61.378 Y128.694 E0.07025
G1 X60.042 Y127.404 E0.05823
G1 X58.742 Y125.529 E0.07153
G1 X57.998 Y123.81 E0.05872
G1 X57.591 Y121.903 E0.06114
G1 X57.486 Y120.917 E0.03111
G1 X57.484 Y98.103 E0.71531
G1 X57.52 Y97.528 E0.01806
G1 X57.742 Y95.713 E0.05732
G1 X57.931 Y94.851 E0.02767
G1 X58.567 Y92.861 E0.06549
G1 X58.863 Y92.143 E0.02436
G1 X59.815 Y90.286 E0.06544
G1 X60.29 Y89.541 E0.0277
G1 X61.42 Y88.09 E0.05767
G1 X61.807 Y87.651 E0.01834
G1 X66.138 Y83.319 E0.19206
G1 X66.343 Y83.138 E0.00858
M204 P1500
G1 X66.468 Y83.279 F10800
M204 P1000
G1 X66.593 Y83.42
G1 F1200
G1 X66.81 Y83.227 E0.00912
G1 X68.228 Y82.12 E0.05641
G1 X68.942 Y81.662 E0.02657
G1 X70.768 Y80.72 E0.06445
G1 X71.457 Y80.434 E0.02338
G1 X73.412 Y79.804 E0.0644
G1 X74.24 Y79.621 E0.0266
G1 X76.037 Y79.397 E0.05676
G1 X76.598 Y79.362 E0.01763
G1 X173.399 Y79.362 E3.03514
G1 X173.953 Y79.396 E0.01741
G1 X174.953 Y79.519 E0.03158
G1 X175.727 Y79.615 E0.02446
G1 X176.552 Y79.796 E0.02648
G1 X178.509 Y80.421 E0.06441
G1 X179.198 Y80.705 E0.02338
G1 X181.026 Y81.643 E0.06439
G1 X181.741 Y82.098 E0.02659
G1 X183.169 Y83.21 E0.05675
G1 X183.59 Y83.582 E0.01761
G1 X187.906 Y87.896 E0.19133
G1 X188.272 Y88.31 E0.01734
G1 X189.38 Y89.728 E0.05641
G1 X189.837 Y90.441 E0.02657
G1 X190.78 Y92.268 E0.06445
G1 X191.066 Y92.957 E0.02339
G1 X191.695 Y94.912 E0.0644
G1 X191.879 Y95.74 E0.0266
G1 X192.103 Y97.536 E0.05676
G1 X192.138 Y98.097 E0.01762
G1 X192.138 Y120.837 E0.713
G1 X192.055 Y121.706 E0.02736
G1 X191.711 Y123.468 E0.0563
G1 X191.069 Y125.064 E0.05393
G1 X189.897 Y126.887 E0.06797
G1 X188.658 Y128.17 E0.05591
G1 X186.844 Y129.428 E0.0692
G1 X185.194 Y130.142 E0.05638
G1 X183.345 Y130.536 E0.05928
G1 X182.402 Y130.636 E0.02974
G1 X178.562 Y130.64 E0.12041
G1 X177.036 Y130.687 E0.04786
G1 X176.713 Y130.685 E0.01012
G1 X175.714 Y130.644 E0.03138
G1 X174.404 Y130.639 E0.04105
G1 X75.105 Y130.639 E3.11345
G1 X74.297 Y130.644 E0.02536
