; generated by SuperSlicer 2.3.57 on 2022-03-09 at 10:22:41 UTC

; 

; external perimeters extrusion width = 0.45mm
; perimeters extrusion width = 0.45mm
; infill extrusion width = 0.45mm
; solid infill extrusion width = 0.45mm
; top infill extrusion width = 0.40mm
; first layer extrusion width = 0.42mm

; object:{"name":"Blue - Top panel Clip_2","id":"Blue - Top panel Clip_2.stl id:0 copy 0","object_center":[143.000000,105.000000,0.000000],"boundingbox_center":[143.000000,105.000000,3.000001],"boundingbox_size":[30.000000,30.000214,6.000002]}
; object:{"name":"Blue - Top panel Clip_2","id":"Blue - Top panel Clip_2.stl id:0 copy 1","object_center":[107.000000,105.000000,0.000000],"boundingbox_center":[107.000000,105.000000,3.000001],"boundingbox_size":[30.000000,30.000214,6.000002]}
; Total objects to print: 2
M486 T2
; plater:{"center":[125.000000,105.000000,0.000000],"boundingbox_center":[125.000000,105.000000,3.000001],"boundingbox_size":[66.000000,30.000214,6.000002]}

M73 P0 R41
M73 Q0 S41
;TYPE:Custom
M862.3 P "MK3S" ; printer model check
M862.1 P0.4 ; nozzle diameter check
M115 U3.10.0 ; tell printer latest fw version
G90 ; use absolute coordinates
M83 ; extruder relative mode
M104 S255 ; set extruder temp
M140 S100 ; set bed temp
M190 S100 ; wait for bed temp
M109 S255 ; wait for extruder temp
G28 W ; home all without mesh bed level
G80 ; mesh bed leveling
G1 Y-3.0 F1000.0 ; go outside print area
G92 E0.0
G1 X60.0 E9.0 F1000.0 ; intro line
G1 X100.0 E12.5 F1000.0 ; intro line
G92 E0.0
M221 S95

; Don't change E values below. Excessive value can damage the printer.
M907 E430 ; set extruder motor current
M107
G21 ; set units to millimeters
G90 ; use absolute coordinates
M83 ; use relative distances for extrusion
M900 K0.04 ; Filament gcode LA 1.5
M900 K20 ; Filament gcode LA 1.0
;LAYER_CHANGE
;Z:0.2
;HEIGHT:0.2
;BEFORE_LAYER_CHANGE
G92 E0.0
;0.2


G1 E-0.8 F2100
G1 Z0.4 F10800
;AFTER_LAYER_CHANGE
;0.2
G1 Z0.6
M204 P1500
G1 X85.049 Y83.725
G1 Z0.2
G1 E0.8 F2100
;TYPE:Skirt
;WIDTH:0.42
G1 F1200
G1 X85.833 Y82.928 E0.03507
G1 X87.328 Y81.762 E0.05942
G1 X88.606 Y81.011 E0.0465
G1 X90.354 Y80.271 E0.05952
G1 X91.79 Y79.875 E0.04669
G1 X93.387 Y79.653 E0.05057
G1 X94.164 Y79.6 E0.02442
G1 X119.817 Y79.6 E0.80432
G1 X120.556 Y79.648 E0.02322
G1 X122.086 Y79.85 E0.0484
G1 X123.477 Y80.217 E0.0451
G1 X125.013 Y80.839 E0.05194
G1 X126.354 Y80.271 E0.04568
G1 X127.79 Y79.875 E0.04669
G1 X129.387 Y79.653 E0.05057
G1 X130.164 Y79.6 E0.02442
G1 X155.817 Y79.6 E0.80432
G1 X156.556 Y79.648 E0.02322
G1 X158.086 Y79.85 E0.0484
G1 X159.477 Y80.217 E0.0451
G1 X161.213 Y80.92 E0.05872
G1 X162.503 Y81.651 E0.04649
G1 X164.015 Y82.793 E0.05942
G1 X165.072 Y83.833 E0.0465
G1 X166.238 Y85.328 E0.05942
G1 X166.989 Y86.606 E0.0465
G1 X167.729 Y88.354 E0.05952
G1 X168.125 Y89.79 E0.04669
G1 X168.347 Y91.387 E0.05056
G1 X168.4 Y92.164 E0.02441
G1 X168.401 Y117.799 E0.80378
G1 X168.354 Y118.529 E0.02292
G1 X168.153 Y120.072 E0.04879
G1 X167.785 Y121.473 E0.04541
G1 X167.08 Y123.213 E0.05888
G1 X166.349 Y124.503 E0.0465
G1 X165.207 Y126.016 E0.05943
G1 X164.166 Y127.073 E0.0465
G1 X162.672 Y128.238 E0.05942
G1 X161.394 Y128.989 E0.04649
G1 X159.646 Y129.73 E0.05951
G1 X158.21 Y130.125 E0.04669
G1 X156.613 Y130.347 E0.05056
G1 X155.836 Y130.4 E0.02441
G1 X141.34 Y130.401 E0.45454
G1 X140.861 Y130.381 E0.01501
G1 X139.339 Y130.252 E0.0479
G1 X138.571 Y130.133 E0.02436
G1 X136.882 Y129.752 E0.0543
G1 X136.252 Y129.571 E0.02053
G1 X134.619 Y128.998 E0.05428
G1 X134.049 Y128.762 E0.01934
G1 X132.489 Y128.015 E0.05422
G1 X131.918 Y127.7 E0.02045
G1 X130.455 Y126.779 E0.05421
G1 X129.827 Y126.32 E0.02439
G1 X129.307 Y125.883 E0.02129
G1 X129.207 Y126.016 E0.00523
G1 X128.166 Y127.073 E0.0465
G1 X126.672 Y128.238 E0.05942
G1 X125.394 Y128.989 E0.04649
G1 X123.646 Y129.73 E0.05951
G1 X122.21 Y130.125 E0.04669
G1 X120.613 Y130.347 E0.05056
G1 X119.836 Y130.4 E0.02441
G1 X105.34 Y130.401 E0.45454
G1 X104.861 Y130.381 E0.01501
G1 X103.339 Y130.252 E0.0479
G1 X102.571 Y130.133 E0.02436
G1 X100.882 Y129.752 E0.0543
G1 X100.252 Y129.571 E0.02053
G1 X98.619 Y128.998 E0.05428
G1 X98.049 Y128.762 E0.01934
G1 X96.489 Y128.015 E0.05422
G1 X95.918 Y127.7 E0.02045
G1 X94.455 Y126.779 E0.05421
G1 X93.827 Y126.32 E0.02439
G1 X92.651 Y125.331 E0.04818
G1 X92.293 Y125.002 E0.01524
G1 X87.007 Y119.716 E0.2344
G1 X86.683 Y119.363 E0.01501
G1 X85.698 Y118.196 E0.0479
G1 X85.239 Y117.569 E0.02436
G1 X84.314 Y116.105 E0.0543
G1 X83.996 Y115.532 E0.02054
G1 X83.247 Y113.972 E0.05428
G1 X83.011 Y113.402 E0.01933
G1 X82.436 Y111.771 E0.05422
G1 X82.255 Y111.144 E0.02046
G1 X81.872 Y109.458 E0.05421
G1 X81.752 Y108.689 E0.02439
G1 X81.62 Y107.159 E0.04818
G1 X81.599 Y106.673 E0.01524
G1 X81.599 Y92.201 E0.45378
G1 X81.646 Y91.471 E0.02292
G1 X81.847 Y89.928 E0.04879
G1 X82.215 Y88.527 E0.04541
G1 X82.92 Y86.787 E0.05888
G1 X83.651 Y85.497 E0.04649
G1 X84.793 Y83.984 E0.05942
G1 X85.007 Y83.767 E0.00954
G1 X85.141 Y83.9 F10800
M204 P1000
G1 X85.275 Y84.032
G1 F1200
G1 X86.085 Y83.21 E0.03617
G1 X87.54 Y82.075 E0.05787
G1 X88.776 Y81.348 E0.04495
G1 X90.478 Y80.627 E0.05797
G1 X91.866 Y80.245 E0.04513
G1 X93.426 Y80.029 E0.04938
G1 X94.177 Y79.977 E0.02361
G1 X119.804 Y79.977 E0.80352
G1 X120.519 Y80.024 E0.02245
G1 X122.013 Y80.22 E0.04727
G1 X123.358 Y80.575 E0.0436
G1 X125.016 Y81.247 E0.05609
G1 X126.478 Y80.627 E0.0498
G1 X127.866 Y80.245 E0.04513
G1 X129.426 Y80.029 E0.04938
G1 X130.177 Y79.977 E0.02361
G1 X155.804 Y79.977 E0.80352
G1 X156.519 Y80.024 E0.02245
G1 X158.013 Y80.22 E0.04727
G1 X159.358 Y80.575 E0.0436
G1 X161.049 Y81.26 E0.05719
G1 X162.295 Y81.967 E0.04494
G1 X163.769 Y83.079 E0.05787
G1 X164.79 Y84.085 E0.04495
G1 X165.925 Y85.54 E0.05787
G1 X166.652 Y86.776 E0.04495
G1 X167.373 Y88.478 E0.05796
G1 X167.755 Y89.866 E0.04513
G1 X167.971 Y91.426 E0.04938
G1 X168.023 Y92.177 E0.0236
G1 X168.024 Y117.787 E0.803
M73 P1 R41
M73 Q1 S41
G1 X167.978 Y118.492 E0.02216
G1 X167.782 Y120. E0.04765
G1 X167.427 Y121.353 E0.04389
G1 X166.74 Y123.049 E0.05735
G1 X166.033 Y124.296 E0.04495
G1 X164.921 Y125.769 E0.05788
G1 X163.915 Y126.791 E0.04495
G1 X162.459 Y127.926 E0.05787
G1 X161.224 Y128.652 E0.04494
G1 X159.522 Y129.373 E0.05796
G1 X158.134 Y129.755 E0.04513
G1 X156.574 Y129.971 E0.04938
G1 X155.823 Y130.023 E0.0236
G1 X141.347 Y130.024 E0.45388
G1 X140.885 Y130.004 E0.01451
G1 X139.384 Y129.877 E0.04724
G1 X138.641 Y129.762 E0.02355
G1 X136.975 Y129.387 E0.05355
G1 X136.367 Y129.212 E0.01985
G1 X134.754 Y128.645 E0.05361
G1 X134.203 Y128.417 E0.0187
G1 X132.662 Y127.68 E0.05356
G1 X132.11 Y127.375 E0.01977
G1 X130.667 Y126.466 E0.05346
G1 X130.06 Y126.023 E0.02358
G1 X129.246 Y125.338 E0.03335
G1 X128.921 Y125.769 E0.01692
G1 X127.915 Y126.791 E0.04495
G1 X126.459 Y127.926 E0.05787
G1 X125.224 Y128.652 E0.04494
G1 X123.522 Y129.373 E0.05796
G1 X122.134 Y129.755 E0.04513
G1 X120.574 Y129.971 E0.04938
G1 X119.823 Y130.023 E0.0236
G1 X105.347 Y130.024 E0.45388
G1 X104.885 Y130.004 E0.01451
G1 X103.384 Y129.877 E0.04724
G1 X102.641 Y129.762 E0.02355
G1 X100.975 Y129.387 E0.05355
G1 X100.367 Y129.212 E0.01985
G1 X98.754 Y128.645 E0.05361
G1 X98.203 Y128.417 E0.0187
G1 X96.662 Y127.68 E0.05356
G1 X96.11 Y127.375 E0.01977
G1 X94.667 Y126.466 E0.05346
G1 X94.06 Y126.023 E0.02358
G1 X92.9 Y125.047 E0.04752
G1 X92.554 Y124.73 E0.01473
G1 X87.279 Y119.455 E0.2339
G1 X86.966 Y119.114 E0.01451
G1 X85.994 Y117.963 E0.04724
G1 X85.551 Y117.357 E0.02355
G1 X84.638 Y115.913 E0.05355
G1 X84.332 Y115.359 E0.01985
G1 X83.591 Y113.818 E0.05361
G1 X83.363 Y113.267 E0.01869
G1 X82.795 Y111.656 E0.05356
G1 X82.62 Y111.05 E0.01978
G1 X82.243 Y109.387 E0.05346
G1 X82.127 Y108.644 E0.02358
G1 X81.997 Y107.134 E0.04752
G1 X81.976 Y106.665 E0.01473
G1 X81.976 Y92.213 E0.45314
G1 X82.022 Y91.508 E0.02216
G1 X82.218 Y90. E0.04766
G1 X82.573 Y88.646 E0.0439
G1 X83.26 Y86.951 E0.05735
G1 X83.967 Y85.704 E0.04494
G1 X85.079 Y84.231 E0.05787
G1 X85.233 Y84.075 E0.00688
M204 P1500
G1 X85.367 Y84.207 F10800
M204 P1000
G1 X85.502 Y84.339
G1 F1200
G1 X86.336 Y83.492 E0.03728
G1 X87.752 Y82.387 E0.05632
G1 X88.946 Y81.686 E0.0434
G1 X90.602 Y80.984 E0.05641
G1 X91.942 Y80.615 E0.04358
G1 X93.465 Y80.404 E0.0482
G1 X94.19 Y80.354 E0.02279
G1 X119.792 Y80.354 E0.80273
G1 X120.482 Y80.399 E0.02167
G1 X121.94 Y80.591 E0.04613
G1 X123.239 Y80.934 E0.0421
G1 X124.884 Y81.6 E0.05567
G1 X124.997 Y81.664 E0.00407
G1 X126.602 Y80.984 E0.05467
G1 X127.942 Y80.615 E0.04358
G1 X129.465 Y80.404 E0.0482
G1 X130.19 Y80.354 E0.02279
G1 X155.792 Y80.354 E0.80273
G1 X156.482 Y80.399 E0.02167
G1 X157.94 Y80.591 E0.04613
G1 X159.239 Y80.934 E0.0421
G1 X160.884 Y81.6 E0.05567
G1 X162.088 Y82.283 E0.04339
G1 X163.522 Y83.365 E0.05632
G1 X164.508 Y84.336 E0.0434
G1 X165.613 Y85.753 E0.05632
G1 X166.314 Y86.946 E0.0434
G1 X167.016 Y88.603 E0.05641
G1 X167.385 Y89.942 E0.04358
G1 X167.596 Y91.465 E0.04819
G1 X167.646 Y92.19 E0.02279
G1 X167.647 Y117.775 E0.80221
G1 X167.603 Y118.456 E0.02139
G1 X167.412 Y119.927 E0.04651
G1 X167.068 Y121.234 E0.04238
G1 X166.4 Y122.884 E0.05581
G1 X165.717 Y124.088 E0.0434
G1 X164.635 Y125.522 E0.05633
G1 X163.664 Y126.508 E0.0434
G1 X162.247 Y127.613 E0.05632
G1 X161.054 Y128.314 E0.04339
G1 X159.397 Y129.016 E0.05641
G1 X158.058 Y129.385 E0.04358
G1 X156.535 Y129.596 E0.04819
G1 X155.81 Y129.646 E0.02278
G1 X141.355 Y129.647 E0.45322
G1 X140.909 Y129.628 E0.01401
G1 X139.429 Y129.502 E0.04658
G1 X138.712 Y129.392 E0.02274
G1 X137.069 Y129.021 E0.0528
G1 X136.482 Y128.852 E0.01916
G1 X134.888 Y128.293 E0.05295
G1 X134.356 Y128.073 E0.01805
G1 X132.835 Y127.344 E0.05289
G1 X132.302 Y127.05 E0.01909
G1 X130.879 Y126.154 E0.05271
G1 X130.293 Y125.726 E0.02276
G1 X129.185 Y124.794 E0.04541
G1 X128.635 Y125.522 E0.02861
G1 X127.664 Y126.508 E0.0434
G1 X126.247 Y127.613 E0.05632
G1 X125.054 Y128.314 E0.04339
G1 X123.397 Y129.016 E0.05641
G1 X122.058 Y129.385 E0.04358
G1 X120.535 Y129.596 E0.04819
G1 X119.81 Y129.646 E0.02278
G1 X105.355 Y129.647 E0.45322
M73 P1 R40
G1 X104.909 Y129.628 E0.01401
G1 X103.429 Y129.502 E0.04658
G1 X102.712 Y129.392 E0.02274
G1 X101.069 Y129.021 E0.0528
G1 X100.482 Y128.852 E0.01916
G1 X98.888 Y128.293 E0.05295
G1 X98.356 Y128.073 E0.01805
G1 X96.835 Y127.344 E0.05289
G1 X96.302 Y127.05 E0.01909
G1 X94.879 Y126.154 E0.05271
G1 X94.293 Y125.726 E0.02276
G1 X93.149 Y124.764 E0.04686
G1 X92.815 Y124.457 E0.01422
G1 X87.551 Y119.194 E0.23339
G1 X87.249 Y118.865 E0.01401
G1 X86.291 Y117.729 E0.04658
G1 X85.862 Y117.144 E0.02274
G1 X84.963 Y115.721 E0.0528
G1 X84.667 Y115.186 E0.01917
G1 X83.936 Y113.664 E0.05295
G1 X83.715 Y113.132 E0.01804
G1 X83.155 Y111.541 E0.05289
G1 X82.986 Y110.956 E0.0191
G1 X82.613 Y109.316 E0.05272
G1 X82.501 Y108.599 E0.02277
G1 X82.373 Y107.11 E0.04686
G1 X82.354 Y106.657 E0.01422
G1 X82.353 Y92.225 E0.4525
G1 X82.397 Y91.544 E0.02139
G1 X82.588 Y90.073 E0.04652
G1 X82.932 Y88.765 E0.04238
G1 X83.6 Y87.116 E0.05581
G1 X84.283 Y85.912 E0.04339
G1 X85.365 Y84.478 E0.05632
G1 X85.46 Y84.382 E0.00423
M204 P1500
G1 X85.594 Y84.514 F10800
M204 P1000
G1 X85.728 Y84.647
G1 F1200
G1 X86.587 Y83.774 E0.03839
G1 X87.965 Y82.7 E0.05477
G1 X89.115 Y82.023 E0.04185
G1 X90.727 Y81.341 E0.05486
G1 X92.019 Y80.985 E0.04202
G1 X93.504 Y80.779 E0.04701
G1 X94.203 Y80.731 E0.02198
G1 X119.78 Y80.731 E0.80194
G1 X120.445 Y80.775 E0.0209
G1 X121.867 Y80.962 E0.04499
G1 X123.119 Y81.292 E0.04059
G1 X124.72 Y81.94 E0.05414
G1 X124.993 Y82.095 E0.00986
G1 X125.115 Y82.023 E0.00445
G1 X126.727 Y81.341 E0.05486
G1 X128.019 Y80.985 E0.04202
G1 X129.504 Y80.779 E0.04701
G1 X130.203 Y80.731 E0.02198
G1 X155.78 Y80.731 E0.80194
G1 X156.445 Y80.775 E0.0209
G1 X157.867 Y80.962 E0.04499
G1 X159.119 Y81.292 E0.04059
G1 X160.72 Y81.94 E0.05414
G1 X161.881 Y82.599 E0.04184
G1 X163.275 Y83.651 E0.05477
G1 X164.226 Y84.587 E0.04185
G1 X165.3 Y85.965 E0.05477
G1 X165.977 Y87.116 E0.04185
G1 X166.659 Y88.727 E0.05486
G1 X167.015 Y90.019 E0.04202
G1 X167.221 Y91.504 E0.04701
G1 X167.269 Y92.203 E0.02197
G1 X167.27 Y117.763 E0.80142
M73 P2 R40
M73 Q2 S41
G1 X167.227 Y118.419 E0.02063
G1 X167.041 Y119.855 E0.04538
G1 X166.71 Y121.115 E0.04086
G1 X166.06 Y122.72 E0.05428
G1 X165.401 Y123.881 E0.04185
G1 X164.349 Y125.275 E0.05478
G1 X163.412 Y126.226 E0.04185
G1 X162.035 Y127.3 E0.05477
G1 X160.884 Y127.977 E0.04184
G1 X159.273 Y128.659 E0.05486
G1 X157.981 Y129.015 E0.04202
G1 X156.496 Y129.221 E0.04701
G1 X155.797 Y129.269 E0.02197
G1 X141.363 Y129.27 E0.45256
G1 X140.933 Y129.252 E0.01351
G1 X139.473 Y129.128 E0.04593
G1 X138.782 Y129.021 E0.02193
G1 X137.163 Y128.656 E0.05205
G1 X136.596 Y128.493 E0.01848
G1 X135.023 Y127.941 E0.05228
G1 X134.51 Y127.728 E0.01741
G1 X133.007 Y127.009 E0.05223
G1 X132.493 Y126.725 E0.01841
G1 X131.091 Y125.842 E0.05196
G1 X130.526 Y125.429 E0.02195
G1 X129.398 Y124.481 E0.0462
G1 X129.133 Y124.237 E0.01131
G1 X128.349 Y125.275 E0.04079
G1 X127.412 Y126.226 E0.04185
G1 X126.035 Y127.3 E0.05477
G1 X124.884 Y127.977 E0.04184
G1 X123.273 Y128.659 E0.05486
G1 X121.981 Y129.015 E0.04202
G1 X120.496 Y129.221 E0.04701
G1 X119.797 Y129.269 E0.02197
G1 X105.363 Y129.27 E0.45256
G1 X104.933 Y129.252 E0.01351
G1 X103.473 Y129.128 E0.04593
G1 X102.782 Y129.021 E0.02193
G1 X101.163 Y128.656 E0.05205
G1 X100.596 Y128.493 E0.01848
G1 X99.023 Y127.941 E0.05228
G1 X98.51 Y127.728 E0.01741
G1 X97.007 Y127.009 E0.05223
G1 X96.493 Y126.725 E0.01841
G1 X95.091 Y125.842 E0.05196
G1 X94.526 Y125.429 E0.02195
G1 X93.398 Y124.481 E0.0462
G1 X93.076 Y124.185 E0.01371
G1 X87.824 Y118.933 E0.23289
G1 X87.532 Y118.616 E0.01351
G1 X86.587 Y117.496 E0.04593
G1 X86.174 Y116.932 E0.02192
G1 X85.287 Y115.529 E0.05205
G1 X85.002 Y115.013 E0.01848
G1 X84.28 Y113.51 E0.05228
G1 X84.067 Y112.997 E0.0174
G1 X83.514 Y111.426 E0.05223
G1 X83.351 Y110.862 E0.01842
G1 X82.984 Y109.245 E0.05197
G1 X82.876 Y108.554 E0.02195
G1 X82.749 Y107.086 E0.0462
G1 X82.731 Y106.649 E0.01371
G1 X82.73 Y92.237 E0.45187
G1 X82.773 Y91.581 E0.02063
G1 X82.959 Y90.145 E0.04538
G1 X83.291 Y88.885 E0.04087
G1 X83.941 Y87.28 E0.05428
G1 X84.599 Y86.119 E0.04184
G1 X85.651 Y84.725 E0.05477
G1 X85.686 Y84.689 E0.00157
M204 P1500
G1 X85.821 Y84.822 F10800
M204 P1000
G1 X85.955 Y84.954
G1 F1200
G1 X86.839 Y84.056 E0.03949
G1 X88.177 Y83.012 E0.05322
G1 X89.285 Y82.361 E0.0403
G1 X90.851 Y81.698 E0.05331
G1 X92.095 Y81.355 E0.04047
G1 X93.543 Y81.155 E0.04583
G1 X94.216 Y81.108 E0.02116
G1 X119.767 Y81.108 E0.80114
M73 Q2 S40
G1 X120.408 Y81.15 E0.02013
G1 X121.794 Y81.333 E0.04385
G1 X123. Y81.651 E0.03909
G1 X124.555 Y82.281 E0.05261
G1 X124.996 Y82.531 E0.01591
G1 X125.285 Y82.361 E0.0105
G1 X126.851 Y81.698 E0.05331
G1 X128.095 Y81.355 E0.04047
G1 X129.543 Y81.155 E0.04583
G1 X130.216 Y81.108 E0.02116
G1 X155.767 Y81.108 E0.80114
G1 X156.408 Y81.15 E0.02013
G1 X157.794 Y81.333 E0.04385
G1 X159. Y81.651 E0.03909
G1 X160.555 Y82.281 E0.05261
G1 X161.673 Y82.914 E0.04029
G1 X163.028 Y83.937 E0.05322
G1 X163.944 Y84.839 E0.0403
G1 X164.988 Y86.177 E0.05322
G1 X165.639 Y87.285 E0.0403
G1 X166.302 Y88.851 E0.05331
G1 X166.645 Y90.095 E0.04046
G1 X166.845 Y91.543 E0.04582
G1 X166.892 Y92.216 E0.02116
G1 X166.893 Y117.751 E0.80063
G1 X166.852 Y118.383 E0.01986
G1 X166.67 Y119.782 E0.04424
G1 X166.351 Y120.996 E0.03935
G1 X165.719 Y122.555 E0.05275
G1 X165.085 Y123.673 E0.0403
G1 X164.063 Y125.028 E0.05323
G1 X163.161 Y125.944 E0.0403
G1 X161.822 Y126.988 E0.05322
G1 X160.714 Y127.639 E0.04029
G1 X159.149 Y128.302 E0.0533
G1 X157.905 Y128.645 E0.04046
G1 X156.457 Y128.845 E0.04582
G1 X155.784 Y128.892 E0.02115
G1 X141.371 Y128.893 E0.45191
G1 X140.957 Y128.875 E0.01301
G1 X139.518 Y128.753 E0.04527
G1 X138.853 Y128.65 E0.02112
G1 X137.256 Y128.29 E0.05131
G1 X136.711 Y128.134 E0.01779
G1 X135.157 Y127.588 E0.05162
G1 X134.663 Y127.384 E0.01676
G1 X133.18 Y126.673 E0.05157
G1 X132.685 Y126.4 E0.01773
G1 X131.303 Y125.53 E0.05122
G1 X130.758 Y125.132 E0.02114
G1 X129.647 Y124.197 E0.04554
G1 X129.337 Y123.913 E0.0132
G1 X129.09 Y123.666 E0.01095
G1 X128.063 Y125.028 E0.0535
G1 X127.161 Y125.944 E0.0403
