; generated by SuperSlicer 2.3.57 on 2022-03-09 at 10:21:41 UTC

; 

; external perimeters extrusion width = 0.45mm
; perimeters extrusion width = 0.45mm
; infill extrusion width = 0.45mm
; solid infill extrusion width = 0.45mm
; top infill extrusion width = 0.40mm
; first layer extrusion width = 0.42mm

; object:{"name":"Blue - Dobble Top panel Clip (L)_1","id":"Blue - Dobble Top panel Clip (L)_1.stl id:0 copy 0","object_center":[106.999878,105.000000,0.000000],"boundingbox_center":[106.999878,105.000000,3.000001],"boundingbox_size":[30.000244,60.000031,6.000001]}
; object:{"name":"Blue - Dobble Top panel Clip (R)_1","id":"Blue - Dobble Top panel Clip (R)_1.stl id:1 copy 0","object_center":[143.000122,105.000000,0.000000],"boundingbox_center":[143.000122,105.000000,3.000001],"boundingbox_size":[30.000244,60.000031,6.000001]}
; Total objects to print: 2
M486 T2
; plater:{"center":[125.000000,105.000000,0.000000],"boundingbox_center":[125.000000,105.000000,3.000001],"boundingbox_size":[66.000488,60.000031,6.000001]}

M73 P0 R77
M73 Q0 S77
;TYPE:Custom
M862.3 P "MK3S" ; printer model check
M862.1 P0.4 ; nozzle diameter check
M115 U3.10.0 ; tell printer latest fw version
G90 ; use absolute coordinates
M83 ; extruder relative mode
M104 S255 ; set extruder temp
M140 S100 ; set bed temp
M190 S100 ; wait for bed temp
M109 S255 ; wait for extruder temp
G28 W ; home all without mesh bed level
G80 ; mesh bed leveling
G1 Y-3.0 F1000.0 ; go outside print area
G92 E0.0
G1 X60.0 E9.0 F1000.0 ; intro line
G1 X100.0 E12.5 F1000.0 ; intro line
G92 E0.0
M221 S95

; Don't change E values below. Excessive value can damage the printer.
M907 E430 ; set extruder motor current
M107
G21 ; set units to millimeters
G90 ; use absolute coordinates
M83 ; use relative distances for extrusion
M900 K0.04 ; Filament gcode LA 1.5
M900 K20 ; Filament gcode LA 1.0
;LAYER_CHANGE
;Z:0.2
;HEIGHT:0.2
;BEFORE_LAYER_CHANGE
G92 E0.0
;0.2


G1 E-0.8 F2100
G1 Z0.4 F10800
;AFTER_LAYER_CHANGE
;0.2
G1 Z0.6
M204 P1500
G1 X86.669 Y75.651
G1 Z0.2
G1 E0.8 F2100
;TYPE:Skirt
;WIDTH:0.42
G1 F1200
G1 X86.998 Y75.293 E0.01523
G1 X92.284 Y70.007 E0.2344
G1 X92.636 Y69.683 E0.01501
G1 X93.804 Y68.698 E0.0479
G1 X94.431 Y68.239 E0.02436
G1 X95.895 Y67.314 E0.0543
G1 X96.468 Y66.996 E0.02054
G1 X98.028 Y66.247 E0.05428
G1 X98.598 Y66.011 E0.01934
G1 X100.229 Y65.436 E0.05422
G1 X100.856 Y65.255 E0.02046
G1 X102.542 Y64.872 E0.05421
G1 X103.31 Y64.752 E0.02439
G1 X104.839 Y64.62 E0.04812
G1 X105.321 Y64.6 E0.01512
G1 X106.067 Y64.599 E0.02338
G1 X119.8 Y64.599 E0.43058
G1 X120.529 Y64.646 E0.02292
G1 X122.072 Y64.847 E0.04879
G1 X123.473 Y65.215 E0.04541
G1 X125.013 Y65.839 E0.05209
G1 X126.354 Y65.271 E0.04568
G1 X127.79 Y64.875 E0.04669
G1 X129.387 Y64.653 E0.05056
G1 X130.164 Y64.6 E0.02441
G1 X144.67 Y64.599 E0.45483
G1 X145.15 Y64.62 E0.01507
G1 X145.835 Y64.678 E0.02156
G1 X146.664 Y64.749 E0.02608
G1 X147.43 Y64.867 E0.0243
G1 X149.119 Y65.248 E0.05427
G1 X149.748 Y65.429 E0.02053
G1 X151.381 Y66.002 E0.05427
G1 X151.951 Y66.238 E0.01933
G1 X153.511 Y66.985 E0.05422
G1 X154.082 Y67.3 E0.02047
G1 X155.545 Y68.222 E0.05421
G1 X156.173 Y68.68 E0.02438
G1 X157.349 Y69.67 E0.04817
G1 X157.707 Y69.998 E0.01524
G1 X162.993 Y75.284 E0.2344
G1 X163.317 Y75.636 E0.01501
G1 X164.302 Y76.804 E0.0479
G1 X164.762 Y77.431 E0.02437
G1 X165.687 Y78.895 E0.0543
G1 X166.004 Y79.468 E0.02053
G1 X166.753 Y81.028 E0.05428
G1 X166.99 Y81.598 E0.01935
G1 X167.564 Y83.229 E0.05422
G1 X167.745 Y83.856 E0.02045
G1 X168.128 Y85.542 E0.0542
G1 X168.248 Y86.31 E0.02439
G1 X168.38 Y87.841 E0.04818
G1 X168.401 Y88.327 E0.01525
G1 X168.401 Y132.799 E1.3944
G1 X168.354 Y133.529 E0.02292
G1 X168.154 Y135.072 E0.04879
G1 X167.785 Y136.473 E0.04541
G1 X167.08 Y138.213 E0.05888
G1 X166.349 Y139.503 E0.0465
G1 X165.207 Y141.016 E0.05943
G1 X164.167 Y142.073 E0.0465
G1 X162.672 Y143.238 E0.05942
G1 X161.394 Y143.989 E0.04649
G1 X159.646 Y144.729 E0.05951
M73 P0 R76
G1 X158.21 Y145.125 E0.04669
G1 X156.613 Y145.347 E0.05056
G1 X155.836 Y145.4 E0.02441
G1 X130.201 Y145.401 E0.80378
G1 X129.471 Y145.354 E0.02292
G1 X127.928 Y145.153 E0.04879
G1 X126.527 Y144.785 E0.04541
G1 X124.987 Y144.161 E0.05209
G1 X123.646 Y144.729 E0.04568
G1 X122.21 Y145.125 E0.04669
G1 X120.613 Y145.347 E0.05056
G1 X119.836 Y145.4 E0.02441
G1 X94.201 Y145.401 E0.80378
G1 X93.471 Y145.354 E0.02292
G1 X91.928 Y145.153 E0.04879
G1 X90.527 Y144.785 E0.04541
G1 X88.787 Y144.08 E0.05887
G1 X87.497 Y143.349 E0.04649
G1 X85.984 Y142.207 E0.05942
G1 X84.927 Y141.167 E0.0465
G1 X83.762 Y139.672 E0.05943
G1 X83.01 Y138.394 E0.0465
G1 X82.27 Y136.646 E0.05952
G1 X81.874 Y135.21 E0.04668
G1 X81.653 Y133.613 E0.05056
G1 X81.6 Y132.836 E0.02442
G1 X81.599 Y88.339 E1.39517
G1 X81.619 Y87.861 E0.01501
G1 X81.748 Y86.339 E0.04789
G1 X81.867 Y85.571 E0.02436
G1 X82.248 Y83.882 E0.05429
G1 X82.429 Y83.253 E0.02053
G1 X83.002 Y81.619 E0.05428
G1 X83.238 Y81.049 E0.01935
G1 X83.985 Y79.489 E0.05422
G1 X84.3 Y78.918 E0.02045
G1 X85.221 Y77.455 E0.05421
G1 X85.68 Y76.827 E0.02439
G1 X86.631 Y75.697 E0.0463
G1 X86.775 Y75.819 F10800
M204 P1000
G1 X86.919 Y75.94
G1 F1200
G1 X86.953 Y75.9 E0.00163
G1 X87.27 Y75.554 E0.01472
G1 X92.545 Y70.279 E0.2339
G1 X92.886 Y69.966 E0.01451
G1 X94.037 Y68.994 E0.04724
G1 X94.643 Y68.551 E0.02355
G1 X96.087 Y67.638 E0.05355
G1 X96.641 Y67.332 E0.01985
G1 X98.182 Y66.591 E0.05361
G1 X98.733 Y66.363 E0.01869
G1 X100.344 Y65.795 E0.05356
G1 X100.95 Y65.62 E0.01978
G1 X102.613 Y65.243 E0.05346
G1 X103.355 Y65.127 E0.02357
G1 X104.864 Y64.997 E0.04746
G1 X105.329 Y64.977 E0.01462
G1 X106.067 Y64.976 E0.02312
G1 X119.787 Y64.976 E0.43019
G1 X120.492 Y65.022 E0.02215
G1 X122. Y65.218 E0.04765
G1 X123.354 Y65.573 E0.0439
G1 X125.016 Y66.247 E0.05623
G1 X126.478 Y65.627 E0.0498
G1 X127.866 Y65.245 E0.04513
G1 X129.426 Y65.029 E0.04938
G1 X130.177 Y64.977 E0.0236
G1 X144.662 Y64.976 E0.45417
G1 X145.126 Y64.996 E0.01457
G1 X145.803 Y65.054 E0.02131
G1 X146.62 Y65.123 E0.02568
G1 X147.36 Y65.238 E0.02349
G1 X149.025 Y65.614 E0.05352
G1 X149.633 Y65.788 E0.01985
G1 X151.247 Y66.355 E0.05361
G1 X151.797 Y66.583 E0.01869
G1 X153.338 Y67.32 E0.05356
G1 X153.89 Y67.625 E0.01979
G1 X155.333 Y68.534 E0.05346
G1 X155.94 Y68.977 E0.02357
G1 X157.1 Y69.953 E0.04751
G1 X157.446 Y70.27 E0.01473
G1 X162.721 Y75.545 E0.2339
G1 X163.034 Y75.886 E0.01451
G1 X164.006 Y77.037 E0.04724
G1 X164.45 Y77.643 E0.02356
G1 X165.362 Y79.087 E0.05355
G1 X165.668 Y79.641 E0.01984
G1 X166.409 Y81.182 E0.05361
G1 X166.637 Y81.733 E0.0187
G1 X167.205 Y83.344 E0.05356
G1 X167.38 Y83.95 E0.01977
G1 X167.758 Y85.613 E0.05345
G1 X167.873 Y86.356 E0.02357
G1 X168.004 Y87.866 E0.04752
G1 X168.024 Y88.335 E0.01474
G1 X168.024 Y132.787 E1.39376
G1 X167.978 Y133.492 E0.02215
G1 X167.783 Y134.999 E0.04765
G1 X167.427 Y136.353 E0.04389
G1 X166.74 Y138.049 E0.05735
G1 X166.033 Y139.296 E0.04495
G1 X164.921 Y140.769 E0.05788
G1 X163.915 Y141.79 E0.04495
G1 X162.46 Y142.925 E0.05787
G1 X161.224 Y143.652 E0.04494
G1 X159.522 Y144.373 E0.05796
G1 X158.134 Y144.755 E0.04513
G1 X156.574 Y144.971 E0.04938
G1 X155.823 Y145.023 E0.0236
G1 X130.213 Y145.024 E0.803
G1 X129.508 Y144.978 E0.02216
G1 X128. Y144.782 E0.04766
G1 X126.646 Y144.427 E0.0439
G1 X124.984 Y143.753 E0.05623
G1 X123.522 Y144.373 E0.0498
G1 X122.134 Y144.755 E0.04513
G1 X120.574 Y144.971 E0.04938
G1 X119.823 Y145.023 E0.0236
G1 X94.213 Y145.024 E0.803
G1 X93.507 Y144.978 E0.02216
G1 X92. Y144.782 E0.04766
G1 X90.646 Y144.427 E0.0439
G1 X88.951 Y143.74 E0.05734
G1 X87.704 Y143.033 E0.04494
G1 X86.231 Y141.921 E0.05787
G1 X85.21 Y140.915 E0.04495
G1 X84.074 Y139.46 E0.05788
G1 X83.348 Y138.224 E0.04495
G1 X82.627 Y136.521 E0.05797
G1 X82.245 Y135.134 E0.04513
G1 X82.029 Y133.574 E0.04938
G1 X81.977 Y132.823 E0.0236
G1 X81.976 Y88.347 E1.39451
G1 X81.995 Y87.885 E0.01451
G1 X82.123 Y86.384 E0.04724
G1 X82.237 Y85.641 E0.02355
G1 X82.613 Y83.975 E0.05354
G1 X82.788 Y83.367 E0.01984
G1 X83.354 Y81.754 E0.05361
G1 X83.582 Y81.203 E0.0187
G1 X84.32 Y79.662 E0.05356
G1 X84.625 Y79.11 E0.01977
G1 X85.534 Y77.667 E0.05346
G1 X85.977 Y77.06 E0.02358
G1 X86.881 Y75.986 E0.04401
M204 P1500
G1 X87.025 Y76.107 F10800
M204 P1000
G1 X87.169 Y76.229
G1 F1200
G1 X87.236 Y76.149 E0.00325
G1 X87.543 Y75.815 E0.01422
G1 X92.806 Y70.551 E0.23339
G1 X93.135 Y70.249 E0.01401
G1 X94.27 Y69.291 E0.04658
G1 X94.855 Y68.862 E0.02274
G1 X96.279 Y67.963 E0.0528
G1 X96.814 Y67.667 E0.01917
G1 X98.336 Y66.936 E0.05295
G1 X98.868 Y66.715 E0.01805
G1 X100.459 Y66.155 E0.05289
G1 X101.044 Y65.986 E0.0191
G1 X102.683 Y65.613 E0.05271
G1 X103.401 Y65.501 E0.02276
G1 X104.888 Y65.373 E0.0468
G1 X105.338 Y65.354 E0.01412
G1 X106.067 Y65.353 E0.02287
G1 X119.775 Y65.353 E0.42981
G1 X120.456 Y65.397 E0.02139
G1 X121.927 Y65.588 E0.04651
G1 X123.234 Y65.932 E0.04238
G1 X124.884 Y66.6 E0.05581
G1 X124.997 Y66.664 E0.00407
G1 X126.603 Y65.984 E0.05467
G1 X127.942 Y65.615 E0.04358
G1 X129.465 Y65.404 E0.04819
G1 X130.19 Y65.354 E0.02279
G1 X144.654 Y65.354 E0.45351
G1 X145.102 Y65.373 E0.01407
G1 X145.771 Y65.43 E0.02106
G1 X146.575 Y65.498 E0.02527
G1 X147.289 Y65.609 E0.02268
G1 X148.931 Y65.979 E0.05277
G1 X149.519 Y66.148 E0.01917
G1 X151.112 Y66.707 E0.05295
G1 X151.644 Y66.927 E0.01804
G1 X153.165 Y67.656 E0.0529
G1 X153.699 Y67.95 E0.0191
G1 X155.121 Y68.846 E0.05271
G1 X155.707 Y69.274 E0.02276
G1 X156.851 Y70.236 E0.04685
G1 X157.185 Y70.543 E0.01422
G1 X162.449 Y75.806 E0.23339
G1 X162.751 Y76.135 E0.01401
G1 X163.709 Y77.271 E0.04659
G1 X164.138 Y77.856 E0.02274
G1 X165.037 Y79.279 E0.0528
G1 X165.333 Y79.814 E0.01916
G1 X166.064 Y81.336 E0.05295
G1 X166.285 Y81.868 E0.01806
G1 X166.846 Y83.459 E0.0529
G1 X167.015 Y84.044 E0.01909
G1 X167.387 Y85.684 E0.05271
G1 X167.499 Y86.401 E0.02276
G1 X167.627 Y87.89 E0.04686
G1 X167.647 Y88.343 E0.01423
G1 X167.647 Y132.775 E1.39313
G1 X167.603 Y133.456 E0.02139
G1 X167.412 Y134.927 E0.04651
G1 X167.068 Y136.234 E0.04238
G1 X166.4 Y137.884 E0.05581
G1 X165.717 Y139.088 E0.0434
G1 X164.635 Y140.522 E0.05633
G1 X163.664 Y141.508 E0.0434
G1 X162.247 Y142.613 E0.05632
G1 X161.054 Y143.314 E0.04339
G1 X159.398 Y144.016 E0.05641
G1 X158.058 Y144.385 E0.04358
G1 X156.535 Y144.596 E0.04819
G1 X155.81 Y144.646 E0.02279
G1 X130.225 Y144.647 E0.80221
M73 P1 R76
M73 Q1 S77
G1 X129.544 Y144.603 E0.02139
G1 X128.073 Y144.412 E0.04652
G1 X126.766 Y144.068 E0.04238
G1 X125.116 Y143.4 E0.05581
G1 X125.003 Y143.336 E0.00407
G1 X123.397 Y144.016 E0.05467
G1 X122.058 Y144.385 E0.04357
G1 X120.535 Y144.596 E0.04819
G1 X119.81 Y144.646 E0.02279
G1 X94.225 Y144.647 E0.80221
M73 Q1 S76
G1 X93.544 Y144.603 E0.02139
G1 X92.073 Y144.412 E0.04652
G1 X90.765 Y144.068 E0.04238
G1 X89.116 Y143.4 E0.05581
G1 X87.912 Y142.717 E0.04339
G1 X86.478 Y141.635 E0.05632
G1 X85.492 Y140.664 E0.0434
G1 X84.387 Y139.247 E0.05633
G1 X83.686 Y138.054 E0.0434
G1 X82.984 Y136.397 E0.05641
G1 X82.615 Y135.058 E0.04357
G1 X82.404 Y133.535 E0.04819
G1 X82.354 Y132.81 E0.02279
G1 X82.353 Y88.355 E1.39385
G1 X82.372 Y87.909 E0.01401
G1 X82.497 Y86.428 E0.04658
G1 X82.608 Y85.712 E0.02274
G1 X82.979 Y84.069 E0.0528
G1 X83.147 Y83.482 E0.01916
G1 X83.707 Y81.888 E0.05295
G1 X83.927 Y81.356 E0.01806
G1 X84.656 Y79.835 E0.0529
G1 X84.95 Y79.302 E0.01909
G1 X85.846 Y77.879 E0.05271
G1 X86.274 Y77.293 E0.02277
G1 X87.131 Y76.275 E0.04172
M204 P1500
G1 X87.275 Y76.396 F10800
M204 P1000
G1 X87.419 Y76.517
G1 F1200
G1 X87.519 Y76.398 E0.00488
G1 X87.815 Y76.076 E0.01371
G1 X93.067 Y70.824 E0.23289
G1 X93.384 Y70.532 E0.01351
G1 X94.504 Y69.587 E0.04593
G1 X95.068 Y69.174 E0.02192
G1 X96.471 Y68.288 E0.05205
G1 X96.987 Y68.002 E0.01848
G1 X98.49 Y67.28 E0.05228
G1 X99.003 Y67.067 E0.0174
G1 X100.574 Y66.514 E0.05223
G1 X101.138 Y66.351 E0.01841
G1 X102.754 Y65.984 E0.05196
G1 X103.446 Y65.876 E0.02195
G1 X104.912 Y65.75 E0.04615
G1 X105.346 Y65.731 E0.01361
G1 X106.067 Y65.73 E0.02261
G1 X119.763 Y65.73 E0.42942
G1 X120.419 Y65.773 E0.02062
G1 X121.855 Y65.959 E0.04538
G1 X123.115 Y66.291 E0.04087
G1 X124.72 Y66.94 E0.05428
G1 X124.993 Y67.096 E0.00986
G1 X125.116 Y67.023 E0.00446
G1 X126.727 Y66.341 E0.05486
G1 X128.019 Y65.985 E0.04202
G1 X129.504 Y65.779 E0.04701
G1 X130.203 Y65.731 E0.02197
G1 X144.646 Y65.731 E0.45285
G1 X145.078 Y65.749 E0.01357
G1 X145.739 Y65.805 E0.02081
G1 X146.53 Y65.873 E0.02487
G1 X147.219 Y65.979 E0.02187
G1 X148.838 Y66.344 E0.05202
G1 X149.404 Y66.507 E0.01848
G1 X150.977 Y67.06 E0.05228
G1 X151.49 Y67.272 E0.0174
G1 X152.993 Y67.991 E0.05223
G1 X153.507 Y68.275 E0.01842
G1 X154.909 Y69.158 E0.05197
G1 X155.475 Y69.571 E0.02194
G1 X156.602 Y70.52 E0.04619
G1 X156.924 Y70.815 E0.01371
G1 X162.177 Y76.067 E0.23289
G1 X162.468 Y76.384 E0.01351
G1 X163.413 Y77.504 E0.04593
G1 X163.826 Y78.068 E0.02193
G1 X164.713 Y79.472 E0.05205
G1 X164.998 Y79.987 E0.01847
G1 X165.72 Y81.49 E0.05229
G1 X165.933 Y82.003 E0.01741
G1 X166.486 Y83.574 E0.05223
G1 X166.649 Y84.138 E0.01841
G1 X167.016 Y85.754 E0.05196
G1 X167.124 Y86.446 E0.02195
G1 X167.251 Y87.914 E0.0462
G1 X167.27 Y88.351 E0.01372
G1 X167.27 Y132.763 E1.39249
G1 X167.227 Y133.419 E0.02063
G1 X167.041 Y134.854 E0.04537
G1 X166.71 Y136.115 E0.04086
G1 X166.06 Y137.72 E0.05428
G1 X165.402 Y138.881 E0.04185
G1 X164.349 Y140.275 E0.05478
G1 X163.412 Y141.226 E0.04185
G1 X162.035 Y142.3 E0.05477
G1 X160.884 Y142.977 E0.04184
G1 X159.273 Y143.659 E0.05486
G1 X157.982 Y144.015 E0.04202
G1 X156.496 Y144.221 E0.04701
G1 X155.797 Y144.269 E0.02197
G1 X130.237 Y144.27 E0.80142
G1 X129.581 Y144.227 E0.02063
G1 X128.146 Y144.041 E0.04538
G1 X126.885 Y143.709 E0.04087
G1 X125.28 Y143.06 E0.05428
G1 X125.007 Y142.904 E0.00986
G1 X124.884 Y142.977 E0.00446
G1 X123.273 Y143.659 E0.05486
G1 X121.981 Y144.015 E0.04202
G1 X120.496 Y144.221 E0.04701
G1 X119.797 Y144.269 E0.02197
G1 X94.237 Y144.27 E0.80142
G1 X93.58 Y144.227 E0.02063
G1 X92.145 Y144.041 E0.04538
G1 X90.885 Y143.709 E0.04087
G1 X89.28 Y143.06 E0.05428
G1 X88.119 Y142.401 E0.04184
G1 X86.725 Y141.349 E0.05477
G1 X85.774 Y140.413 E0.04185
G1 X84.7 Y139.035 E0.05478
G1 X84.023 Y137.884 E0.04185
G1 X83.341 Y136.273 E0.05486
G1 X82.985 Y134.981 E0.04202
G1 X82.779 Y133.496 E0.04701
G1 X82.731 Y132.797 E0.02197
G1 X82.73 Y88.363 E1.3932
G1 X82.748 Y87.933 E0.01351
G1 X82.872 Y86.473 E0.04593
G1 X82.979 Y85.782 E0.02192
G1 X83.344 Y84.163 E0.05205
G1 X83.507 Y83.596 E0.01847
G1 X84.059 Y82.023 E0.05228
G1 X84.271 Y81.51 E0.01741
G1 X84.991 Y80.007 E0.05223
G1 X85.275 Y79.493 E0.01841
G1 X86.158 Y78.091 E0.05196
G1 X86.571 Y77.526 E0.02195
G1 X87.381 Y76.563 E0.03943
M204 P1500
G1 X87.525 Y76.685 F10800
M204 P1000
G1 X87.669 Y76.806
G1 F1200
G1 X87.803 Y76.647 E0.00651
G1 X88.087 Y76.337 E0.0132
G1 X93.328 Y71.096 E0.23238
G1 X93.633 Y70.815 E0.01301
G1 X94.737 Y69.884 E0.04527
G1 X95.28 Y69.486 E0.02111
G1 X96.663 Y68.612 E0.0513
G1 X97.16 Y68.337 E0.0178
G1 X98.644 Y67.624 E0.05162
G1 X99.138 Y67.42 E0.01676
G1 X100.689 Y66.873 E0.05157
G1 X101.232 Y66.716 E0.01773
G1 X102.825 Y66.354 E0.05122
G1 X103.491 Y66.251 E0.02113
G1 X104.937 Y66.126 E0.04549
G1 X105.354 Y66.108 E0.01311
G1 X106.067 Y66.107 E0.02235
G1 X119.751 Y66.107 E0.42904
G1 X120.383 Y66.148 E0.01986
G1 X121.782 Y66.33 E0.04424
G1 X122.996 Y66.649 E0.03935
G1 X124.555 Y67.281 E0.05275
G1 X124.997 Y67.531 E0.01591
G1 X125.286 Y67.361 E0.01051
G1 X126.851 Y66.698 E0.0533
G1 X128.095 Y66.355 E0.04046
G1 X129.543 Y66.155 E0.04582
G1 X130.216 Y66.108 E0.02116
G1 X144.638 Y66.108 E0.45219
G1 X145.054 Y66.125 E0.01306
G1 X145.707 Y66.181 E0.02056
G1 X146.485 Y66.247 E0.02446
G1 X147.149 Y66.35 E0.02106
G1 X148.744 Y66.71 E0.05128
G1 X149.289 Y66.867 E0.0178
G1 X150.843 Y67.412 E0.05162
G1 X151.337 Y67.616 E0.01675
G1 X152.82 Y68.327 E0.05157
G1 X153.315 Y68.6 E0.01774
G1 X154.698 Y69.47 E0.05122
G1 X155.242 Y69.868 E0.02113
G1 X156.353 Y70.803 E0.04553
G1 X156.663 Y71.088 E0.0132
G1 X161.904 Y76.328 E0.23238
G1 X162.185 Y76.634 E0.01301
G1 X163.116 Y77.737 E0.04527
G1 X163.514 Y78.281 E0.02112
G1 X164.388 Y79.664 E0.0513
G1 X164.663 Y80.16 E0.01779
G1 X165.376 Y81.644 E0.05162
